%
(HOLDEFORMACFLATHOLDER)
(T1  D=3. CR=0. - ZMIN=-19. - FLAT END MILL)
N1 G90 G94 G17 G91.1
N2 G21
(WHEN USING FUSION 360 FOR PERSONAL USE, THE FEEDRATE OF)
(RAPID MOVES IS REDUCED TO MATCH THE FEEDRATE OF CUTTING)
(MOVES, WHICH CAN INCREASE MACHINING TIME. UNRESTRICTED RAPID)
(MOVES ARE AVAILABLE WITH A FUSION 360 SUBSCRIPTION.)
(2D POCKET1)
N3 T1
N4 S5000 M3
N5 G54
N6 G64 P0.1
N7 M8
N8 G0 X-43.589 Y-10.305
N9 G43 Z15. H1
N10 G1 Z5. F1000.
N11 Z1.8 F333.33
N12 Z-0.725 F1000.
N13 X-46.876
N14 G3 X-47.195 Y-10.624 I0. J-0.319
N15 G1 Y-15.422
N16 G3 X-44.34 Y-17.584 I2.247 J0.
N17 G2 X-40.792 Y-17.095 I3.548 J-12.609
N18 G1 X41.775
N19 G3 X42.095 Y-16.775 I0. J0.319
N20 G1 Y-15.724
N21 G3 X41.775 Y-15.405 I-0.319 J0.
N22 G1 X-41.776
N23 G3 X-42.095 Y-15.724 I0. J-0.319
N24 G1 Y-16.775
N25 G3 X-41.776 Y-17.095 I0.319 J0.
N26 G1 X-40.792
N27 G2 X-39.518 Y-17.943 I0. J-1.38
N28 G3 X-38.244 Y-18.792 I1.273 J0.531
N29 G1 X39.5 Y-18.75
N30 G2 X41.488 Y-18.772 I0. J-87.795
N31 G3 X43.475 Y-18.795 I1.988 J87.772
N32 X43.794 Y-18.475 I0. J0.319
N33 G1 Y-14.024
N34 G3 X43.475 Y-13.705 I-0.319 J0.
N35 G1 X-43.476
N36 G3 X-43.795 Y-14.024 I0. J-0.319
N37 G1 Y-18.475
N38 G3 X-43.476 Y-18.795 I0.319 J0.
N39 G1 X-38.244 Y-18.792
N40 G2 X-36.969 Y-19.641 I0.001 J-1.381
N41 G3 X-35.695 Y-20.49 I1.274 J0.532
N42 G1 X39.5 Y-20.45
N43 G2 X42.338 Y-20.472 I0. J-178.935
N44 G3 X45.175 Y-20.495 I2.838 J178.912
N45 X45.494 Y-20.175 I0. J0.319
N46 G1 Y-12.324
N47 G3 X45.175 Y-12.005 I-0.319 J0.
N48 G1 X-45.176
N49 G3 X-45.495 Y-12.324 I0. J-0.319
N50 G1 Y-20.175
N51 G3 X-45.176 Y-20.495 I0.319 J0.
N52 G1 X-35.695 Y-20.49
N53 G3 X-35.539 Y-20.164 I0. J0.2
N54 G1 X-43.457 Y-10.379
N55 X-43.489 Y-10.348
N56 X-43.526 Y-10.324
N57 X-43.568 Y-10.31
N58 X-43.612 Y-10.305
N59 X-46.876
N60 G3 X-47.195 Y-10.624 I0. J-0.319
N61 G1 Y-21.875
N62 G3 X-46.876 Y-22.195 I0.319 J0.
N63 G1 X39.5 Y-22.15
N64 X46.875 Y-22.195
N65 G3 X47.194 Y-21.875 I0. J0.319
N66 G1 Y-10.624
N67 G3 X46.875 Y-10.305 I-0.319 J0.
N68 G1 X43.61
N69 X43.599
N70 Z5.
N71 X-43.589 Y-8.605
N72 Z1.8 F333.33
N73 Z-0.725 F1000.
N74 X-43.612
N75 X-48.576
N76 G3 X-48.895 Y-8.924 I0. J-0.319
N77 G1 Y-23.575
N78 G3 X-48.576 Y-23.895 I0.319 J0.
N79 G1 X39.5 Y-23.85
N80 X48.575 Y-23.895
N81 G3 X48.895 Y-23.575 I0. J0.319
N82 G1 Y-8.924
N83 G3 X48.575 Y-8.605 I-0.319 J0.
N84 G1 X43.611
N85 X43.599
N86 Z1.8
N87 X25.862 Y-25.595
N88 Z-0.725
N89 X25.874
N90 X50.275
N91 G3 X50.595 Y-25.275 I0. J0.319
N92 G1 Y-7.224
N93 G3 X50.275 Y-6.905 I-0.319 J0.
N94 G1 X43.611
N95 X43.599
N96 Z5.
N97 X-24.136 Y-25.595
N98 Z1.8 F333.33
N99 Z-0.725 F1000.
N100 X-24.124
N101 X24.124
N102 X24.135
N103 Z5.
N104 X-43.588 Y-6.905
N105 Z1.8 F333.33
N106 Z-0.725 F1000.
N107 X-43.612
N108 X-50.276
N109 G3 X-50.595 Y-7.224 I0. J-0.319
N110 G1 Y-25.275
N111 G3 X-50.276 Y-25.595 I0.319 J0.
N112 G1 X-25.874
N113 G3 X-25.725 Y-25.262 I0. J0.2
N114 G1 X-43.462 Y-5.272
N115 X-43.505 Y-5.236
N116 X-43.556 Y-5.213
N117 X-43.612 Y-5.205
N118 X-51.976
N119 G3 X-52.295 Y-5.524 I0. J-0.319
N120 G1 Y-26.975
N121 G3 X-51.976 Y-27.295 I0.319 J0.
N122 G1 X51.975
N123 G3 X52.294 Y-26.975 I0. J0.319
N124 G1 Y-5.524
N125 G3 X51.975 Y-5.205 I-0.319 J0.
N126 G1 X43.611
N127 X43.6
N128 Z5.
N129 X-43.599 Y-3.505
N130 Z1.8 F333.33
N131 Z-0.725 F1000.
N132 X-43.611
N133 X-53.676
N134 G3 X-53.995 Y-3.824 I0. J-0.319
N135 G1 Y-28.675
N136 G3 X-53.676 Y-28.995 I0.319 J0.
N137 G1 X53.675
N138 G3 X53.994 Y-28.675 I0. J0.319
N139 G1 Y-3.824
N140 G3 X53.675 Y-3.505 I-0.319 J0.
N141 G1 X43.612
N142 X43.6
N143 Z5.
N144 X-43.599 Y-1.805
N145 Z1.8 F333.33
N146 Z-0.725 F1000.
N147 X-43.611
N148 X-55.376
N149 G3 X-55.695 Y-2.124 I0. J-0.319
N150 G1 Y-30.375
N151 G3 X-55.376 Y-30.695 I0.319 J0.
N152 G1 X55.375
N153 G3 X55.694 Y-30.375 I0. J0.319
N154 G1 Y-2.124
N155 G3 X55.375 Y-1.805 I-0.319 J0.
N156 G1 X43.612
N157 X43.588
N158 Z1.8
N159 X56.459 Y-0.105
N160 Z-0.725
N161 X56.436
N162 X43.612
N163 G3 X43.429 Y-0.385 I0. J-0.2
N164 G1 X57.011 Y-31.625
N165 G3 X57.395 Y-31.545 I0.183 J0.08
N166 G1 Y-1.052
N167 Y-1.04
N168 Z5.
N169 X-43.599 Y-0.105
N170 Z1.8 F333.33
N171 Z-0.725 F1000.
N172 X-43.611
N173 X-56.445
N174 X-56.497 Y-0.112
N175 X-56.546 Y-0.132
N176 X-56.587 Y-0.164
N177 X-57.337 Y-0.923
N178 X-57.369 Y-0.965
N179 X-57.388 Y-1.012
N180 X-57.395 Y-1.064
N181 Y-31.44
N182 X-57.388 Y-31.491
N183 X-57.368 Y-31.54
N184 X-57.336 Y-31.581
N185 X-56.577 Y-32.336
N186 X-56.536 Y-32.368
N187 X-56.488 Y-32.388
N188 X-56.436 Y-32.395
N189 X39.5 Y-32.35
N190 X56.32 Y-32.371
N191 X56.466 Y-32.374
N192 X56.478 Y-32.375
N193 Z5.
N194 X-43.595 Y1.55
N195 Z1.8 F333.33
N196 Z-0.725 F1000.
N197 X-43.606
N198 X-57.488
N199 G3 X-59.05 Y0. I-0.012 J-1.55
N200 G1 Y-32.487
N201 G3 X-57.5 Y-34.05 I1.55 J-0.013
N202 G1 X39.5
N203 X56.32
N204 G2 X57.218 Y-34.132 I0. J-4.95
N205 G3 X59.049 Y-32.608 I0.281 J1.524
N206 G1 X59.05 Y-0.019
N207 G3 X57.5 Y1.55 I-1.55 J0.019
N208 G1 X43.616
N209 X43.593
N210 Z5.
N211 X-43.595 Y3.25
N212 Z1.8 F333.33
N213 Z-0.725 F1000.
N214 X-43.606
N215 X-57.475
N216 G3 X-60.75 Y0. I-0.025 J-3.25
N217 G1 Y-32.446
N218 G3 X-59.809 Y-34.771 I3.343 J0.
N219 X-57.5 Y-35.75 I2.309 J2.235
N220 G1 X39.5
N221 X56.32
N222 G2 X56.91 Y-35.804 I0. J-3.25
N223 G3 X60.75 Y-32.608 I0.59 J3.196
N224 G1 Y-0.039
N225 G3 X57.5 Y3.25 I-3.25 J0.039
N226 G1 X43.616
N227 X43.171
N228 Z1.8
N229 X38.539 Y-37.499
N230 Z-0.725
N231 X38.563 Y-37.5
N232 X56.32
N233 G2 X56.592 Y-37.525 I0. J-1.5
N234 G3 X62.5 Y-32.608 I0.907 J4.917
N235 G1 Y-0.079
N236 Y-0.06
N237 G3 X57.5 Y5. I-5. J0.06
N238 G1 X45.
N239 X43.603
N240 Z5.
N241 X-43.579 Y4.999
N242 Z1.8 F333.33
N243 Z-0.725 F1000.
N244 X-43.603 Y5.
N245 X-57.451
N246 X-57.462
N247 G3 X-62.5 Y0. I-0.038 J-5.
N248 G1 Y-32.446
N249 Y-32.459
N250 G3 X-57.5 Y-37.5 I5. J-0.041
N251 G1 X-39.5
N252 X-38.575
N253 X-38.551 Y-37.496
N254 X-38.53 Y-37.484
N255 X-38.515 Y-37.467
N256 X-38.422 Y-37.32
N257 X-38.406 Y-37.302
N258 X-38.385 Y-37.291
N259 X-38.362 Y-37.287
N260 X-36.65
N261 X-36.627 Y-37.291
N262 X-36.606 Y-37.302
N263 X-36.59 Y-37.32
N264 X-36.497 Y-37.467
N265 X-36.481 Y-37.484
N266 X-36.461 Y-37.496
N267 X-36.437 Y-37.5
N268 X35.5
N269 X36.425
N270 Z5.
N271 X-43.589 Y-10.305
N272 Z1.075 F333.33
N273 Z-1.45 F1000.
N274 X-46.876
N275 G3 X-47.195 Y-10.624 I0. J-0.319
N276 G1 Y-15.422
N277 G3 X-44.34 Y-17.584 I2.247 J0.
N278 G2 X-40.792 Y-17.095 I3.548 J-12.609
N279 G1 X41.775
N280 G3 X42.095 Y-16.775 I0. J0.319
N281 G1 Y-15.724
N282 G3 X41.775 Y-15.405 I-0.319 J0.
N283 G1 X-41.776
N284 G3 X-42.095 Y-15.724 I0. J-0.319
N285 G1 Y-16.775
N286 G3 X-41.776 Y-17.095 I0.319 J0.
N287 G1 X-40.792
N288 G2 X-39.518 Y-17.943 I0. J-1.38
N289 G3 X-38.244 Y-18.792 I1.273 J0.531
N290 G1 X39.5 Y-18.75
N291 G2 X41.488 Y-18.772 I0. J-87.795
N292 G3 X43.475 Y-18.795 I1.988 J87.772
N293 X43.794 Y-18.475 I0. J0.319
N294 G1 Y-14.024
N295 G3 X43.475 Y-13.705 I-0.319 J0.
N296 G1 X-43.476
N297 G3 X-43.795 Y-14.024 I0. J-0.319
N298 G1 Y-18.475
N299 G3 X-43.476 Y-18.795 I0.319 J0.
N300 G1 X-38.244 Y-18.792
N301 G2 X-36.969 Y-19.641 I0.001 J-1.381
N302 G3 X-35.695 Y-20.49 I1.274 J0.532
N303 G1 X39.5 Y-20.45
N304 G2 X42.338 Y-20.472 I0. J-178.935
N305 G3 X45.175 Y-20.495 I2.838 J178.912
N306 X45.494 Y-20.175 I0. J0.319
N307 G1 Y-12.324
N308 G3 X45.175 Y-12.005 I-0.319 J0.
N309 G1 X-45.176
N310 G3 X-45.495 Y-12.324 I0. J-0.319
N311 G1 Y-20.175
N312 G3 X-45.176 Y-20.495 I0.319 J0.
N313 G1 X-35.695 Y-20.49
N314 G3 X-35.539 Y-20.164 I0. J0.2
N315 G1 X-43.457 Y-10.379
N316 X-43.489 Y-10.348
N317 X-43.526 Y-10.324
N318 X-43.568 Y-10.31
N319 X-43.612 Y-10.305
N320 X-46.876
N321 G3 X-47.195 Y-10.624 I0. J-0.319
N322 G1 Y-21.875
N323 G3 X-46.876 Y-22.195 I0.319 J0.
N324 G1 X39.5 Y-22.15
N325 X46.875 Y-22.195
N326 G3 X47.194 Y-21.875 I0. J0.319
N327 G1 Y-10.624
N328 G3 X46.875 Y-10.305 I-0.319 J0.
N329 G1 X43.61
N330 X43.599
N331 Z5.
N332 X-43.589 Y-8.605
N333 Z1.075 F333.33
N334 Z-1.45 F1000.
N335 X-43.612
N336 X-48.576
N337 G3 X-48.895 Y-8.924 I0. J-0.319
N338 G1 Y-23.575
N339 G3 X-48.576 Y-23.895 I0.319 J0.
N340 G1 X39.5 Y-23.85
N341 X48.575 Y-23.895
N342 G3 X48.895 Y-23.575 I0. J0.319
N343 G1 Y-8.924
N344 G3 X48.575 Y-8.605 I-0.319 J0.
N345 G1 X43.611
N346 X43.599
N347 Z1.075
N348 X25.862 Y-25.595
N349 Z-1.45
N350 X25.874
N351 X50.275
N352 G3 X50.595 Y-25.275 I0. J0.319
N353 G1 Y-7.224
N354 G3 X50.275 Y-6.905 I-0.319 J0.
N355 G1 X43.611
N356 X43.599
N357 Z5.
N358 X-24.136 Y-25.595
N359 Z1.075 F333.33
N360 Z-1.45 F1000.
N361 X-24.124
N362 X24.124
N363 X24.135
N364 Z5.
N365 X-43.588 Y-6.905
N366 Z1.075 F333.33
N367 Z-1.45 F1000.
N368 X-43.612
N369 X-50.276
N370 G3 X-50.595 Y-7.224 I0. J-0.319
N371 G1 Y-25.275
N372 G3 X-50.276 Y-25.595 I0.319 J0.
N373 G1 X-25.874
N374 G3 X-25.725 Y-25.262 I0. J0.2
N375 G1 X-43.462 Y-5.272
N376 X-43.505 Y-5.236
N377 X-43.556 Y-5.213
N378 X-43.612 Y-5.205
N379 X-51.976
N380 G3 X-52.295 Y-5.524 I0. J-0.319
N381 G1 Y-26.975
N382 G3 X-51.976 Y-27.295 I0.319 J0.
N383 G1 X51.975
N384 G3 X52.294 Y-26.975 I0. J0.319
N385 G1 Y-5.524
N386 G3 X51.975 Y-5.205 I-0.319 J0.
N387 G1 X43.611
N388 X43.6
N389 Z5.
N390 X-43.599 Y-3.505
N391 Z1.075 F333.33
N392 Z-1.45 F1000.
N393 X-43.611
N394 X-53.676
N395 G3 X-53.995 Y-3.824 I0. J-0.319
N396 G1 Y-28.675
N397 G3 X-53.676 Y-28.995 I0.319 J0.
N398 G1 X53.675
N399 G3 X53.994 Y-28.675 I0. J0.319
N400 G1 Y-3.824
N401 G3 X53.675 Y-3.505 I-0.319 J0.
N402 G1 X43.612
N403 X43.6
N404 Z5.
N405 X-43.599 Y-1.805
N406 Z1.075 F333.33
N407 Z-1.45 F1000.
N408 X-43.611
N409 X-55.376
N410 G3 X-55.695 Y-2.124 I0. J-0.319
N411 G1 Y-30.375
N412 G3 X-55.376 Y-30.695 I0.319 J0.
N413 G1 X55.375
N414 G3 X55.694 Y-30.375 I0. J0.319
N415 G1 Y-2.124
N416 G3 X55.375 Y-1.805 I-0.319 J0.
N417 G1 X43.612
N418 X43.588
N419 Z1.075
N420 X56.459 Y-0.105
N421 Z-1.45
N422 X56.436
N423 X43.612
N424 G3 X43.429 Y-0.385 I0. J-0.2
N425 G1 X57.011 Y-31.625
N426 G3 X57.395 Y-31.545 I0.183 J0.08
N427 G1 Y-1.052
N428 Y-1.04
N429 Z5.
N430 X-43.599 Y-0.105
N431 Z1.075 F333.33
N432 Z-1.45 F1000.
N433 X-43.611
N434 X-56.445
N435 X-56.497 Y-0.112
N436 X-56.546 Y-0.132
N437 X-56.587 Y-0.164
N438 X-57.337 Y-0.923
N439 X-57.369 Y-0.965
N440 X-57.388 Y-1.012
N441 X-57.395 Y-1.064
N442 Y-31.44
N443 X-57.388 Y-31.491
N444 X-57.368 Y-31.54
N445 X-57.336 Y-31.581
N446 X-56.577 Y-32.336
N447 X-56.536 Y-32.368
N448 X-56.488 Y-32.388
N449 X-56.436 Y-32.395
N450 X39.5 Y-32.35
N451 X56.32 Y-32.371
N452 X56.466 Y-32.374
N453 X56.478 Y-32.375
N454 Z5.
N455 X-43.595 Y1.55
N456 Z1.075 F333.33
N457 Z-1.45 F1000.
N458 X-43.606
N459 X-57.488
N460 G3 X-59.05 Y0. I-0.012 J-1.55
N461 G1 Y-32.487
N462 G3 X-57.5 Y-34.05 I1.55 J-0.013
N463 G1 X39.5
N464 X56.32
N465 G2 X57.218 Y-34.132 I0. J-4.95
N466 G3 X59.049 Y-32.608 I0.281 J1.524
N467 G1 X59.05 Y-0.019
N468 G3 X57.5 Y1.55 I-1.55 J0.019
N469 G1 X43.616
N470 X43.593
N471 Z5.
N472 X-43.595 Y3.25
N473 Z1.075 F333.33
N474 Z-1.45 F1000.
N475 X-43.606
N476 X-57.475
N477 G3 X-60.75 Y0. I-0.025 J-3.25
N478 G1 Y-32.446
N479 G3 X-59.809 Y-34.771 I3.343 J0.
N480 X-57.5 Y-35.75 I2.309 J2.235
N481 G1 X39.5
N482 X56.32
N483 G2 X56.91 Y-35.804 I0. J-3.25
N484 G3 X60.75 Y-32.608 I0.59 J3.196
N485 G1 Y-0.039
N486 G3 X57.5 Y3.25 I-3.25 J0.039
N487 G1 X43.616
N488 X43.171
N489 Z1.075
N490 X38.539 Y-37.499
N491 Z-1.45
N492 X38.563 Y-37.5
N493 X56.32
N494 G2 X56.592 Y-37.525 I0. J-1.5
N495 G3 X62.5 Y-32.608 I0.907 J4.917
N496 G1 Y-0.079
N497 Y-0.06
N498 G3 X57.5 Y5. I-5. J0.06
N499 G1 X45.
N500 X43.603
N501 Z5.
N502 X-43.579 Y4.999
N503 Z1.075 F333.33
N504 Z-1.45 F1000.
N505 X-43.603 Y5.
N506 X-57.451
N507 X-57.462
N508 G3 X-62.5 Y0. I-0.038 J-5.
N509 G1 Y-32.446
N510 Y-32.459
N511 G3 X-57.5 Y-37.5 I5. J-0.041
N512 G1 X-39.5
N513 X-38.575
N514 X-38.551 Y-37.496
N515 X-38.53 Y-37.484
N516 X-38.515 Y-37.467
N517 X-38.422 Y-37.32
N518 X-38.406 Y-37.302
N519 X-38.385 Y-37.291
N520 X-38.362 Y-37.287
N521 X-36.65
N522 X-36.627 Y-37.291
N523 X-36.606 Y-37.302
N524 X-36.59 Y-37.32
N525 X-36.497 Y-37.467
N526 X-36.481 Y-37.484
N527 X-36.461 Y-37.496
N528 X-36.437 Y-37.5
N529 X35.5
N530 X36.425
N531 Z5.
N532 X-43.589 Y-10.305
N533 Z0.35 F333.33
N534 Z-2.175 F1000.
N535 X-46.876
N536 G3 X-47.195 Y-10.624 I0. J-0.319
N537 G1 Y-15.422
N538 G3 X-44.34 Y-17.584 I2.247 J0.
N539 G2 X-40.792 Y-17.095 I3.548 J-12.609
N540 G1 X41.775
N541 G3 X42.095 Y-16.775 I0. J0.319
N542 G1 Y-15.724
N543 G3 X41.775 Y-15.405 I-0.319 J0.
N544 G1 X-41.776
N545 G3 X-42.095 Y-15.724 I0. J-0.319
N546 G1 Y-16.775
N547 G3 X-41.776 Y-17.095 I0.319 J0.
N548 G1 X-40.792
N549 G2 X-39.518 Y-17.943 I0. J-1.38
N550 G3 X-38.244 Y-18.792 I1.273 J0.531
N551 G1 X39.5 Y-18.75
N552 G2 X41.488 Y-18.772 I0. J-87.795
N553 G3 X43.475 Y-18.795 I1.988 J87.772
N554 X43.794 Y-18.475 I0. J0.319
N555 G1 Y-14.024
N556 G3 X43.475 Y-13.705 I-0.319 J0.
N557 G1 X-43.476
N558 G3 X-43.795 Y-14.024 I0. J-0.319
N559 G1 Y-18.475
N560 G3 X-43.476 Y-18.795 I0.319 J0.
N561 G1 X-38.244 Y-18.792
N562 G2 X-36.969 Y-19.641 I0.001 J-1.381
N563 G3 X-35.695 Y-20.49 I1.274 J0.532
N564 G1 X39.5 Y-20.45
N565 G2 X42.338 Y-20.472 I0. J-178.935
N566 G3 X45.175 Y-20.495 I2.838 J178.912
N567 X45.494 Y-20.175 I0. J0.319
N568 G1 Y-12.324
N569 G3 X45.175 Y-12.005 I-0.319 J0.
N570 G1 X-45.176
N571 G3 X-45.495 Y-12.324 I0. J-0.319
N572 G1 Y-20.175
N573 G3 X-45.176 Y-20.495 I0.319 J0.
N574 G1 X-35.695 Y-20.49
N575 G3 X-35.539 Y-20.164 I0. J0.2
N576 G1 X-43.457 Y-10.379
N577 X-43.489 Y-10.348
N578 X-43.526 Y-10.324
N579 X-43.568 Y-10.31
N580 X-43.612 Y-10.305
N581 X-46.876
N582 G3 X-47.195 Y-10.624 I0. J-0.319
N583 G1 Y-21.875
N584 G3 X-46.876 Y-22.195 I0.319 J0.
N585 G1 X39.5 Y-22.15
N586 X46.875 Y-22.195
N587 G3 X47.194 Y-21.875 I0. J0.319
N588 G1 Y-10.624
N589 G3 X46.875 Y-10.305 I-0.319 J0.
N590 G1 X43.61
N591 X43.599
N592 Z5.
N593 X-43.589 Y-8.605
N594 Z0.35 F333.33
N595 Z-2.175 F1000.
N596 X-43.612
N597 X-48.576
N598 G3 X-48.895 Y-8.924 I0. J-0.319
N599 G1 Y-23.575
N600 G3 X-48.576 Y-23.895 I0.319 J0.
N601 G1 X39.5 Y-23.85
N602 X48.575 Y-23.895
N603 G3 X48.895 Y-23.575 I0. J0.319
N604 G1 Y-8.924
N605 G3 X48.575 Y-8.605 I-0.319 J0.
N606 G1 X43.611
N607 X43.599
N608 Z0.35
N609 X25.862 Y-25.595
N610 Z-2.175
N611 X25.874
N612 X50.275
N613 G3 X50.595 Y-25.275 I0. J0.319
N614 G1 Y-7.224
N615 G3 X50.275 Y-6.905 I-0.319 J0.
N616 G1 X43.611
N617 X43.599
N618 Z5.
N619 X-24.136 Y-25.595
N620 Z0.35 F333.33
N621 Z-2.175 F1000.
N622 X-24.124
N623 X24.124
N624 X24.135
N625 Z5.
N626 X-43.588 Y-6.905
N627 Z0.35 F333.33
N628 Z-2.175 F1000.
N629 X-43.612
N630 X-50.276
N631 G3 X-50.595 Y-7.224 I0. J-0.319
N632 G1 Y-25.275
N633 G3 X-50.276 Y-25.595 I0.319 J0.
N634 G1 X-25.874
N635 G3 X-25.725 Y-25.262 I0. J0.2
N636 G1 X-43.462 Y-5.272
N637 X-43.505 Y-5.236
N638 X-43.556 Y-5.213
N639 X-43.612 Y-5.205
N640 X-51.976
N641 G3 X-52.295 Y-5.524 I0. J-0.319
N642 G1 Y-26.975
N643 G3 X-51.976 Y-27.295 I0.319 J0.
N644 G1 X51.975
N645 G3 X52.294 Y-26.975 I0. J0.319
N646 G1 Y-5.524
N647 G3 X51.975 Y-5.205 I-0.319 J0.
N648 G1 X43.611
N649 X43.6
N650 Z5.
N651 X-43.599 Y-3.505
N652 Z0.35 F333.33
N653 Z-2.175 F1000.
N654 X-43.611
N655 X-53.676
N656 G3 X-53.995 Y-3.824 I0. J-0.319
N657 G1 Y-28.675
N658 G3 X-53.676 Y-28.995 I0.319 J0.
N659 G1 X53.675
N660 G3 X53.994 Y-28.675 I0. J0.319
N661 G1 Y-3.824
N662 G3 X53.675 Y-3.505 I-0.319 J0.
N663 G1 X43.612
N664 X43.6
N665 Z5.
N666 X-43.599 Y-1.805
N667 Z0.35 F333.33
N668 Z-2.175 F1000.
N669 X-43.611
N670 X-55.376
N671 G3 X-55.695 Y-2.124 I0. J-0.319
N672 G1 Y-30.375
N673 G3 X-55.376 Y-30.695 I0.319 J0.
N674 G1 X55.375
N675 G3 X55.694 Y-30.375 I0. J0.319
N676 G1 Y-2.124
N677 G3 X55.375 Y-1.805 I-0.319 J0.
N678 G1 X43.612
N679 X43.588
N680 Z0.35
N681 X56.459 Y-0.105
N682 Z-2.175
N683 X56.436
N684 X43.612
N685 G3 X43.429 Y-0.385 I0. J-0.2
N686 G1 X57.011 Y-31.625
N687 G3 X57.395 Y-31.545 I0.183 J0.08
N688 G1 Y-1.052
N689 Y-1.04
N690 Z5.
N691 X-43.599 Y-0.105
N692 Z0.35 F333.33
N693 Z-2.175 F1000.
N694 X-43.611
N695 X-56.445
N696 X-56.497 Y-0.112
N697 X-56.546 Y-0.132
N698 X-56.587 Y-0.164
N699 X-57.337 Y-0.923
N700 X-57.369 Y-0.965
N701 X-57.388 Y-1.012
N702 X-57.395 Y-1.064
N703 Y-31.44
N704 X-57.388 Y-31.491
N705 X-57.368 Y-31.54
N706 X-57.336 Y-31.581
N707 X-56.577 Y-32.336
N708 X-56.536 Y-32.368
N709 X-56.488 Y-32.388
N710 X-56.436 Y-32.395
N711 X39.5 Y-32.35
N712 X56.32 Y-32.371
N713 X56.466 Y-32.374
N714 X56.478 Y-32.375
N715 Z5.
N716 X-43.595 Y1.55
N717 Z0.35 F333.33
N718 Z-2.175 F1000.
N719 X-43.606
N720 X-57.488
N721 G3 X-59.05 Y0. I-0.012 J-1.55
N722 G1 Y-32.487
N723 G3 X-57.5 Y-34.05 I1.55 J-0.013
N724 G1 X39.5
N725 X56.32
N726 G2 X57.218 Y-34.132 I0. J-4.95
N727 G3 X59.049 Y-32.608 I0.281 J1.524
N728 G1 X59.05 Y-0.019
N729 G3 X57.5 Y1.55 I-1.55 J0.019
N730 G1 X43.616
N731 X43.593
N732 Z5.
N733 X-43.595 Y3.25
N734 Z0.35 F333.33
N735 Z-2.175 F1000.
N736 X-43.606
N737 X-57.475
N738 G3 X-60.75 Y0. I-0.025 J-3.25
N739 G1 Y-32.446
N740 G3 X-59.809 Y-34.771 I3.343 J0.
N741 X-57.5 Y-35.75 I2.309 J2.235
N742 G1 X39.5
N743 X56.32
N744 G2 X56.91 Y-35.804 I0. J-3.25
N745 G3 X60.75 Y-32.608 I0.59 J3.196
N746 G1 Y-0.039
N747 G3 X57.5 Y3.25 I-3.25 J0.039
N748 G1 X43.616
N749 X43.171
N750 Z0.35
N751 X38.539 Y-37.499
N752 Z-2.175
N753 X38.563 Y-37.5
N754 X56.32
N755 G2 X56.592 Y-37.525 I0. J-1.5
N756 G3 X62.5 Y-32.608 I0.907 J4.917
N757 G1 Y-0.079
N758 Y-0.06
N759 G3 X57.5 Y5. I-5. J0.06
N760 G1 X45.
N761 X43.603
N762 Z5.
N763 X-43.579 Y4.999
N764 Z0.35 F333.33
N765 Z-2.175 F1000.
N766 X-43.603 Y5.
N767 X-57.451
N768 X-57.462
N769 G3 X-62.5 Y0. I-0.038 J-5.
N770 G1 Y-32.446
N771 Y-32.459
N772 G3 X-57.5 Y-37.5 I5. J-0.041
N773 G1 X-39.5
N774 X-38.575
N775 X-38.551 Y-37.496
N776 X-38.53 Y-37.484
N777 X-38.515 Y-37.467
N778 X-38.422 Y-37.32
N779 X-38.406 Y-37.302
N780 X-38.385 Y-37.291
N781 X-38.362 Y-37.287
N782 X-36.65
N783 X-36.627 Y-37.291
N784 X-36.606 Y-37.302
N785 X-36.59 Y-37.32
N786 X-36.497 Y-37.467
N787 X-36.481 Y-37.484
N788 X-36.461 Y-37.496
N789 X-36.437 Y-37.5
N790 X35.5
N791 X36.425
N792 Z5.
N793 X-43.589 Y-10.305
N794 Z-0.375 F333.33
N795 Z-2.9 F1000.
N796 X-46.876
N797 G3 X-47.195 Y-10.624 I0. J-0.319
N798 G1 Y-15.422
N799 G3 X-44.34 Y-17.584 I2.247 J0.
N800 G2 X-40.792 Y-17.095 I3.548 J-12.609
N801 G1 X41.775
N802 G3 X42.095 Y-16.775 I0. J0.319
N803 G1 Y-15.724
N804 G3 X41.775 Y-15.405 I-0.319 J0.
N805 G1 X-41.776
N806 G3 X-42.095 Y-15.724 I0. J-0.319
N807 G1 Y-16.775
N808 G3 X-41.776 Y-17.095 I0.319 J0.
N809 G1 X-40.792
N810 G2 X-39.518 Y-17.943 I0. J-1.38
N811 G3 X-38.244 Y-18.792 I1.273 J0.531
N812 G1 X39.5 Y-18.75
N813 G2 X41.488 Y-18.772 I0. J-87.795
N814 G3 X43.475 Y-18.795 I1.988 J87.772
N815 X43.794 Y-18.475 I0. J0.319
N816 G1 Y-14.024
N817 G3 X43.475 Y-13.705 I-0.319 J0.
N818 G1 X-43.476
N819 G3 X-43.795 Y-14.024 I0. J-0.319
N820 G1 Y-18.475
N821 G3 X-43.476 Y-18.795 I0.319 J0.
N822 G1 X-38.244 Y-18.792
N823 G2 X-36.969 Y-19.641 I0.001 J-1.381
N824 G3 X-35.695 Y-20.49 I1.274 J0.532
N825 G1 X39.5 Y-20.45
N826 G2 X42.338 Y-20.472 I0. J-178.935
N827 G3 X45.175 Y-20.495 I2.838 J178.912
N828 X45.494 Y-20.175 I0. J0.319
N829 G1 Y-12.324
N830 G3 X45.175 Y-12.005 I-0.319 J0.
N831 G1 X-45.176
N832 G3 X-45.495 Y-12.324 I0. J-0.319
N833 G1 Y-20.175
N834 G3 X-45.176 Y-20.495 I0.319 J0.
N835 G1 X-35.695 Y-20.49
N836 G3 X-35.539 Y-20.164 I0. J0.2
N837 G1 X-43.457 Y-10.379
N838 X-43.489 Y-10.348
N839 X-43.526 Y-10.324
N840 X-43.568 Y-10.31
N841 X-43.612 Y-10.305
N842 X-46.876
N843 G3 X-47.195 Y-10.624 I0. J-0.319
N844 G1 Y-21.875
N845 G3 X-46.876 Y-22.195 I0.319 J0.
N846 G1 X39.5 Y-22.15
N847 X46.875 Y-22.195
N848 G3 X47.194 Y-21.875 I0. J0.319
N849 G1 Y-10.624
N850 G3 X46.875 Y-10.305 I-0.319 J0.
N851 G1 X43.61
N852 X43.599
N853 Z5.
N854 X-43.589 Y-8.605
N855 Z-0.375 F333.33
N856 Z-2.9 F1000.
N857 X-43.612
N858 X-48.576
N859 G3 X-48.895 Y-8.924 I0. J-0.319
N860 G1 Y-23.575
N861 G3 X-48.576 Y-23.895 I0.319 J0.
N862 G1 X39.5 Y-23.85
N863 X48.575 Y-23.895
N864 G3 X48.895 Y-23.575 I0. J0.319
N865 G1 Y-8.924
N866 G3 X48.575 Y-8.605 I-0.319 J0.
N867 G1 X43.611
N868 X43.599
N869 Z-0.375
N870 X25.862 Y-25.595
N871 Z-2.9
N872 X25.874
N873 X50.275
N874 G3 X50.595 Y-25.275 I0. J0.319
N875 G1 Y-7.224
N876 G3 X50.275 Y-6.905 I-0.319 J0.
N877 G1 X43.611
N878 X43.599
N879 Z5.
N880 X-24.136 Y-25.595
N881 Z-0.375 F333.33
N882 Z-2.9 F1000.
N883 X-24.124
N884 X24.124
N885 X24.135
N886 Z5.
N887 X-43.588 Y-6.905
N888 Z-0.375 F333.33
N889 Z-2.9 F1000.
N890 X-43.612
N891 X-50.276
N892 G3 X-50.595 Y-7.224 I0. J-0.319
N893 G1 Y-25.275
N894 G3 X-50.276 Y-25.595 I0.319 J0.
N895 G1 X-25.874
N896 G3 X-25.725 Y-25.262 I0. J0.2
N897 G1 X-43.462 Y-5.272
N898 X-43.505 Y-5.236
N899 X-43.556 Y-5.213
N900 X-43.612 Y-5.205
N901 X-51.976
N902 G3 X-52.295 Y-5.524 I0. J-0.319
N903 G1 Y-26.975
N904 G3 X-51.976 Y-27.295 I0.319 J0.
N905 G1 X51.975
N906 G3 X52.294 Y-26.975 I0. J0.319
N907 G1 Y-5.524
N908 G3 X51.975 Y-5.205 I-0.319 J0.
N909 G1 X43.611
N910 X43.6
N911 Z5.
N912 X-43.599 Y-3.505
N913 Z-0.375 F333.33
N914 Z-2.9 F1000.
N915 X-43.611
N916 X-53.676
N917 G3 X-53.995 Y-3.824 I0. J-0.319
N918 G1 Y-28.675
N919 G3 X-53.676 Y-28.995 I0.319 J0.
N920 G1 X53.675
N921 G3 X53.994 Y-28.675 I0. J0.319
N922 G1 Y-3.824
N923 G3 X53.675 Y-3.505 I-0.319 J0.
N924 G1 X43.612
N925 X43.6
N926 Z5.
N927 X-43.599 Y-1.805
N928 Z-0.375 F333.33
N929 Z-2.9 F1000.
N930 X-43.611
N931 X-55.376
N932 G3 X-55.695 Y-2.124 I0. J-0.319
N933 G1 Y-30.375
N934 G3 X-55.376 Y-30.695 I0.319 J0.
N935 G1 X55.375
N936 G3 X55.694 Y-30.375 I0. J0.319
N937 G1 Y-2.124
N938 G3 X55.375 Y-1.805 I-0.319 J0.
N939 G1 X43.612
N940 X43.588
N941 Z-0.375
N942 X56.459 Y-0.105
N943 Z-2.9
N944 X56.436
N945 X43.612
N946 G3 X43.429 Y-0.385 I0. J-0.2
N947 G1 X57.011 Y-31.625
N948 G3 X57.395 Y-31.545 I0.183 J0.08
N949 G1 Y-1.052
N950 Y-1.04
N951 Z5.
N952 X-43.599 Y-0.105
N953 Z-0.375 F333.33
N954 Z-2.9 F1000.
N955 X-43.611
N956 X-56.445
N957 X-56.497 Y-0.112
N958 X-56.546 Y-0.132
N959 X-56.587 Y-0.164
N960 X-57.337 Y-0.923
N961 X-57.369 Y-0.965
N962 X-57.388 Y-1.012
N963 X-57.395 Y-1.064
N964 Y-31.44
N965 X-57.388 Y-31.491
N966 X-57.368 Y-31.54
N967 X-57.336 Y-31.581
N968 X-56.577 Y-32.336
N969 X-56.536 Y-32.368
N970 X-56.488 Y-32.388
N971 X-56.436 Y-32.395
N972 X39.5 Y-32.35
N973 X56.32 Y-32.371
N974 X56.466 Y-32.374
N975 X56.478 Y-32.375
N976 Z5.
N977 X-43.595 Y1.55
N978 Z-0.375 F333.33
N979 Z-2.9 F1000.
N980 X-43.606
N981 X-57.488
N982 G3 X-59.05 Y0. I-0.012 J-1.55
N983 G1 Y-32.487
N984 G3 X-57.5 Y-34.05 I1.55 J-0.013
N985 G1 X39.5
N986 X56.32
N987 G2 X57.218 Y-34.132 I0. J-4.95
N988 G3 X59.049 Y-32.608 I0.281 J1.524
N989 G1 X59.05 Y-0.019
N990 G3 X57.5 Y1.55 I-1.55 J0.019
N991 G1 X43.616
N992 X43.593
N993 Z5.
N994 X-43.595 Y3.25
N995 Z-0.375 F333.33
N996 Z-2.9 F1000.
N997 X-43.606
N998 X-57.475
N999 G3 X-60.75 Y0. I-0.025 J-3.25
N1000 G1 Y-32.446
N1001 G3 X-59.809 Y-34.771 I3.343 J0.
N1002 X-57.5 Y-35.75 I2.309 J2.235
N1003 G1 X39.5
N1004 X56.32
N1005 G2 X56.91 Y-35.804 I0. J-3.25
N1006 G3 X60.75 Y-32.608 I0.59 J3.196
N1007 G1 Y-0.039
N1008 G3 X57.5 Y3.25 I-3.25 J0.039
N1009 G1 X43.616
N1010 X43.171
N1011 Z-0.375
N1012 X38.539 Y-37.499
N1013 Z-2.9
N1014 X38.563 Y-37.5
N1015 X56.32
N1016 G2 X56.592 Y-37.525 I0. J-1.5
N1017 G3 X62.5 Y-32.608 I0.907 J4.917
N1018 G1 Y-0.079
N1019 Y-0.06
N1020 G3 X57.5 Y5. I-5. J0.06
N1021 G1 X45.
N1022 X43.603
N1023 Z5.
N1024 X-43.579 Y4.999
N1025 Z-0.375 F333.33
N1026 Z-2.9 F1000.
N1027 X-43.603 Y5.
N1028 X-57.451
N1029 X-57.462
N1030 G3 X-62.5 Y0. I-0.038 J-5.
N1031 G1 Y-32.446
N1032 Y-32.459
N1033 G3 X-57.5 Y-37.5 I5. J-0.041
N1034 G1 X-39.5
N1035 X-38.575
N1036 X-38.551 Y-37.496
N1037 X-38.53 Y-37.484
N1038 X-38.515 Y-37.467
N1039 X-38.422 Y-37.32
N1040 X-38.406 Y-37.302
N1041 X-38.385 Y-37.291
N1042 X-38.362 Y-37.287
N1043 X-36.65
N1044 X-36.627 Y-37.291
N1045 X-36.606 Y-37.302
N1046 X-36.59 Y-37.32
N1047 X-36.497 Y-37.467
N1048 X-36.481 Y-37.484
N1049 X-36.461 Y-37.496
N1050 X-36.437 Y-37.5
N1051 X35.5
N1052 X36.425
N1053 Z5.
N1054 X-43.589 Y-10.305
N1055 Z-1.1 F333.33
N1056 Z-3.625 F1000.
N1057 X-46.876
N1058 G3 X-47.195 Y-10.624 I0. J-0.319
N1059 G1 Y-15.422
N1060 G3 X-44.34 Y-17.584 I2.247 J0.
N1061 G2 X-40.792 Y-17.095 I3.548 J-12.609
N1062 G1 X41.775
N1063 G3 X42.095 Y-16.775 I0. J0.319
N1064 G1 Y-15.724
N1065 G3 X41.775 Y-15.405 I-0.319 J0.
N1066 G1 X-41.776
N1067 G3 X-42.095 Y-15.724 I0. J-0.319
N1068 G1 Y-16.775
N1069 G3 X-41.776 Y-17.095 I0.319 J0.
N1070 G1 X-40.792
N1071 G2 X-39.518 Y-17.943 I0. J-1.38
N1072 G3 X-38.244 Y-18.792 I1.273 J0.531
N1073 G1 X39.5 Y-18.75
N1074 G2 X41.488 Y-18.772 I0. J-87.795
N1075 G3 X43.475 Y-18.795 I1.988 J87.772
N1076 X43.794 Y-18.475 I0. J0.319
N1077 G1 Y-14.024
N1078 G3 X43.475 Y-13.705 I-0.319 J0.
N1079 G1 X-43.476
N1080 G3 X-43.795 Y-14.024 I0. J-0.319
N1081 G1 Y-18.475
N1082 G3 X-43.476 Y-18.795 I0.319 J0.
N1083 G1 X-38.244 Y-18.792
N1084 G2 X-36.969 Y-19.641 I0.001 J-1.381
N1085 G3 X-35.695 Y-20.49 I1.274 J0.532
N1086 G1 X39.5 Y-20.45
N1087 G2 X42.338 Y-20.472 I0. J-178.935
N1088 G3 X45.175 Y-20.495 I2.838 J178.912
N1089 X45.494 Y-20.175 I0. J0.319
N1090 G1 Y-12.324
N1091 G3 X45.175 Y-12.005 I-0.319 J0.
N1092 G1 X-45.176
N1093 G3 X-45.495 Y-12.324 I0. J-0.319
N1094 G1 Y-20.175
N1095 G3 X-45.176 Y-20.495 I0.319 J0.
N1096 G1 X-35.695 Y-20.49
N1097 G3 X-35.539 Y-20.164 I0. J0.2
N1098 G1 X-43.457 Y-10.379
N1099 X-43.489 Y-10.348
N1100 X-43.526 Y-10.324
N1101 X-43.568 Y-10.31
N1102 X-43.612 Y-10.305
N1103 X-46.876
N1104 G3 X-47.195 Y-10.624 I0. J-0.319
N1105 G1 Y-21.875
N1106 G3 X-46.876 Y-22.195 I0.319 J0.
N1107 G1 X39.5 Y-22.15
N1108 X46.875 Y-22.195
N1109 G3 X47.194 Y-21.875 I0. J0.319
N1110 G1 Y-10.624
N1111 G3 X46.875 Y-10.305 I-0.319 J0.
N1112 G1 X43.61
N1113 X43.599
N1114 Z5.
N1115 X-43.589 Y-8.605
N1116 Z-1.1 F333.33
N1117 Z-3.625 F1000.
N1118 X-43.612
N1119 X-48.576
N1120 G3 X-48.895 Y-8.924 I0. J-0.319
N1121 G1 Y-23.575
N1122 G3 X-48.576 Y-23.895 I0.319 J0.
N1123 G1 X39.5 Y-23.85
N1124 X48.575 Y-23.895
N1125 G3 X48.895 Y-23.575 I0. J0.319
N1126 G1 Y-8.924
N1127 G3 X48.575 Y-8.605 I-0.319 J0.
N1128 G1 X43.611
N1129 X43.599
N1130 Z-1.1
N1131 X25.862 Y-25.595
N1132 Z-3.625
N1133 X25.874
N1134 X50.275
N1135 G3 X50.595 Y-25.275 I0. J0.319
N1136 G1 Y-7.224
N1137 G3 X50.275 Y-6.905 I-0.319 J0.
N1138 G1 X43.611
N1139 X43.599
N1140 Z5.
N1141 X-24.136 Y-25.595
N1142 Z-1.1 F333.33
N1143 Z-3.625 F1000.
N1144 X-24.124
N1145 X24.124
N1146 X24.135
N1147 Z5.
N1148 X-43.588 Y-6.905
N1149 Z-1.1 F333.33
N1150 Z-3.625 F1000.
N1151 X-43.612
N1152 X-50.276
N1153 G3 X-50.595 Y-7.224 I0. J-0.319
N1154 G1 Y-25.275
N1155 G3 X-50.276 Y-25.595 I0.319 J0.
N1156 G1 X-25.874
N1157 G3 X-25.725 Y-25.262 I0. J0.2
N1158 G1 X-43.462 Y-5.272
N1159 X-43.505 Y-5.236
N1160 X-43.556 Y-5.213
N1161 X-43.612 Y-5.205
N1162 X-51.976
N1163 G3 X-52.295 Y-5.524 I0. J-0.319
N1164 G1 Y-26.975
N1165 G3 X-51.976 Y-27.295 I0.319 J0.
N1166 G1 X51.975
N1167 G3 X52.294 Y-26.975 I0. J0.319
N1168 G1 Y-5.524
N1169 G3 X51.975 Y-5.205 I-0.319 J0.
N1170 G1 X43.611
N1171 X43.6
N1172 Z5.
N1173 X-43.599 Y-3.505
N1174 Z-1.1 F333.33
N1175 Z-3.625 F1000.
N1176 X-43.611
N1177 X-53.676
N1178 G3 X-53.995 Y-3.824 I0. J-0.319
N1179 G1 Y-28.675
N1180 G3 X-53.676 Y-28.995 I0.319 J0.
N1181 G1 X53.675
N1182 G3 X53.994 Y-28.675 I0. J0.319
N1183 G1 Y-3.824
N1184 G3 X53.675 Y-3.505 I-0.319 J0.
N1185 G1 X43.612
N1186 X43.6
N1187 Z5.
N1188 X-43.599 Y-1.805
N1189 Z-1.1 F333.33
N1190 Z-3.625 F1000.
N1191 X-43.611
N1192 X-55.376
N1193 G3 X-55.695 Y-2.124 I0. J-0.319
N1194 G1 Y-30.375
N1195 G3 X-55.376 Y-30.695 I0.319 J0.
N1196 G1 X55.375
N1197 G3 X55.694 Y-30.375 I0. J0.319
N1198 G1 Y-2.124
N1199 G3 X55.375 Y-1.805 I-0.319 J0.
N1200 G1 X43.612
N1201 X43.588
N1202 Z-1.1
N1203 X56.459 Y-0.105
N1204 Z-3.625
N1205 X56.436
N1206 X43.612
N1207 G3 X43.429 Y-0.385 I0. J-0.2
N1208 G1 X57.011 Y-31.625
N1209 G3 X57.395 Y-31.545 I0.183 J0.08
N1210 G1 Y-1.052
N1211 Y-1.04
N1212 Z5.
N1213 X-43.599 Y-0.105
N1214 Z-1.1 F333.33
N1215 Z-3.625 F1000.
N1216 X-43.611
N1217 X-56.445
N1218 X-56.497 Y-0.112
N1219 X-56.546 Y-0.132
N1220 X-56.587 Y-0.164
N1221 X-57.337 Y-0.923
N1222 X-57.369 Y-0.965
N1223 X-57.388 Y-1.012
N1224 X-57.395 Y-1.064
N1225 Y-31.44
N1226 X-57.388 Y-31.491
N1227 X-57.368 Y-31.54
N1228 X-57.336 Y-31.581
N1229 X-56.577 Y-32.336
N1230 X-56.536 Y-32.368
N1231 X-56.488 Y-32.388
N1232 X-56.436 Y-32.395
N1233 X39.5 Y-32.35
N1234 X56.32 Y-32.371
N1235 X56.466 Y-32.374
N1236 X56.478 Y-32.375
N1237 Z5.
N1238 X-43.595 Y1.55
N1239 Z-1.1 F333.33
N1240 Z-3.625 F1000.
N1241 X-43.606
N1242 X-57.488
N1243 G3 X-59.05 Y0. I-0.012 J-1.55
N1244 G1 Y-32.487
N1245 G3 X-57.5 Y-34.05 I1.55 J-0.013
N1246 G1 X39.5
N1247 X56.32
N1248 G2 X57.218 Y-34.132 I0. J-4.95
N1249 G3 X59.049 Y-32.608 I0.281 J1.524
N1250 G1 X59.05 Y-0.019
N1251 G3 X57.5 Y1.55 I-1.55 J0.019
N1252 G1 X43.616
N1253 X43.593
N1254 Z5.
N1255 X-43.595 Y3.25
N1256 Z-1.1 F333.33
N1257 Z-3.625 F1000.
N1258 X-43.606
N1259 X-57.475
N1260 G3 X-60.75 Y0. I-0.025 J-3.25
N1261 G1 Y-32.446
N1262 G3 X-59.809 Y-34.771 I3.343 J0.
N1263 X-57.5 Y-35.75 I2.309 J2.235
N1264 G1 X39.5
N1265 X56.32
N1266 G2 X56.91 Y-35.804 I0. J-3.25
N1267 G3 X60.75 Y-32.608 I0.59 J3.196
N1268 G1 Y-0.039
N1269 G3 X57.5 Y3.25 I-3.25 J0.039
N1270 G1 X43.616
N1271 X43.171
N1272 Z-1.1
N1273 X38.539 Y-37.499
N1274 Z-3.625
N1275 X38.563 Y-37.5
N1276 X56.32
N1277 G2 X56.592 Y-37.525 I0. J-1.5
N1278 G3 X62.5 Y-32.608 I0.907 J4.917
N1279 G1 Y-0.079
N1280 Y-0.06
N1281 G3 X57.5 Y5. I-5. J0.06
N1282 G1 X45.
N1283 X43.603
N1284 Z5.
N1285 X-43.579 Y4.999
N1286 Z-1.1 F333.33
N1287 Z-3.625 F1000.
N1288 X-43.603 Y5.
N1289 X-57.451
N1290 X-57.462
N1291 G3 X-62.5 Y0. I-0.038 J-5.
N1292 G1 Y-32.446
N1293 Y-32.459
N1294 G3 X-57.5 Y-37.5 I5. J-0.041
N1295 G1 X-39.5
N1296 X-38.575
N1297 X-38.551 Y-37.496
N1298 X-38.53 Y-37.484
N1299 X-38.515 Y-37.467
N1300 X-38.422 Y-37.32
N1301 X-38.406 Y-37.302
N1302 X-38.385 Y-37.291
N1303 X-38.362 Y-37.287
N1304 X-36.65
N1305 X-36.627 Y-37.291
N1306 X-36.606 Y-37.302
N1307 X-36.59 Y-37.32
N1308 X-36.497 Y-37.467
N1309 X-36.481 Y-37.484
N1310 X-36.461 Y-37.496
N1311 X-36.437 Y-37.5
N1312 X35.5
N1313 X36.425
N1314 Z5.
N1315 X-43.589 Y-10.305
N1316 Z-1.825 F333.33
N1317 Z-4.35 F1000.
N1318 X-46.876
N1319 G3 X-47.195 Y-10.624 I0. J-0.319
N1320 G1 Y-15.422
N1321 G3 X-44.34 Y-17.584 I2.247 J0.
N1322 G2 X-40.792 Y-17.095 I3.548 J-12.609
N1323 G1 X41.775
N1324 G3 X42.095 Y-16.775 I0. J0.319
N1325 G1 Y-15.724
N1326 G3 X41.775 Y-15.405 I-0.319 J0.
N1327 G1 X-41.776
N1328 G3 X-42.095 Y-15.724 I0. J-0.319
N1329 G1 Y-16.775
N1330 G3 X-41.776 Y-17.095 I0.319 J0.
N1331 G1 X-40.792
N1332 G2 X-39.518 Y-17.943 I0. J-1.38
N1333 G3 X-38.244 Y-18.792 I1.273 J0.531
N1334 G1 X39.5 Y-18.75
N1335 G2 X41.488 Y-18.772 I0. J-87.795
N1336 G3 X43.475 Y-18.795 I1.988 J87.772
N1337 X43.794 Y-18.475 I0. J0.319
N1338 G1 Y-14.024
N1339 G3 X43.475 Y-13.705 I-0.319 J0.
N1340 G1 X-43.476
N1341 G3 X-43.795 Y-14.024 I0. J-0.319
N1342 G1 Y-18.475
N1343 G3 X-43.476 Y-18.795 I0.319 J0.
N1344 G1 X-38.244 Y-18.792
N1345 G2 X-36.969 Y-19.641 I0.001 J-1.381
N1346 G3 X-35.695 Y-20.49 I1.274 J0.532
N1347 G1 X39.5 Y-20.45
N1348 G2 X42.338 Y-20.472 I0. J-178.935
N1349 G3 X45.175 Y-20.495 I2.838 J178.912
N1350 X45.494 Y-20.175 I0. J0.319
N1351 G1 Y-12.324
N1352 G3 X45.175 Y-12.005 I-0.319 J0.
N1353 G1 X-45.176
N1354 G3 X-45.495 Y-12.324 I0. J-0.319
N1355 G1 Y-20.175
N1356 G3 X-45.176 Y-20.495 I0.319 J0.
N1357 G1 X-35.695 Y-20.49
N1358 G3 X-35.539 Y-20.164 I0. J0.2
N1359 G1 X-43.457 Y-10.379
N1360 X-43.489 Y-10.348
N1361 X-43.526 Y-10.324
N1362 X-43.568 Y-10.31
N1363 X-43.612 Y-10.305
N1364 X-46.876
N1365 G3 X-47.195 Y-10.624 I0. J-0.319
N1366 G1 Y-21.875
N1367 G3 X-46.876 Y-22.195 I0.319 J0.
N1368 G1 X39.5 Y-22.15
N1369 X46.875 Y-22.195
N1370 G3 X47.194 Y-21.875 I0. J0.319
N1371 G1 Y-10.624
N1372 G3 X46.875 Y-10.305 I-0.319 J0.
N1373 G1 X43.61
N1374 X43.599
N1375 Z5.
N1376 X-43.589 Y-8.605
N1377 Z-1.825 F333.33
N1378 Z-4.35 F1000.
N1379 X-43.612
N1380 X-48.576
N1381 G3 X-48.895 Y-8.924 I0. J-0.319
N1382 G1 Y-23.575
N1383 G3 X-48.576 Y-23.895 I0.319 J0.
N1384 G1 X39.5 Y-23.85
N1385 X48.575 Y-23.895
N1386 G3 X48.895 Y-23.575 I0. J0.319
N1387 G1 Y-8.924
N1388 G3 X48.575 Y-8.605 I-0.319 J0.
N1389 G1 X43.611
N1390 X43.599
N1391 Z-1.825
N1392 X25.862 Y-25.595
N1393 Z-4.35
N1394 X25.874
N1395 X50.275
N1396 G3 X50.595 Y-25.275 I0. J0.319
N1397 G1 Y-7.224
N1398 G3 X50.275 Y-6.905 I-0.319 J0.
N1399 G1 X43.611
N1400 X43.599
N1401 Z5.
N1402 X-24.136 Y-25.595
N1403 Z-1.825 F333.33
N1404 Z-4.35 F1000.
N1405 X-24.124
N1406 X24.124
N1407 X24.135
N1408 Z5.
N1409 X-43.588 Y-6.905
N1410 Z-1.825 F333.33
N1411 Z-4.35 F1000.
N1412 X-43.612
N1413 X-50.276
N1414 G3 X-50.595 Y-7.224 I0. J-0.319
N1415 G1 Y-25.275
N1416 G3 X-50.276 Y-25.595 I0.319 J0.
N1417 G1 X-25.874
N1418 G3 X-25.725 Y-25.262 I0. J0.2
N1419 G1 X-43.462 Y-5.272
N1420 X-43.505 Y-5.236
N1421 X-43.556 Y-5.213
N1422 X-43.612 Y-5.205
N1423 X-51.976
N1424 G3 X-52.295 Y-5.524 I0. J-0.319
N1425 G1 Y-26.975
N1426 G3 X-51.976 Y-27.295 I0.319 J0.
N1427 G1 X51.975
N1428 G3 X52.294 Y-26.975 I0. J0.319
N1429 G1 Y-5.524
N1430 G3 X51.975 Y-5.205 I-0.319 J0.
N1431 G1 X43.611
N1432 X43.6
N1433 Z5.
N1434 X-43.599 Y-3.505
N1435 Z-1.825 F333.33
N1436 Z-4.35 F1000.
N1437 X-43.611
N1438 X-53.676
N1439 G3 X-53.995 Y-3.824 I0. J-0.319
N1440 G1 Y-28.675
N1441 G3 X-53.676 Y-28.995 I0.319 J0.
N1442 G1 X53.675
N1443 G3 X53.994 Y-28.675 I0. J0.319
N1444 G1 Y-3.824
N1445 G3 X53.675 Y-3.505 I-0.319 J0.
N1446 G1 X43.612
N1447 X43.6
N1448 Z5.
N1449 X-43.599 Y-1.805
N1450 Z-1.825 F333.33
N1451 Z-4.35 F1000.
N1452 X-43.611
N1453 X-55.376
N1454 G3 X-55.695 Y-2.124 I0. J-0.319
N1455 G1 Y-30.375
N1456 G3 X-55.376 Y-30.695 I0.319 J0.
N1457 G1 X55.375
N1458 G3 X55.694 Y-30.375 I0. J0.319
N1459 G1 Y-2.124
N1460 G3 X55.375 Y-1.805 I-0.319 J0.
N1461 G1 X43.612
N1462 X43.588
N1463 Z-1.825
N1464 X56.459 Y-0.105
N1465 Z-4.35
N1466 X56.436
N1467 X43.612
N1468 G3 X43.429 Y-0.385 I0. J-0.2
N1469 G1 X57.011 Y-31.625
N1470 G3 X57.395 Y-31.545 I0.183 J0.08
N1471 G1 Y-1.052
N1472 Y-1.04
N1473 Z5.
N1474 X-43.599 Y-0.105
N1475 Z-1.825 F333.33
N1476 Z-4.35 F1000.
N1477 X-43.611
N1478 X-56.445
N1479 X-56.497 Y-0.112
N1480 X-56.546 Y-0.132
N1481 X-56.587 Y-0.164
N1482 X-57.337 Y-0.923
N1483 X-57.369 Y-0.965
N1484 X-57.388 Y-1.012
N1485 X-57.395 Y-1.064
N1486 Y-31.44
N1487 X-57.388 Y-31.491
N1488 X-57.368 Y-31.54
N1489 X-57.336 Y-31.581
N1490 X-56.577 Y-32.336
N1491 X-56.536 Y-32.368
N1492 X-56.488 Y-32.388
N1493 X-56.436 Y-32.395
N1494 X39.5 Y-32.35
N1495 X56.32 Y-32.371
N1496 X56.466 Y-32.374
N1497 X56.478 Y-32.375
N1498 Z5.
N1499 X-43.595 Y1.55
N1500 Z-1.825 F333.33
N1501 Z-4.35 F1000.
N1502 X-43.606
N1503 X-57.488
N1504 G3 X-59.05 Y0. I-0.012 J-1.55
N1505 G1 Y-32.487
N1506 G3 X-57.5 Y-34.05 I1.55 J-0.013
N1507 G1 X39.5
N1508 X56.32
N1509 G2 X57.218 Y-34.132 I0. J-4.95
N1510 G3 X59.049 Y-32.608 I0.281 J1.524
N1511 G1 X59.05 Y-0.019
N1512 G3 X57.5 Y1.55 I-1.55 J0.019
N1513 G1 X43.616
N1514 X43.593
N1515 Z5.
N1516 X-43.595 Y3.25
N1517 Z-1.825 F333.33
N1518 Z-4.35 F1000.
N1519 X-43.606
N1520 X-57.475
N1521 G3 X-60.75 Y0. I-0.025 J-3.25
N1522 G1 Y-32.446
N1523 G3 X-59.809 Y-34.771 I3.343 J0.
N1524 X-57.5 Y-35.75 I2.309 J2.235
N1525 G1 X39.5
N1526 X56.32
N1527 G2 X56.91 Y-35.804 I0. J-3.25
N1528 G3 X60.75 Y-32.608 I0.59 J3.196
N1529 G1 Y-0.039
N1530 G3 X57.5 Y3.25 I-3.25 J0.039
N1531 G1 X43.616
N1532 X43.171
N1533 Z-1.825
N1534 X38.539 Y-37.499
N1535 Z-4.35
N1536 X38.563 Y-37.5
N1537 X56.32
N1538 G2 X56.592 Y-37.525 I0. J-1.5
N1539 G3 X62.5 Y-32.608 I0.907 J4.917
N1540 G1 Y-0.079
N1541 Y-0.06
N1542 G3 X57.5 Y5. I-5. J0.06
N1543 G1 X45.
N1544 X43.603
N1545 Z5.
N1546 X-43.579 Y4.999
N1547 Z-1.825 F333.33
N1548 Z-4.35 F1000.
N1549 X-43.603 Y5.
N1550 X-57.451
N1551 X-57.462
N1552 G3 X-62.5 Y0. I-0.038 J-5.
N1553 G1 Y-32.446
N1554 Y-32.459
N1555 G3 X-57.5 Y-37.5 I5. J-0.041
N1556 G1 X-39.5
N1557 X-38.575
N1558 X-38.551 Y-37.496
N1559 X-38.53 Y-37.484
N1560 X-38.515 Y-37.467
N1561 X-38.422 Y-37.32
N1562 X-38.406 Y-37.302
N1563 X-38.385 Y-37.291
N1564 X-38.362 Y-37.287
N1565 X-36.65
N1566 X-36.627 Y-37.291
N1567 X-36.606 Y-37.302
N1568 X-36.59 Y-37.32
N1569 X-36.497 Y-37.467
N1570 X-36.481 Y-37.484
N1571 X-36.461 Y-37.496
N1572 X-36.437 Y-37.5
N1573 X35.5
N1574 X36.425
N1575 Z5.
N1576 X-43.589 Y-10.305
N1577 Z-2.55 F333.33
N1578 Z-5.075 F1000.
N1579 X-46.876
N1580 G3 X-47.195 Y-10.624 I0. J-0.319
N1581 G1 Y-15.422
N1582 G3 X-44.34 Y-17.584 I2.247 J0.
N1583 G2 X-40.792 Y-17.095 I3.548 J-12.609
N1584 G1 X41.775
N1585 G3 X42.095 Y-16.775 I0. J0.319
N1586 G1 Y-15.724
N1587 G3 X41.775 Y-15.405 I-0.319 J0.
N1588 G1 X-41.776
N1589 G3 X-42.095 Y-15.724 I0. J-0.319
N1590 G1 Y-16.775
N1591 G3 X-41.776 Y-17.095 I0.319 J0.
N1592 G1 X-40.792
N1593 G2 X-39.518 Y-17.943 I0. J-1.38
N1594 G3 X-38.244 Y-18.792 I1.273 J0.531
N1595 G1 X39.5 Y-18.75
N1596 G2 X41.488 Y-18.772 I0. J-87.795
N1597 G3 X43.475 Y-18.795 I1.988 J87.772
N1598 X43.794 Y-18.475 I0. J0.319
N1599 G1 Y-14.024
N1600 G3 X43.475 Y-13.705 I-0.319 J0.
N1601 G1 X-43.476
N1602 G3 X-43.795 Y-14.024 I0. J-0.319
N1603 G1 Y-18.475
N1604 G3 X-43.476 Y-18.795 I0.319 J0.
N1605 G1 X-38.244 Y-18.792
N1606 G2 X-36.969 Y-19.641 I0.001 J-1.381
N1607 G3 X-35.695 Y-20.49 I1.274 J0.532
N1608 G1 X39.5 Y-20.45
N1609 G2 X42.338 Y-20.472 I0. J-178.935
N1610 G3 X45.175 Y-20.495 I2.838 J178.912
N1611 X45.494 Y-20.175 I0. J0.319
N1612 G1 Y-12.324
N1613 G3 X45.175 Y-12.005 I-0.319 J0.
N1614 G1 X-45.176
N1615 G3 X-45.495 Y-12.324 I0. J-0.319
N1616 G1 Y-20.175
N1617 G3 X-45.176 Y-20.495 I0.319 J0.
N1618 G1 X-35.695 Y-20.49
N1619 G3 X-35.539 Y-20.164 I0. J0.2
N1620 G1 X-43.457 Y-10.379
N1621 X-43.489 Y-10.348
N1622 X-43.526 Y-10.324
N1623 X-43.568 Y-10.31
N1624 X-43.612 Y-10.305
N1625 X-46.876
N1626 G3 X-47.195 Y-10.624 I0. J-0.319
N1627 G1 Y-21.875
N1628 G3 X-46.876 Y-22.195 I0.319 J0.
N1629 G1 X39.5 Y-22.15
N1630 X46.875 Y-22.195
N1631 G3 X47.194 Y-21.875 I0. J0.319
N1632 G1 Y-10.624
N1633 G3 X46.875 Y-10.305 I-0.319 J0.
N1634 G1 X43.61
N1635 X43.599
N1636 Z5.
N1637 X-43.589 Y-8.605
N1638 Z-2.55 F333.33
N1639 Z-5.075 F1000.
N1640 X-43.612
N1641 X-48.576
N1642 G3 X-48.895 Y-8.924 I0. J-0.319
N1643 G1 Y-23.575
N1644 G3 X-48.576 Y-23.895 I0.319 J0.
N1645 G1 X39.5 Y-23.85
N1646 X48.575 Y-23.895
N1647 G3 X48.895 Y-23.575 I0. J0.319
N1648 G1 Y-8.924
N1649 G3 X48.575 Y-8.605 I-0.319 J0.
N1650 G1 X43.611
N1651 X43.599
N1652 Z-2.55
N1653 X25.862 Y-25.595
N1654 Z-5.075
N1655 X25.874
N1656 X50.275
N1657 G3 X50.595 Y-25.275 I0. J0.319
N1658 G1 Y-7.224
N1659 G3 X50.275 Y-6.905 I-0.319 J0.
N1660 G1 X43.611
N1661 X43.599
N1662 Z5.
N1663 X-24.136 Y-25.595
N1664 Z-2.55 F333.33
N1665 Z-5.075 F1000.
N1666 X-24.124
N1667 X24.124
N1668 X24.135
N1669 Z5.
N1670 X-43.588 Y-6.905
N1671 Z-2.55 F333.33
N1672 Z-5.075 F1000.
N1673 X-43.612
N1674 X-50.276
N1675 G3 X-50.595 Y-7.224 I0. J-0.319
N1676 G1 Y-25.275
N1677 G3 X-50.276 Y-25.595 I0.319 J0.
N1678 G1 X-25.874
N1679 G3 X-25.725 Y-25.262 I0. J0.2
N1680 G1 X-43.462 Y-5.272
N1681 X-43.505 Y-5.236
N1682 X-43.556 Y-5.213
N1683 X-43.612 Y-5.205
N1684 X-51.976
N1685 G3 X-52.295 Y-5.524 I0. J-0.319
N1686 G1 Y-26.975
N1687 G3 X-51.976 Y-27.295 I0.319 J0.
N1688 G1 X51.975
N1689 G3 X52.294 Y-26.975 I0. J0.319
N1690 G1 Y-5.524
N1691 G3 X51.975 Y-5.205 I-0.319 J0.
N1692 G1 X43.611
N1693 X43.6
N1694 Z5.
N1695 X-43.599 Y-3.505
N1696 Z-2.55 F333.33
N1697 Z-5.075 F1000.
N1698 X-43.611
N1699 X-53.676
N1700 G3 X-53.995 Y-3.824 I0. J-0.319
N1701 G1 Y-28.675
N1702 G3 X-53.676 Y-28.995 I0.319 J0.
N1703 G1 X53.675
N1704 G3 X53.994 Y-28.675 I0. J0.319
N1705 G1 Y-3.824
N1706 G3 X53.675 Y-3.505 I-0.319 J0.
N1707 G1 X43.612
N1708 X43.6
N1709 Z5.
N1710 X-43.599 Y-1.805
N1711 Z-2.55 F333.33
N1712 Z-5.075 F1000.
N1713 X-43.611
N1714 X-55.376
N1715 G3 X-55.695 Y-2.124 I0. J-0.319
N1716 G1 Y-30.375
N1717 G3 X-55.376 Y-30.695 I0.319 J0.
N1718 G1 X55.375
N1719 G3 X55.694 Y-30.375 I0. J0.319
N1720 G1 Y-2.124
N1721 G3 X55.375 Y-1.805 I-0.319 J0.
N1722 G1 X43.612
N1723 X43.588
N1724 Z-2.55
N1725 X56.459 Y-0.105
N1726 Z-5.075
N1727 X56.436
N1728 X43.612
N1729 G3 X43.429 Y-0.385 I0. J-0.2
N1730 G1 X57.011 Y-31.625
N1731 G3 X57.395 Y-31.545 I0.183 J0.08
N1732 G1 Y-1.052
N1733 Y-1.04
N1734 Z5.
N1735 X-43.599 Y-0.105
N1736 Z-2.55 F333.33
N1737 Z-5.075 F1000.
N1738 X-43.611
N1739 X-56.445
N1740 X-56.497 Y-0.112
N1741 X-56.546 Y-0.132
N1742 X-56.587 Y-0.164
N1743 X-57.337 Y-0.923
N1744 X-57.369 Y-0.965
N1745 X-57.388 Y-1.012
N1746 X-57.395 Y-1.064
N1747 Y-31.44
N1748 X-57.388 Y-31.491
N1749 X-57.368 Y-31.54
N1750 X-57.336 Y-31.581
N1751 X-56.577 Y-32.336
N1752 X-56.536 Y-32.368
N1753 X-56.488 Y-32.388
N1754 X-56.436 Y-32.395
N1755 X39.5 Y-32.35
N1756 X56.32 Y-32.371
N1757 X56.466 Y-32.374
N1758 X56.478 Y-32.375
N1759 Z5.
N1760 X-43.595 Y1.55
N1761 Z-2.55 F333.33
N1762 Z-5.075 F1000.
N1763 X-43.606
N1764 X-57.488
N1765 G3 X-59.05 Y0. I-0.012 J-1.55
N1766 G1 Y-32.487
N1767 G3 X-57.5 Y-34.05 I1.55 J-0.013
N1768 G1 X39.5
N1769 X56.32
N1770 G2 X57.218 Y-34.132 I0. J-4.95
N1771 G3 X59.049 Y-32.608 I0.281 J1.524
N1772 G1 X59.05 Y-0.019
N1773 G3 X57.5 Y1.55 I-1.55 J0.019
N1774 G1 X43.616
N1775 X43.593
N1776 Z5.
N1777 X-43.595 Y3.25
N1778 Z-2.55 F333.33
N1779 Z-5.075 F1000.
N1780 X-43.606
N1781 X-57.475
N1782 G3 X-60.75 Y0. I-0.025 J-3.25
N1783 G1 Y-32.446
N1784 G3 X-59.809 Y-34.771 I3.343 J0.
N1785 X-57.5 Y-35.75 I2.309 J2.235
N1786 G1 X39.5
N1787 X56.32
N1788 G2 X56.91 Y-35.804 I0. J-3.25
N1789 G3 X60.75 Y-32.608 I0.59 J3.196
N1790 G1 Y-0.039
N1791 G3 X57.5 Y3.25 I-3.25 J0.039
N1792 G1 X43.616
N1793 X43.171
N1794 Z-2.55
N1795 X38.539 Y-37.499
N1796 Z-5.075
N1797 X38.563 Y-37.5
N1798 X56.32
N1799 G2 X56.592 Y-37.525 I0. J-1.5
N1800 G3 X62.5 Y-32.608 I0.907 J4.917
N1801 G1 Y-0.079
N1802 Y-0.06
N1803 G3 X57.5 Y5. I-5. J0.06
N1804 G1 X45.
N1805 X43.603
N1806 Z5.
N1807 X-43.579 Y4.999
N1808 Z-2.55 F333.33
N1809 Z-5.075 F1000.
N1810 X-43.603 Y5.
N1811 X-57.451
N1812 X-57.462
N1813 G3 X-62.5 Y0. I-0.038 J-5.
N1814 G1 Y-32.446
N1815 Y-32.459
N1816 G3 X-57.5 Y-37.5 I5. J-0.041
N1817 G1 X-39.5
N1818 X-38.575
N1819 X-38.551 Y-37.496
N1820 X-38.53 Y-37.484
N1821 X-38.515 Y-37.467
N1822 X-38.422 Y-37.32
N1823 X-38.406 Y-37.302
N1824 X-38.385 Y-37.291
N1825 X-38.362 Y-37.287
N1826 X-36.65
N1827 X-36.627 Y-37.291
N1828 X-36.606 Y-37.302
N1829 X-36.59 Y-37.32
N1830 X-36.497 Y-37.467
N1831 X-36.481 Y-37.484
N1832 X-36.461 Y-37.496
N1833 X-36.437 Y-37.5
N1834 X35.5
N1835 X36.425
N1836 Z5.
N1837 X-43.589 Y-10.305
N1838 Z-3.275 F333.33
N1839 Z-5.8 F1000.
N1840 X-46.876
N1841 G3 X-47.195 Y-10.624 I0. J-0.319
N1842 G1 Y-15.422
N1843 G3 X-44.34 Y-17.584 I2.247 J0.
N1844 G2 X-40.792 Y-17.095 I3.548 J-12.609
N1845 G1 X41.775
N1846 G3 X42.095 Y-16.775 I0. J0.319
N1847 G1 Y-15.724
N1848 G3 X41.775 Y-15.405 I-0.319 J0.
N1849 G1 X-41.776
N1850 G3 X-42.095 Y-15.724 I0. J-0.319
N1851 G1 Y-16.775
N1852 G3 X-41.776 Y-17.095 I0.319 J0.
N1853 G1 X-40.792
N1854 G2 X-39.518 Y-17.943 I0. J-1.38
N1855 G3 X-38.244 Y-18.792 I1.273 J0.531
N1856 G1 X39.5 Y-18.75
N1857 G2 X41.488 Y-18.772 I0. J-87.795
N1858 G3 X43.475 Y-18.795 I1.988 J87.772
N1859 X43.794 Y-18.475 I0. J0.319
N1860 G1 Y-14.024
N1861 G3 X43.475 Y-13.705 I-0.319 J0.
N1862 G1 X-43.476
N1863 G3 X-43.795 Y-14.024 I0. J-0.319
N1864 G1 Y-18.475
N1865 G3 X-43.476 Y-18.795 I0.319 J0.
N1866 G1 X-38.244 Y-18.792
N1867 G2 X-36.969 Y-19.641 I0.001 J-1.381
N1868 G3 X-35.695 Y-20.49 I1.274 J0.532
N1869 G1 X39.5 Y-20.45
N1870 G2 X42.338 Y-20.472 I0. J-178.935
N1871 G3 X45.175 Y-20.495 I2.838 J178.912
N1872 X45.494 Y-20.175 I0. J0.319
N1873 G1 Y-12.324
N1874 G3 X45.175 Y-12.005 I-0.319 J0.
N1875 G1 X-45.176
N1876 G3 X-45.495 Y-12.324 I0. J-0.319
N1877 G1 Y-20.175
N1878 G3 X-45.176 Y-20.495 I0.319 J0.
N1879 G1 X-35.695 Y-20.49
N1880 G3 X-35.539 Y-20.164 I0. J0.2
N1881 G1 X-43.457 Y-10.379
N1882 X-43.489 Y-10.348
N1883 X-43.526 Y-10.324
N1884 X-43.568 Y-10.31
N1885 X-43.612 Y-10.305
N1886 X-46.876
N1887 G3 X-47.195 Y-10.624 I0. J-0.319
N1888 G1 Y-21.875
N1889 G3 X-46.876 Y-22.195 I0.319 J0.
N1890 G1 X39.5 Y-22.15
N1891 X46.875 Y-22.195
N1892 G3 X47.194 Y-21.875 I0. J0.319
N1893 G1 Y-10.624
N1894 G3 X46.875 Y-10.305 I-0.319 J0.
N1895 G1 X43.61
N1896 X43.599
N1897 Z5.
N1898 X-43.589 Y-8.605
N1899 Z-3.275 F333.33
N1900 Z-5.8 F1000.
N1901 X-43.612
N1902 X-48.576
N1903 G3 X-48.895 Y-8.924 I0. J-0.319
N1904 G1 Y-23.575
N1905 G3 X-48.576 Y-23.895 I0.319 J0.
N1906 G1 X39.5 Y-23.85
N1907 X48.575 Y-23.895
N1908 G3 X48.895 Y-23.575 I0. J0.319
N1909 G1 Y-8.924
N1910 G3 X48.575 Y-8.605 I-0.319 J0.
N1911 G1 X43.611
N1912 X43.599
N1913 Z-3.275
N1914 X25.862 Y-25.595
N1915 Z-5.8
N1916 X25.874
N1917 X50.275
N1918 G3 X50.595 Y-25.275 I0. J0.319
N1919 G1 Y-7.224
N1920 G3 X50.275 Y-6.905 I-0.319 J0.
N1921 G1 X43.611
N1922 X43.599
N1923 Z5.
N1924 X-24.136 Y-25.595
N1925 Z-3.275 F333.33
N1926 Z-5.8 F1000.
N1927 X-24.124
N1928 X24.124
N1929 X24.135
N1930 Z5.
N1931 X-43.588 Y-6.905
N1932 Z-3.275 F333.33
N1933 Z-5.8 F1000.
N1934 X-43.612
N1935 X-50.276
N1936 G3 X-50.595 Y-7.224 I0. J-0.319
N1937 G1 Y-25.275
N1938 G3 X-50.276 Y-25.595 I0.319 J0.
N1939 G1 X-25.874
N1940 G3 X-25.725 Y-25.262 I0. J0.2
N1941 G1 X-43.462 Y-5.272
N1942 X-43.505 Y-5.236
N1943 X-43.556 Y-5.213
N1944 X-43.612 Y-5.205
N1945 X-51.976
N1946 G3 X-52.295 Y-5.524 I0. J-0.319
N1947 G1 Y-26.975
N1948 G3 X-51.976 Y-27.295 I0.319 J0.
N1949 G1 X51.975
N1950 G3 X52.294 Y-26.975 I0. J0.319
N1951 G1 Y-5.524
N1952 G3 X51.975 Y-5.205 I-0.319 J0.
N1953 G1 X43.611
N1954 X43.6
N1955 Z5.
N1956 X-43.599 Y-3.505
N1957 Z-3.275 F333.33
N1958 Z-5.8 F1000.
N1959 X-43.611
N1960 X-53.676
N1961 G3 X-53.995 Y-3.824 I0. J-0.319
N1962 G1 Y-28.675
N1963 G3 X-53.676 Y-28.995 I0.319 J0.
N1964 G1 X53.675
N1965 G3 X53.994 Y-28.675 I0. J0.319
N1966 G1 Y-3.824
N1967 G3 X53.675 Y-3.505 I-0.319 J0.
N1968 G1 X43.612
N1969 X43.6
N1970 Z5.
N1971 X-43.599 Y-1.805
N1972 Z-3.275 F333.33
N1973 Z-5.8 F1000.
N1974 X-43.611
N1975 X-55.376
N1976 G3 X-55.695 Y-2.124 I0. J-0.319
N1977 G1 Y-30.375
N1978 G3 X-55.376 Y-30.695 I0.319 J0.
N1979 G1 X55.375
N1980 G3 X55.694 Y-30.375 I0. J0.319
N1981 G1 Y-2.124
N1982 G3 X55.375 Y-1.805 I-0.319 J0.
N1983 G1 X43.612
N1984 X43.588
N1985 Z-3.275
N1986 X56.459 Y-0.105
N1987 Z-5.8
N1988 X56.436
N1989 X43.612
N1990 G3 X43.429 Y-0.385 I0. J-0.2
N1991 G1 X57.011 Y-31.625
N1992 G3 X57.395 Y-31.545 I0.183 J0.08
N1993 G1 Y-1.052
N1994 Y-1.04
N1995 Z5.
N1996 X-43.599 Y-0.105
N1997 Z-3.275 F333.33
N1998 Z-5.8 F1000.
N1999 X-43.611
N2000 X-56.445
N2001 X-56.497 Y-0.112
N2002 X-56.546 Y-0.132
N2003 X-56.587 Y-0.164
N2004 X-57.337 Y-0.923
N2005 X-57.369 Y-0.965
N2006 X-57.388 Y-1.012
N2007 X-57.395 Y-1.064
N2008 Y-31.44
N2009 X-57.388 Y-31.491
N2010 X-57.368 Y-31.54
N2011 X-57.336 Y-31.581
N2012 X-56.577 Y-32.336
N2013 X-56.536 Y-32.368
N2014 X-56.488 Y-32.388
N2015 X-56.436 Y-32.395
N2016 X39.5 Y-32.35
N2017 X56.32 Y-32.371
N2018 X56.466 Y-32.374
N2019 X56.478 Y-32.375
N2020 Z5.
N2021 X-43.595 Y1.55
N2022 Z-3.275 F333.33
N2023 Z-5.8 F1000.
N2024 X-43.606
N2025 X-57.488
N2026 G3 X-59.05 Y0. I-0.012 J-1.55
N2027 G1 Y-32.487
N2028 G3 X-57.5 Y-34.05 I1.55 J-0.013
N2029 G1 X39.5
N2030 X56.32
N2031 G2 X57.218 Y-34.132 I0. J-4.95
N2032 G3 X59.049 Y-32.608 I0.281 J1.524
N2033 G1 X59.05 Y-0.019
N2034 G3 X57.5 Y1.55 I-1.55 J0.019
N2035 G1 X43.616
N2036 X43.593
N2037 Z5.
N2038 X-43.595 Y3.25
N2039 Z-3.275 F333.33
N2040 Z-5.8 F1000.
N2041 X-43.606
N2042 X-57.475
N2043 G3 X-60.75 Y0. I-0.025 J-3.25
N2044 G1 Y-32.446
N2045 G3 X-59.809 Y-34.771 I3.343 J0.
N2046 X-57.5 Y-35.75 I2.309 J2.235
N2047 G1 X39.5
N2048 X56.32
N2049 G2 X56.91 Y-35.804 I0. J-3.25
N2050 G3 X60.75 Y-32.608 I0.59 J3.196
N2051 G1 Y-0.039
N2052 G3 X57.5 Y3.25 I-3.25 J0.039
N2053 G1 X43.616
N2054 X43.171
N2055 Z-3.275
N2056 X38.539 Y-37.499
N2057 Z-5.8
N2058 X38.563 Y-37.5
N2059 X56.32
N2060 G2 X56.592 Y-37.525 I0. J-1.5
N2061 G3 X62.5 Y-32.608 I0.907 J4.917
N2062 G1 Y-0.079
N2063 Y-0.06
N2064 G3 X57.5 Y5. I-5. J0.06
N2065 G1 X45.
N2066 X43.603
N2067 Z5.
N2068 X-43.579 Y4.999
N2069 Z-3.275 F333.33
N2070 Z-5.8 F1000.
N2071 X-43.603 Y5.
N2072 X-57.451
N2073 X-57.462
N2074 G3 X-62.5 Y0. I-0.038 J-5.
N2075 G1 Y-32.446
N2076 Y-32.459
N2077 G3 X-57.5 Y-37.5 I5. J-0.041
N2078 G1 X-39.5
N2079 X-38.575
N2080 X-38.551 Y-37.496
N2081 X-38.53 Y-37.484
N2082 X-38.515 Y-37.467
N2083 X-38.422 Y-37.32
N2084 X-38.406 Y-37.302
N2085 X-38.385 Y-37.291
N2086 X-38.362 Y-37.287
N2087 X-36.65
N2088 X-36.627 Y-37.291
N2089 X-36.606 Y-37.302
N2090 X-36.59 Y-37.32
N2091 X-36.497 Y-37.467
N2092 X-36.481 Y-37.484
N2093 X-36.461 Y-37.496
N2094 X-36.437 Y-37.5
N2095 X35.5
N2096 X36.425
N2097 Z15.
N2098 X-22.575 Y6.25
N2099 Z5.
N2100 Z2.5 F333.33
N2101 X-33.6 Z2.2
N2102 X-18.9 Z1.8
N2103 X-33.6 Z1.4
N2104 X-18.9 Z1.
N2105 X-33.6 Z0.6
N2106 X-18.9 Z0.2
N2107 X-33.6 Z-0.2
N2108 X-18.9 Z-0.6
N2109 X-26.25 Z-0.8
N2110 X-26.292 Y6.243
N2111 X-26.329 Y6.221
N2112 X-26.356 Y6.189
N2113 X-26.371 Y6.149
N2114 Y6.106
N2115 X-26.356 Y6.066
N2116 X-26.329 Y6.034
N2117 X-26.292 Y6.012
N2118 X-26.25 Y6.005
N2119 X26.26 F1000.
N2120 G3 X26.495 Y6.24 I0. J0.235
N2121 G1 Y6.26
N2122 G3 X26.26 Y6.495 I-0.235 J0.
N2123 G1 X-22.5 Y6.45
N2124 G2 X-24.38 Y6.472 I0. J78.542
N2125 G3 X-26.26 Y6.495 I-1.88 J-78.52
N2126 X-26.495 Y6.26 I0. J-0.235
N2127 G1 Y6.24
N2128 G3 X-26.26 Y6.005 I0.235 J0.
N2129 G1 X-26.25
N2130 G2 X-24.975 Y5.155 I0. J-1.381
N2131 G3 X-23.7 Y4.305 I1.275 J0.531
N2132 G1 X27.876
N2133 G3 X28.195 Y4.624 I0. J0.319
N2134 G1 Y7.876
N2135 G3 X27.876 Y8.195 I-0.319 J0.
N2136 G1 X-27.876
N2137 G3 X-28.195 Y7.876 I0. J-0.319
N2138 G1 Y4.624
N2139 G3 X-27.876 Y4.305 I0.319 J0.
N2140 G1 X-23.7
N2141 G2 X-22.425 Y3.455 I0. J-1.381
N2142 G3 X-21.15 Y2.605 I1.275 J0.531
N2143 G1 X29.576
N2144 G3 X29.895 Y2.924 I0. J0.319
N2145 G1 Y9.576
N2146 G3 X29.576 Y9.895 I-0.319 J0.
N2147 G1 X-29.576
N2148 G3 X-29.895 Y9.576 I0. J-0.319
N2149 G1 Y2.924
N2150 G3 X-29.576 Y2.605 I0.319 J0.
N2151 G1 X-21.15
N2152 G2 X-19.875 Y1.755 I0. J-1.381
N2153 G3 X-18.6 Y0.905 I1.275 J0.531
N2154 G1 X31.276
N2155 G3 X31.595 Y1.224 I0. J0.319
N2156 G1 Y11.276
N2157 G3 X31.276 Y11.595 I-0.319 J0.
N2158 G1 X-31.276
N2159 G3 X-31.595 Y11.276 I0. J-0.319
N2160 G1 Y1.224
N2161 G3 X-31.276 Y0.905 I0.319 J0.
N2162 G1 X-18.6
N2163 G2 X-17.325 Y0.055 I0. J-1.381
N2164 G3 X-16.05 Y-0.795 I1.275 J0.531
N2165 G1 X32.976
N2166 G3 X33.295 Y-0.476 I0. J0.319
N2167 G1 Y12.976
N2168 G3 X32.976 Y13.295 I-0.319 J0.
N2169 G1 X-32.976
N2170 G3 X-33.295 Y12.976 I0. J-0.319
N2171 G1 Y-0.476
N2172 G3 X-32.976 Y-0.795 I0.319 J0.
N2173 G1 X-16.05
N2174 G2 X-14.775 Y-1.645 I0. J-1.381
N2175 G3 X-13.5 Y-2.495 I1.275 J0.531
N2176 G1 X34.676
N2177 G3 X34.995 Y-2.176 I0. J0.319
N2178 G1 Y14.676
N2179 G3 X34.676 Y14.995 I-0.319 J0.
N2180 G1 X-27.5 Y14.95
N2181 G2 X-31.088 Y14.972 I0. J286.067
N2182 G3 X-34.676 Y14.995 I-3.588 J-286.044
N2183 X-34.995 Y14.676 I0. J-0.319
N2184 G1 Y-2.176
N2185 G3 X-34.676 Y-2.495 I0.319 J0.
N2186 G1 X-13.5
N2187 G2 X-12.225 Y-3.345 I0. J-1.381
N2188 G3 X-10.95 Y-4.195 I1.275 J0.531
N2189 G1 X36.376
N2190 G3 X36.695 Y-3.876 I0. J0.319
N2191 G1 Y16.376
N2192 G3 X36.376 Y16.695 I-0.319 J0.
N2193 G1 X-27.5 Y16.65
N2194 X-36.376 Y16.695
N2195 G3 X-36.695 Y16.376 I0. J-0.319
N2196 G1 Y-3.876
N2197 G3 X-36.376 Y-4.195 I0.319 J0.
N2198 G1 X-10.95
N2199 G2 X-9.675 Y-5.045 I0. J-1.381
N2200 G3 X-8.4 Y-5.895 I1.275 J0.531
N2201 G1 X38.076
N2202 G3 X38.395 Y-5.576 I0. J0.319
N2203 G1 Y18.076
N2204 G3 X38.076 Y18.395 I-0.319 J0.
N2205 G1 X-27.5 Y18.35
N2206 X-38.076 Y18.395
N2207 G3 X-38.395 Y18.076 I0. J-0.319
N2208 G1 Y-5.576
N2209 G3 X-38.076 Y-5.895 I0.319 J0.
N2210 G1 X-8.4
N2211 G2 X-7.125 Y-6.745 I0. J-1.381
N2212 G3 X-5.85 Y-7.595 I1.275 J0.531
N2213 G1 X39.776
N2214 G3 X40.095 Y-7.276 I0. J0.319
N2215 G1 Y19.776
N2216 G3 X39.776 Y20.095 I-0.319 J0.
N2217 G1 X-39.776
N2218 G3 X-40.095 Y19.776 I0. J-0.319
N2219 G1 Y-7.276
N2220 G3 X-39.776 Y-7.595 I0.319 J0.
N2221 G1 X-5.85
N2222 G2 X-4.575 Y-8.445 I0. J-1.381
N2223 G3 X-3.3 Y-9.295 I1.275 J0.531
N2224 G1 X41.476
N2225 G3 X41.795 Y-8.976 I0. J0.319
N2226 G1 Y21.476
N2227 G3 X41.476 Y21.795 I-0.319 J0.
N2228 G1 X-41.476
N2229 G3 X-41.795 Y21.476 I0. J-0.319
N2230 G1 Y-8.976
N2231 G3 X-41.476 Y-9.295 I0.319 J0.
N2232 G1 X-3.3
N2233 G2 X-2.021 Y-10.148 I0. J-1.385
N2234 G3 X-0.743 Y-11. I1.279 J0.533
N2235 G1 X43.5
N2236 Y23.5
N2237 X27.5
N2238 X-43.5
N2239 Y-11.
N2240 X-0.743
N2241 G3 X-0.649 Y-10.623 I0. J0.2
N2242 G1 X-32.648 Y6.227
N2243 X-32.693 Y6.244
N2244 X-32.741 Y6.25
N2245 X-33.6 Z-0.83 F333.33
N2246 X-18.9 Z-1.343
N2247 X-26.25 Z-1.6
N2248 X-26.292 Y6.243
N2249 X-26.329 Y6.221
N2250 X-26.356 Y6.189
N2251 X-26.371 Y6.149
N2252 Y6.106
N2253 X-26.356 Y6.066
N2254 X-26.329 Y6.034
N2255 X-26.292 Y6.012
N2256 X-26.25 Y6.005
N2257 X26.26 F1000.
N2258 G3 X26.495 Y6.24 I0. J0.235
N2259 G1 Y6.26
N2260 G3 X26.26 Y6.495 I-0.235 J0.
N2261 G1 X-22.5 Y6.45
N2262 G2 X-24.38 Y6.472 I0. J78.542
N2263 G3 X-26.26 Y6.495 I-1.88 J-78.52
N2264 X-26.495 Y6.26 I0. J-0.235
N2265 G1 Y6.24
N2266 G3 X-26.26 Y6.005 I0.235 J0.
N2267 G1 X-26.25
N2268 G2 X-24.975 Y5.155 I0. J-1.381
N2269 G3 X-23.7 Y4.305 I1.275 J0.531
N2270 G1 X27.876
N2271 G3 X28.195 Y4.624 I0. J0.319
N2272 G1 Y7.876
N2273 G3 X27.876 Y8.195 I-0.319 J0.
N2274 G1 X-27.876
N2275 G3 X-28.195 Y7.876 I0. J-0.319
N2276 G1 Y4.624
N2277 G3 X-27.876 Y4.305 I0.319 J0.
N2278 G1 X-23.7
N2279 G2 X-22.425 Y3.455 I0. J-1.381
N2280 G3 X-21.15 Y2.605 I1.275 J0.531
N2281 G1 X29.576
N2282 G3 X29.895 Y2.924 I0. J0.319
N2283 G1 Y9.576
N2284 G3 X29.576 Y9.895 I-0.319 J0.
N2285 G1 X-29.576
N2286 G3 X-29.895 Y9.576 I0. J-0.319
N2287 G1 Y2.924
N2288 G3 X-29.576 Y2.605 I0.319 J0.
N2289 G1 X-21.15
N2290 G2 X-19.875 Y1.755 I0. J-1.381
N2291 G3 X-18.6 Y0.905 I1.275 J0.531
N2292 G1 X31.276
N2293 G3 X31.595 Y1.224 I0. J0.319
N2294 G1 Y11.276
N2295 G3 X31.276 Y11.595 I-0.319 J0.
N2296 G1 X-31.276
N2297 G3 X-31.595 Y11.276 I0. J-0.319
N2298 G1 Y1.224
N2299 G3 X-31.276 Y0.905 I0.319 J0.
N2300 G1 X-18.6
N2301 G2 X-17.325 Y0.055 I0. J-1.381
N2302 G3 X-16.05 Y-0.795 I1.275 J0.531
N2303 G1 X32.976
N2304 G3 X33.295 Y-0.476 I0. J0.319
N2305 G1 Y12.976
N2306 G3 X32.976 Y13.295 I-0.319 J0.
N2307 G1 X-32.976
N2308 G3 X-33.295 Y12.976 I0. J-0.319
N2309 G1 Y-0.476
N2310 G3 X-32.976 Y-0.795 I0.319 J0.
N2311 G1 X-16.05
N2312 G2 X-14.775 Y-1.645 I0. J-1.381
N2313 G3 X-13.5 Y-2.495 I1.275 J0.531
N2314 G1 X34.676
N2315 G3 X34.995 Y-2.176 I0. J0.319
N2316 G1 Y14.676
N2317 G3 X34.676 Y14.995 I-0.319 J0.
N2318 G1 X-27.5 Y14.95
N2319 G2 X-31.088 Y14.972 I0. J286.067
N2320 G3 X-34.676 Y14.995 I-3.588 J-286.044
N2321 X-34.995 Y14.676 I0. J-0.319
N2322 G1 Y-2.176
N2323 G3 X-34.676 Y-2.495 I0.319 J0.
N2324 G1 X-13.5
N2325 G2 X-12.225 Y-3.345 I0. J-1.381
N2326 G3 X-10.95 Y-4.195 I1.275 J0.531
N2327 G1 X36.376
N2328 G3 X36.695 Y-3.876 I0. J0.319
N2329 G1 Y16.376
N2330 G3 X36.376 Y16.695 I-0.319 J0.
N2331 G1 X-27.5 Y16.65
N2332 X-36.376 Y16.695
N2333 G3 X-36.695 Y16.376 I0. J-0.319
N2334 G1 Y-3.876
N2335 G3 X-36.376 Y-4.195 I0.319 J0.
N2336 G1 X-10.95
N2337 G2 X-9.675 Y-5.045 I0. J-1.381
N2338 G3 X-8.4 Y-5.895 I1.275 J0.531
N2339 G1 X38.076
N2340 G3 X38.395 Y-5.576 I0. J0.319
N2341 G1 Y18.076
N2342 G3 X38.076 Y18.395 I-0.319 J0.
N2343 G1 X-27.5 Y18.35
N2344 X-38.076 Y18.395
N2345 G3 X-38.395 Y18.076 I0. J-0.319
N2346 G1 Y-5.576
N2347 G3 X-38.076 Y-5.895 I0.319 J0.
N2348 G1 X-8.4
N2349 G2 X-7.125 Y-6.745 I0. J-1.381
N2350 G3 X-5.85 Y-7.595 I1.275 J0.531
N2351 G1 X39.776
N2352 G3 X40.095 Y-7.276 I0. J0.319
N2353 G1 Y19.776
N2354 G3 X39.776 Y20.095 I-0.319 J0.
N2355 G1 X-39.776
N2356 G3 X-40.095 Y19.776 I0. J-0.319
N2357 G1 Y-7.276
N2358 G3 X-39.776 Y-7.595 I0.319 J0.
N2359 G1 X-5.85
N2360 G2 X-4.575 Y-8.445 I0. J-1.381
N2361 G3 X-3.3 Y-9.295 I1.275 J0.531
N2362 G1 X41.476
N2363 G3 X41.795 Y-8.976 I0. J0.319
N2364 G1 Y21.476
N2365 G3 X41.476 Y21.795 I-0.319 J0.
N2366 G1 X-41.476
N2367 G3 X-41.795 Y21.476 I0. J-0.319
N2368 G1 Y-8.976
N2369 G3 X-41.476 Y-9.295 I0.319 J0.
N2370 G1 X-3.3
N2371 G2 X-2.021 Y-10.148 I0. J-1.385
N2372 G3 X-0.743 Y-11. I1.279 J0.533
N2373 G1 X43.5
N2374 Y23.5
N2375 X27.5
N2376 X-43.5
N2377 Y-11.
N2378 X-0.743
N2379 G3 X-0.649 Y-10.623 I0. J0.2
N2380 G1 X-32.648 Y6.227
N2381 X-32.693 Y6.244
N2382 X-32.741 Y6.25
N2383 X-33.6 Z-1.63 F333.33
N2384 X-18.9 Z-2.143
N2385 X-26.25 Z-2.4
N2386 X-26.292 Y6.243
N2387 X-26.329 Y6.221
N2388 X-26.356 Y6.189
N2389 X-26.371 Y6.149
N2390 Y6.106
N2391 X-26.356 Y6.066
N2392 X-26.329 Y6.034
N2393 X-26.292 Y6.012
N2394 X-26.25 Y6.005
N2395 X26.26 F1000.
N2396 G3 X26.495 Y6.24 I0. J0.235
N2397 G1 Y6.26
N2398 G3 X26.26 Y6.495 I-0.235 J0.
N2399 G1 X-22.5 Y6.45
N2400 G2 X-24.38 Y6.472 I0. J78.542
N2401 G3 X-26.26 Y6.495 I-1.88 J-78.52
N2402 X-26.495 Y6.26 I0. J-0.235
N2403 G1 Y6.24
N2404 G3 X-26.26 Y6.005 I0.235 J0.
N2405 G1 X-26.25
N2406 G2 X-24.975 Y5.155 I0. J-1.381
N2407 G3 X-23.7 Y4.305 I1.275 J0.531
N2408 G1 X27.876
N2409 G3 X28.195 Y4.624 I0. J0.319
N2410 G1 Y7.876
N2411 G3 X27.876 Y8.195 I-0.319 J0.
N2412 G1 X-27.876
N2413 G3 X-28.195 Y7.876 I0. J-0.319
N2414 G1 Y4.624
N2415 G3 X-27.876 Y4.305 I0.319 J0.
N2416 G1 X-23.7
N2417 G2 X-22.425 Y3.455 I0. J-1.381
N2418 G3 X-21.15 Y2.605 I1.275 J0.531
N2419 G1 X29.576
N2420 G3 X29.895 Y2.924 I0. J0.319
N2421 G1 Y9.576
N2422 G3 X29.576 Y9.895 I-0.319 J0.
N2423 G1 X-29.576
N2424 G3 X-29.895 Y9.576 I0. J-0.319
N2425 G1 Y2.924
N2426 G3 X-29.576 Y2.605 I0.319 J0.
N2427 G1 X-21.15
N2428 G2 X-19.875 Y1.755 I0. J-1.381
N2429 G3 X-18.6 Y0.905 I1.275 J0.531
N2430 G1 X31.276
N2431 G3 X31.595 Y1.224 I0. J0.319
N2432 G1 Y11.276
N2433 G3 X31.276 Y11.595 I-0.319 J0.
N2434 G1 X-31.276
N2435 G3 X-31.595 Y11.276 I0. J-0.319
N2436 G1 Y1.224
N2437 G3 X-31.276 Y0.905 I0.319 J0.
N2438 G1 X-18.6
N2439 G2 X-17.325 Y0.055 I0. J-1.381
N2440 G3 X-16.05 Y-0.795 I1.275 J0.531
N2441 G1 X32.976
N2442 G3 X33.295 Y-0.476 I0. J0.319
N2443 G1 Y12.976
N2444 G3 X32.976 Y13.295 I-0.319 J0.
N2445 G1 X-32.976
N2446 G3 X-33.295 Y12.976 I0. J-0.319
N2447 G1 Y-0.476
N2448 G3 X-32.976 Y-0.795 I0.319 J0.
N2449 G1 X-16.05
N2450 G2 X-14.775 Y-1.645 I0. J-1.381
N2451 G3 X-13.5 Y-2.495 I1.275 J0.531
N2452 G1 X34.676
N2453 G3 X34.995 Y-2.176 I0. J0.319
N2454 G1 Y14.676
N2455 G3 X34.676 Y14.995 I-0.319 J0.
N2456 G1 X-27.5 Y14.95
N2457 G2 X-31.088 Y14.972 I0. J286.067
N2458 G3 X-34.676 Y14.995 I-3.588 J-286.044
N2459 X-34.995 Y14.676 I0. J-0.319
N2460 G1 Y-2.176
N2461 G3 X-34.676 Y-2.495 I0.319 J0.
N2462 G1 X-13.5
N2463 G2 X-12.225 Y-3.345 I0. J-1.381
N2464 G3 X-10.95 Y-4.195 I1.275 J0.531
N2465 G1 X36.376
N2466 G3 X36.695 Y-3.876 I0. J0.319
N2467 G1 Y16.376
N2468 G3 X36.376 Y16.695 I-0.319 J0.
N2469 G1 X-27.5 Y16.65
N2470 X-36.376 Y16.695
N2471 G3 X-36.695 Y16.376 I0. J-0.319
N2472 G1 Y-3.876
N2473 G3 X-36.376 Y-4.195 I0.319 J0.
N2474 G1 X-10.95
N2475 G2 X-9.675 Y-5.045 I0. J-1.381
N2476 G3 X-8.4 Y-5.895 I1.275 J0.531
N2477 G1 X38.076
N2478 G3 X38.395 Y-5.576 I0. J0.319
N2479 G1 Y18.076
N2480 G3 X38.076 Y18.395 I-0.319 J0.
N2481 G1 X-27.5 Y18.35
N2482 X-38.076 Y18.395
N2483 G3 X-38.395 Y18.076 I0. J-0.319
N2484 G1 Y-5.576
N2485 G3 X-38.076 Y-5.895 I0.319 J0.
N2486 G1 X-8.4
N2487 G2 X-7.125 Y-6.745 I0. J-1.381
N2488 G3 X-5.85 Y-7.595 I1.275 J0.531
N2489 G1 X39.776
N2490 G3 X40.095 Y-7.276 I0. J0.319
N2491 G1 Y19.776
N2492 G3 X39.776 Y20.095 I-0.319 J0.
N2493 G1 X-39.776
N2494 G3 X-40.095 Y19.776 I0. J-0.319
N2495 G1 Y-7.276
N2496 G3 X-39.776 Y-7.595 I0.319 J0.
N2497 G1 X-5.85
N2498 G2 X-4.575 Y-8.445 I0. J-1.381
N2499 G3 X-3.3 Y-9.295 I1.275 J0.531
N2500 G1 X41.476
N2501 G3 X41.795 Y-8.976 I0. J0.319
N2502 G1 Y21.476
N2503 G3 X41.476 Y21.795 I-0.319 J0.
N2504 G1 X-41.476
N2505 G3 X-41.795 Y21.476 I0. J-0.319
N2506 G1 Y-8.976
N2507 G3 X-41.476 Y-9.295 I0.319 J0.
N2508 G1 X-3.3
N2509 G2 X-2.021 Y-10.148 I0. J-1.385
N2510 G3 X-0.743 Y-11. I1.279 J0.533
N2511 G1 X43.5
N2512 Y23.5
N2513 X27.5
N2514 X-43.5
N2515 Y-11.
N2516 X-0.743
N2517 G3 X-0.649 Y-10.623 I0. J0.2
N2518 G1 X-32.648 Y6.227
N2519 X-32.693 Y6.244
N2520 X-32.741 Y6.25
N2521 X-33.6 Z-2.43 F333.33
N2522 X-18.9 Z-2.943
N2523 X-26.25 Z-3.2
N2524 X-26.292 Y6.243
N2525 X-26.329 Y6.221
N2526 X-26.356 Y6.189
N2527 X-26.371 Y6.149
N2528 Y6.106
N2529 X-26.356 Y6.066
N2530 X-26.329 Y6.034
N2531 X-26.292 Y6.012
N2532 X-26.25 Y6.005
N2533 X26.26 F1000.
N2534 G3 X26.495 Y6.24 I0. J0.235
N2535 G1 Y6.26
N2536 G3 X26.26 Y6.495 I-0.235 J0.
N2537 G1 X-22.5 Y6.45
N2538 G2 X-24.38 Y6.472 I0. J78.542
N2539 G3 X-26.26 Y6.495 I-1.88 J-78.52
N2540 X-26.495 Y6.26 I0. J-0.235
N2541 G1 Y6.24
N2542 G3 X-26.26 Y6.005 I0.235 J0.
N2543 G1 X-26.25
N2544 G2 X-24.975 Y5.155 I0. J-1.381
N2545 G3 X-23.7 Y4.305 I1.275 J0.531
N2546 G1 X27.876
N2547 G3 X28.195 Y4.624 I0. J0.319
N2548 G1 Y7.876
N2549 G3 X27.876 Y8.195 I-0.319 J0.
N2550 G1 X-27.876
N2551 G3 X-28.195 Y7.876 I0. J-0.319
N2552 G1 Y4.624
N2553 G3 X-27.876 Y4.305 I0.319 J0.
N2554 G1 X-23.7
N2555 G2 X-22.425 Y3.455 I0. J-1.381
N2556 G3 X-21.15 Y2.605 I1.275 J0.531
N2557 G1 X29.576
N2558 G3 X29.895 Y2.924 I0. J0.319
N2559 G1 Y9.576
N2560 G3 X29.576 Y9.895 I-0.319 J0.
N2561 G1 X-29.576
N2562 G3 X-29.895 Y9.576 I0. J-0.319
N2563 G1 Y2.924
N2564 G3 X-29.576 Y2.605 I0.319 J0.
N2565 G1 X-21.15
N2566 G2 X-19.875 Y1.755 I0. J-1.381
N2567 G3 X-18.6 Y0.905 I1.275 J0.531
N2568 G1 X31.276
N2569 G3 X31.595 Y1.224 I0. J0.319
N2570 G1 Y11.276
N2571 G3 X31.276 Y11.595 I-0.319 J0.
N2572 G1 X-31.276
N2573 G3 X-31.595 Y11.276 I0. J-0.319
N2574 G1 Y1.224
N2575 G3 X-31.276 Y0.905 I0.319 J0.
N2576 G1 X-18.6
N2577 G2 X-17.325 Y0.055 I0. J-1.381
N2578 G3 X-16.05 Y-0.795 I1.275 J0.531
N2579 G1 X32.976
N2580 G3 X33.295 Y-0.476 I0. J0.319
N2581 G1 Y12.976
N2582 G3 X32.976 Y13.295 I-0.319 J0.
N2583 G1 X-32.976
N2584 G3 X-33.295 Y12.976 I0. J-0.319
N2585 G1 Y-0.476
N2586 G3 X-32.976 Y-0.795 I0.319 J0.
N2587 G1 X-16.05
N2588 G2 X-14.775 Y-1.645 I0. J-1.381
N2589 G3 X-13.5 Y-2.495 I1.275 J0.531
N2590 G1 X34.676
N2591 G3 X34.995 Y-2.176 I0. J0.319
N2592 G1 Y14.676
N2593 G3 X34.676 Y14.995 I-0.319 J0.
N2594 G1 X-27.5 Y14.95
N2595 G2 X-31.088 Y14.972 I0. J286.067
N2596 G3 X-34.676 Y14.995 I-3.588 J-286.044
N2597 X-34.995 Y14.676 I0. J-0.319
N2598 G1 Y-2.176
N2599 G3 X-34.676 Y-2.495 I0.319 J0.
N2600 G1 X-13.5
N2601 G2 X-12.225 Y-3.345 I0. J-1.381
N2602 G3 X-10.95 Y-4.195 I1.275 J0.531
N2603 G1 X36.376
N2604 G3 X36.695 Y-3.876 I0. J0.319
N2605 G1 Y16.376
N2606 G3 X36.376 Y16.695 I-0.319 J0.
N2607 G1 X-27.5 Y16.65
N2608 X-36.376 Y16.695
N2609 G3 X-36.695 Y16.376 I0. J-0.319
N2610 G1 Y-3.876
N2611 G3 X-36.376 Y-4.195 I0.319 J0.
N2612 G1 X-10.95
N2613 G2 X-9.675 Y-5.045 I0. J-1.381
N2614 G3 X-8.4 Y-5.895 I1.275 J0.531
N2615 G1 X38.076
N2616 G3 X38.395 Y-5.576 I0. J0.319
N2617 G1 Y18.076
N2618 G3 X38.076 Y18.395 I-0.319 J0.
N2619 G1 X-27.5 Y18.35
N2620 X-38.076 Y18.395
N2621 G3 X-38.395 Y18.076 I0. J-0.319
N2622 G1 Y-5.576
N2623 G3 X-38.076 Y-5.895 I0.319 J0.
N2624 G1 X-8.4
N2625 G2 X-7.125 Y-6.745 I0. J-1.381
N2626 G3 X-5.85 Y-7.595 I1.275 J0.531
N2627 G1 X39.776
N2628 G3 X40.095 Y-7.276 I0. J0.319
N2629 G1 Y19.776
N2630 G3 X39.776 Y20.095 I-0.319 J0.
N2631 G1 X-39.776
N2632 G3 X-40.095 Y19.776 I0. J-0.319
N2633 G1 Y-7.276
N2634 G3 X-39.776 Y-7.595 I0.319 J0.
N2635 G1 X-5.85
N2636 G2 X-4.575 Y-8.445 I0. J-1.381
N2637 G3 X-3.3 Y-9.295 I1.275 J0.531
N2638 G1 X41.476
N2639 G3 X41.795 Y-8.976 I0. J0.319
N2640 G1 Y21.476
N2641 G3 X41.476 Y21.795 I-0.319 J0.
N2642 G1 X-41.476
N2643 G3 X-41.795 Y21.476 I0. J-0.319
N2644 G1 Y-8.976
N2645 G3 X-41.476 Y-9.295 I0.319 J0.
N2646 G1 X-3.3
N2647 G2 X-2.021 Y-10.148 I0. J-1.385
N2648 G3 X-0.743 Y-11. I1.279 J0.533
N2649 G1 X43.5
N2650 Y23.5
N2651 X27.5
N2652 X-43.5
N2653 Y-11.
N2654 X-0.743
N2655 G3 X-0.649 Y-10.623 I0. J0.2
N2656 G1 X-32.648 Y6.227
N2657 X-32.693 Y6.244
N2658 X-32.741 Y6.25
N2659 X-33.6 Z-3.23 F333.33
N2660 X-18.9 Z-3.743
N2661 X-26.25 Z-4.
N2662 X-26.292 Y6.243
N2663 X-26.329 Y6.221
N2664 X-26.356 Y6.189
N2665 X-26.371 Y6.149
N2666 Y6.106
N2667 X-26.356 Y6.066
N2668 X-26.329 Y6.034
N2669 X-26.292 Y6.012
N2670 X-26.25 Y6.005
N2671 X26.26 F1000.
N2672 G3 X26.495 Y6.24 I0. J0.235
N2673 G1 Y6.26
N2674 G3 X26.26 Y6.495 I-0.235 J0.
N2675 G1 X-22.5 Y6.45
N2676 G2 X-24.38 Y6.472 I0. J78.542
N2677 G3 X-26.26 Y6.495 I-1.88 J-78.52
N2678 X-26.495 Y6.26 I0. J-0.235
N2679 G1 Y6.24
N2680 G3 X-26.26 Y6.005 I0.235 J0.
N2681 G1 X-26.25
N2682 G2 X-24.975 Y5.155 I0. J-1.381
N2683 G3 X-23.7 Y4.305 I1.275 J0.531
N2684 G1 X27.876
N2685 G3 X28.195 Y4.624 I0. J0.319
N2686 G1 Y7.876
N2687 G3 X27.876 Y8.195 I-0.319 J0.
N2688 G1 X-27.876
N2689 G3 X-28.195 Y7.876 I0. J-0.319
N2690 G1 Y4.624
N2691 G3 X-27.876 Y4.305 I0.319 J0.
N2692 G1 X-23.7
N2693 G2 X-22.425 Y3.455 I0. J-1.381
N2694 G3 X-21.15 Y2.605 I1.275 J0.531
N2695 G1 X29.576
N2696 G3 X29.895 Y2.924 I0. J0.319
N2697 G1 Y9.576
N2698 G3 X29.576 Y9.895 I-0.319 J0.
N2699 G1 X-29.576
N2700 G3 X-29.895 Y9.576 I0. J-0.319
N2701 G1 Y2.924
N2702 G3 X-29.576 Y2.605 I0.319 J0.
N2703 G1 X-21.15
N2704 G2 X-19.875 Y1.755 I0. J-1.381
N2705 G3 X-18.6 Y0.905 I1.275 J0.531
N2706 G1 X31.276
N2707 G3 X31.595 Y1.224 I0. J0.319
N2708 G1 Y11.276
N2709 G3 X31.276 Y11.595 I-0.319 J0.
N2710 G1 X-31.276
N2711 G3 X-31.595 Y11.276 I0. J-0.319
N2712 G1 Y1.224
N2713 G3 X-31.276 Y0.905 I0.319 J0.
N2714 G1 X-18.6
N2715 G2 X-17.325 Y0.055 I0. J-1.381
N2716 G3 X-16.05 Y-0.795 I1.275 J0.531
N2717 G1 X32.976
N2718 G3 X33.295 Y-0.476 I0. J0.319
N2719 G1 Y12.976
N2720 G3 X32.976 Y13.295 I-0.319 J0.
N2721 G1 X-32.976
N2722 G3 X-33.295 Y12.976 I0. J-0.319
N2723 G1 Y-0.476
N2724 G3 X-32.976 Y-0.795 I0.319 J0.
N2725 G1 X-16.05
N2726 G2 X-14.775 Y-1.645 I0. J-1.381
N2727 G3 X-13.5 Y-2.495 I1.275 J0.531
N2728 G1 X34.676
N2729 G3 X34.995 Y-2.176 I0. J0.319
N2730 G1 Y14.676
N2731 G3 X34.676 Y14.995 I-0.319 J0.
N2732 G1 X-27.5 Y14.95
N2733 G2 X-31.088 Y14.972 I0. J286.067
N2734 G3 X-34.676 Y14.995 I-3.588 J-286.044
N2735 X-34.995 Y14.676 I0. J-0.319
N2736 G1 Y-2.176
N2737 G3 X-34.676 Y-2.495 I0.319 J0.
N2738 G1 X-13.5
N2739 G2 X-12.225 Y-3.345 I0. J-1.381
N2740 G3 X-10.95 Y-4.195 I1.275 J0.531
N2741 G1 X36.376
N2742 G3 X36.695 Y-3.876 I0. J0.319
N2743 G1 Y16.376
N2744 G3 X36.376 Y16.695 I-0.319 J0.
N2745 G1 X-27.5 Y16.65
N2746 X-36.376 Y16.695
N2747 G3 X-36.695 Y16.376 I0. J-0.319
N2748 G1 Y-3.876
N2749 G3 X-36.376 Y-4.195 I0.319 J0.
N2750 G1 X-10.95
N2751 G2 X-9.675 Y-5.045 I0. J-1.381
N2752 G3 X-8.4 Y-5.895 I1.275 J0.531
N2753 G1 X38.076
N2754 G3 X38.395 Y-5.576 I0. J0.319
N2755 G1 Y18.076
N2756 G3 X38.076 Y18.395 I-0.319 J0.
N2757 G1 X-27.5 Y18.35
N2758 X-38.076 Y18.395
N2759 G3 X-38.395 Y18.076 I0. J-0.319
N2760 G1 Y-5.576
N2761 G3 X-38.076 Y-5.895 I0.319 J0.
N2762 G1 X-8.4
N2763 G2 X-7.125 Y-6.745 I0. J-1.381
N2764 G3 X-5.85 Y-7.595 I1.275 J0.531
N2765 G1 X39.776
N2766 G3 X40.095 Y-7.276 I0. J0.319
N2767 G1 Y19.776
N2768 G3 X39.776 Y20.095 I-0.319 J0.
N2769 G1 X-39.776
N2770 G3 X-40.095 Y19.776 I0. J-0.319
N2771 G1 Y-7.276
N2772 G3 X-39.776 Y-7.595 I0.319 J0.
N2773 G1 X-5.85
N2774 G2 X-4.575 Y-8.445 I0. J-1.381
N2775 G3 X-3.3 Y-9.295 I1.275 J0.531
N2776 G1 X41.476
N2777 G3 X41.795 Y-8.976 I0. J0.319
N2778 G1 Y21.476
N2779 G3 X41.476 Y21.795 I-0.319 J0.
N2780 G1 X-41.476
N2781 G3 X-41.795 Y21.476 I0. J-0.319
N2782 G1 Y-8.976
N2783 G3 X-41.476 Y-9.295 I0.319 J0.
N2784 G1 X-3.3
N2785 G2 X-2.021 Y-10.148 I0. J-1.385
N2786 G3 X-0.743 Y-11. I1.279 J0.533
N2787 G1 X43.5
N2788 Y23.5
N2789 X27.5
N2790 X-43.5
N2791 Y-11.
N2792 X-0.743
N2793 G3 X-0.649 Y-10.623 I0. J0.2
N2794 G1 X-32.648 Y6.227
N2795 X-32.693 Y6.244
N2796 X-32.741 Y6.25
N2797 X-33.6 Z-4.03 F333.33
N2798 X-18.9 Z-4.543
N2799 X-26.25 Z-4.8
N2800 X-26.292 Y6.243
N2801 X-26.329 Y6.221
N2802 X-26.356 Y6.189
N2803 X-26.371 Y6.149
N2804 Y6.106
N2805 X-26.356 Y6.066
N2806 X-26.329 Y6.034
N2807 X-26.292 Y6.012
N2808 X-26.25 Y6.005
N2809 X26.26 F1000.
N2810 G3 X26.495 Y6.24 I0. J0.235
N2811 G1 Y6.26
N2812 G3 X26.26 Y6.495 I-0.235 J0.
N2813 G1 X-22.5 Y6.45
N2814 G2 X-24.38 Y6.472 I0. J78.542
N2815 G3 X-26.26 Y6.495 I-1.88 J-78.52
N2816 X-26.495 Y6.26 I0. J-0.235
N2817 G1 Y6.24
N2818 G3 X-26.26 Y6.005 I0.235 J0.
N2819 G1 X-26.25
N2820 G2 X-24.975 Y5.155 I0. J-1.381
N2821 G3 X-23.7 Y4.305 I1.275 J0.531
N2822 G1 X27.876
N2823 G3 X28.195 Y4.624 I0. J0.319
N2824 G1 Y7.876
N2825 G3 X27.876 Y8.195 I-0.319 J0.
N2826 G1 X-27.876
N2827 G3 X-28.195 Y7.876 I0. J-0.319
N2828 G1 Y4.624
N2829 G3 X-27.876 Y4.305 I0.319 J0.
N2830 G1 X-23.7
N2831 G2 X-22.425 Y3.455 I0. J-1.381
N2832 G3 X-21.15 Y2.605 I1.275 J0.531
N2833 G1 X29.576
N2834 G3 X29.895 Y2.924 I0. J0.319
N2835 G1 Y9.576
N2836 G3 X29.576 Y9.895 I-0.319 J0.
N2837 G1 X-29.576
N2838 G3 X-29.895 Y9.576 I0. J-0.319
N2839 G1 Y2.924
N2840 G3 X-29.576 Y2.605 I0.319 J0.
N2841 G1 X-21.15
N2842 G2 X-19.875 Y1.755 I0. J-1.381
N2843 G3 X-18.6 Y0.905 I1.275 J0.531
N2844 G1 X31.276
N2845 G3 X31.595 Y1.224 I0. J0.319
N2846 G1 Y11.276
N2847 G3 X31.276 Y11.595 I-0.319 J0.
N2848 G1 X-31.276
N2849 G3 X-31.595 Y11.276 I0. J-0.319
N2850 G1 Y1.224
N2851 G3 X-31.276 Y0.905 I0.319 J0.
N2852 G1 X-18.6
N2853 G2 X-17.325 Y0.055 I0. J-1.381
N2854 G3 X-16.05 Y-0.795 I1.275 J0.531
N2855 G1 X32.976
N2856 G3 X33.295 Y-0.476 I0. J0.319
N2857 G1 Y12.976
N2858 G3 X32.976 Y13.295 I-0.319 J0.
N2859 G1 X-32.976
N2860 G3 X-33.295 Y12.976 I0. J-0.319
N2861 G1 Y-0.476
N2862 G3 X-32.976 Y-0.795 I0.319 J0.
N2863 G1 X-16.05
N2864 G2 X-14.775 Y-1.645 I0. J-1.381
N2865 G3 X-13.5 Y-2.495 I1.275 J0.531
N2866 G1 X34.676
N2867 G3 X34.995 Y-2.176 I0. J0.319
N2868 G1 Y14.676
N2869 G3 X34.676 Y14.995 I-0.319 J0.
N2870 G1 X-27.5 Y14.95
N2871 G2 X-31.088 Y14.972 I0. J286.067
N2872 G3 X-34.676 Y14.995 I-3.588 J-286.044
N2873 X-34.995 Y14.676 I0. J-0.319
N2874 G1 Y-2.176
N2875 G3 X-34.676 Y-2.495 I0.319 J0.
N2876 G1 X-13.5
N2877 G2 X-12.225 Y-3.345 I0. J-1.381
N2878 G3 X-10.95 Y-4.195 I1.275 J0.531
N2879 G1 X36.376
N2880 G3 X36.695 Y-3.876 I0. J0.319
N2881 G1 Y16.376
N2882 G3 X36.376 Y16.695 I-0.319 J0.
N2883 G1 X-27.5 Y16.65
N2884 X-36.376 Y16.695
N2885 G3 X-36.695 Y16.376 I0. J-0.319
N2886 G1 Y-3.876
N2887 G3 X-36.376 Y-4.195 I0.319 J0.
N2888 G1 X-10.95
N2889 G2 X-9.675 Y-5.045 I0. J-1.381
N2890 G3 X-8.4 Y-5.895 I1.275 J0.531
N2891 G1 X38.076
N2892 G3 X38.395 Y-5.576 I0. J0.319
N2893 G1 Y18.076
N2894 G3 X38.076 Y18.395 I-0.319 J0.
N2895 G1 X-27.5 Y18.35
N2896 X-38.076 Y18.395
N2897 G3 X-38.395 Y18.076 I0. J-0.319
N2898 G1 Y-5.576
N2899 G3 X-38.076 Y-5.895 I0.319 J0.
N2900 G1 X-8.4
N2901 G2 X-7.125 Y-6.745 I0. J-1.381
N2902 G3 X-5.85 Y-7.595 I1.275 J0.531
N2903 G1 X39.776
N2904 G3 X40.095 Y-7.276 I0. J0.319
N2905 G1 Y19.776
N2906 G3 X39.776 Y20.095 I-0.319 J0.
N2907 G1 X-39.776
N2908 G3 X-40.095 Y19.776 I0. J-0.319
N2909 G1 Y-7.276
N2910 G3 X-39.776 Y-7.595 I0.319 J0.
N2911 G1 X-5.85
N2912 G2 X-4.575 Y-8.445 I0. J-1.381
N2913 G3 X-3.3 Y-9.295 I1.275 J0.531
N2914 G1 X41.476
N2915 G3 X41.795 Y-8.976 I0. J0.319
N2916 G1 Y21.476
N2917 G3 X41.476 Y21.795 I-0.319 J0.
N2918 G1 X-41.476
N2919 G3 X-41.795 Y21.476 I0. J-0.319
N2920 G1 Y-8.976
N2921 G3 X-41.476 Y-9.295 I0.319 J0.
N2922 G1 X-3.3
N2923 G2 X-2.021 Y-10.148 I0. J-1.385
N2924 G3 X-0.743 Y-11. I1.279 J0.533
N2925 G1 X43.5
N2926 Y23.5
N2927 X27.5
N2928 X-43.5
N2929 Y-11.
N2930 X-0.743
N2931 G3 X-0.649 Y-10.623 I0. J0.2
N2932 G1 X-32.648 Y6.227
N2933 X-32.693 Y6.244
N2934 X-32.741 Y6.25
N2935 X-33.6 Z-4.83 F333.33
N2936 X-18.9 Z-5.343
N2937 X-26.25 Z-5.6
N2938 X-26.292 Y6.243
N2939 X-26.329 Y6.221
N2940 X-26.356 Y6.189
N2941 X-26.371 Y6.149
N2942 Y6.106
N2943 X-26.356 Y6.066
N2944 X-26.329 Y6.034
N2945 X-26.292 Y6.012
N2946 X-26.25 Y6.005
N2947 X26.26 F1000.
N2948 G3 X26.495 Y6.24 I0. J0.235
N2949 G1 Y6.26
N2950 G3 X26.26 Y6.495 I-0.235 J0.
N2951 G1 X-22.5 Y6.45
N2952 G2 X-24.38 Y6.472 I0. J78.542
N2953 G3 X-26.26 Y6.495 I-1.88 J-78.52
N2954 X-26.495 Y6.26 I0. J-0.235
N2955 G1 Y6.24
N2956 G3 X-26.26 Y6.005 I0.235 J0.
N2957 G1 X-26.25
N2958 G2 X-24.975 Y5.155 I0. J-1.381
N2959 G3 X-23.7 Y4.305 I1.275 J0.531
N2960 G1 X27.876
N2961 G3 X28.195 Y4.624 I0. J0.319
N2962 G1 Y7.876
N2963 G3 X27.876 Y8.195 I-0.319 J0.
N2964 G1 X-27.876
N2965 G3 X-28.195 Y7.876 I0. J-0.319
N2966 G1 Y4.624
N2967 G3 X-27.876 Y4.305 I0.319 J0.
N2968 G1 X-23.7
N2969 G2 X-22.425 Y3.455 I0. J-1.381
N2970 G3 X-21.15 Y2.605 I1.275 J0.531
N2971 G1 X29.576
N2972 G3 X29.895 Y2.924 I0. J0.319
N2973 G1 Y9.576
N2974 G3 X29.576 Y9.895 I-0.319 J0.
N2975 G1 X-29.576
N2976 G3 X-29.895 Y9.576 I0. J-0.319
N2977 G1 Y2.924
N2978 G3 X-29.576 Y2.605 I0.319 J0.
N2979 G1 X-21.15
N2980 G2 X-19.875 Y1.755 I0. J-1.381
N2981 G3 X-18.6 Y0.905 I1.275 J0.531
N2982 G1 X31.276
N2983 G3 X31.595 Y1.224 I0. J0.319
N2984 G1 Y11.276
N2985 G3 X31.276 Y11.595 I-0.319 J0.
N2986 G1 X-31.276
N2987 G3 X-31.595 Y11.276 I0. J-0.319
N2988 G1 Y1.224
N2989 G3 X-31.276 Y0.905 I0.319 J0.
N2990 G1 X-18.6
N2991 G2 X-17.325 Y0.055 I0. J-1.381
N2992 G3 X-16.05 Y-0.795 I1.275 J0.531
N2993 G1 X32.976
N2994 G3 X33.295 Y-0.476 I0. J0.319
N2995 G1 Y12.976
N2996 G3 X32.976 Y13.295 I-0.319 J0.
N2997 G1 X-32.976
N2998 G3 X-33.295 Y12.976 I0. J-0.319
N2999 G1 Y-0.476
N3000 G3 X-32.976 Y-0.795 I0.319 J0.
N3001 G1 X-16.05
N3002 G2 X-14.775 Y-1.645 I0. J-1.381
N3003 G3 X-13.5 Y-2.495 I1.275 J0.531
N3004 G1 X34.676
N3005 G3 X34.995 Y-2.176 I0. J0.319
N3006 G1 Y14.676
N3007 G3 X34.676 Y14.995 I-0.319 J0.
N3008 G1 X-27.5 Y14.95
N3009 G2 X-31.088 Y14.972 I0. J286.067
N3010 G3 X-34.676 Y14.995 I-3.588 J-286.044
N3011 X-34.995 Y14.676 I0. J-0.319
N3012 G1 Y-2.176
N3013 G3 X-34.676 Y-2.495 I0.319 J0.
N3014 G1 X-13.5
N3015 G2 X-12.225 Y-3.345 I0. J-1.381
N3016 G3 X-10.95 Y-4.195 I1.275 J0.531
N3017 G1 X36.376
N3018 G3 X36.695 Y-3.876 I0. J0.319
N3019 G1 Y16.376
N3020 G3 X36.376 Y16.695 I-0.319 J0.
N3021 G1 X-27.5 Y16.65
N3022 X-36.376 Y16.695
N3023 G3 X-36.695 Y16.376 I0. J-0.319
N3024 G1 Y-3.876
N3025 G3 X-36.376 Y-4.195 I0.319 J0.
N3026 G1 X-10.95
N3027 G2 X-9.675 Y-5.045 I0. J-1.381
N3028 G3 X-8.4 Y-5.895 I1.275 J0.531
N3029 G1 X38.076
N3030 G3 X38.395 Y-5.576 I0. J0.319
N3031 G1 Y18.076
N3032 G3 X38.076 Y18.395 I-0.319 J0.
N3033 G1 X-27.5 Y18.35
N3034 X-38.076 Y18.395
N3035 G3 X-38.395 Y18.076 I0. J-0.319
N3036 G1 Y-5.576
N3037 G3 X-38.076 Y-5.895 I0.319 J0.
N3038 G1 X-8.4
N3039 G2 X-7.125 Y-6.745 I0. J-1.381
N3040 G3 X-5.85 Y-7.595 I1.275 J0.531
N3041 G1 X39.776
N3042 G3 X40.095 Y-7.276 I0. J0.319
N3043 G1 Y19.776
N3044 G3 X39.776 Y20.095 I-0.319 J0.
N3045 G1 X-39.776
N3046 G3 X-40.095 Y19.776 I0. J-0.319
N3047 G1 Y-7.276
N3048 G3 X-39.776 Y-7.595 I0.319 J0.
N3049 G1 X-5.85
N3050 G2 X-4.575 Y-8.445 I0. J-1.381
N3051 G3 X-3.3 Y-9.295 I1.275 J0.531
N3052 G1 X41.476
N3053 G3 X41.795 Y-8.976 I0. J0.319
N3054 G1 Y21.476
N3055 G3 X41.476 Y21.795 I-0.319 J0.
N3056 G1 X-41.476
N3057 G3 X-41.795 Y21.476 I0. J-0.319
N3058 G1 Y-8.976
N3059 G3 X-41.476 Y-9.295 I0.319 J0.
N3060 G1 X-3.3
N3061 G2 X-2.021 Y-10.148 I0. J-1.385
N3062 G3 X-0.743 Y-11. I1.279 J0.533
N3063 G1 X43.5
N3064 Y23.5
N3065 X27.5
N3066 X-43.5
N3067 Y-11.
N3068 X-0.743
N3069 G3 X-0.649 Y-10.623 I0. J0.2
N3070 G1 X-32.648 Y6.227
N3071 X-32.693 Y6.244
N3072 X-32.741 Y6.25
N3073 X-33.6 Z-5.63 F333.33
N3074 X-18.9 Z-6.143
N3075 X-26.25 Z-6.4
N3076 X-26.292 Y6.243
N3077 X-26.329 Y6.221
N3078 X-26.356 Y6.189
N3079 X-26.371 Y6.149
N3080 Y6.106
N3081 X-26.356 Y6.066
N3082 X-26.329 Y6.034
N3083 X-26.292 Y6.012
N3084 X-26.25 Y6.005
N3085 X26.26 F1000.
N3086 G3 X26.495 Y6.24 I0. J0.235
N3087 G1 Y6.26
N3088 G3 X26.26 Y6.495 I-0.235 J0.
N3089 G1 X-22.5 Y6.45
N3090 G2 X-24.38 Y6.472 I0. J78.542
N3091 G3 X-26.26 Y6.495 I-1.88 J-78.52
N3092 X-26.495 Y6.26 I0. J-0.235
N3093 G1 Y6.24
N3094 G3 X-26.26 Y6.005 I0.235 J0.
N3095 G1 X-26.25
N3096 G2 X-24.975 Y5.155 I0. J-1.381
N3097 G3 X-23.7 Y4.305 I1.275 J0.531
N3098 G1 X27.876
N3099 G3 X28.195 Y4.624 I0. J0.319
N3100 G1 Y7.876
N3101 G3 X27.876 Y8.195 I-0.319 J0.
N3102 G1 X-27.876
N3103 G3 X-28.195 Y7.876 I0. J-0.319
N3104 G1 Y4.624
N3105 G3 X-27.876 Y4.305 I0.319 J0.
N3106 G1 X-23.7
N3107 G2 X-22.425 Y3.455 I0. J-1.381
N3108 G3 X-21.15 Y2.605 I1.275 J0.531
N3109 G1 X29.576
N3110 G3 X29.895 Y2.924 I0. J0.319
N3111 G1 Y9.576
N3112 G3 X29.576 Y9.895 I-0.319 J0.
N3113 G1 X-29.576
N3114 G3 X-29.895 Y9.576 I0. J-0.319
N3115 G1 Y2.924
N3116 G3 X-29.576 Y2.605 I0.319 J0.
N3117 G1 X-21.15
N3118 G2 X-19.875 Y1.755 I0. J-1.381
N3119 G3 X-18.6 Y0.905 I1.275 J0.531
N3120 G1 X31.276
N3121 G3 X31.595 Y1.224 I0. J0.319
N3122 G1 Y11.276
N3123 G3 X31.276 Y11.595 I-0.319 J0.
N3124 G1 X-31.276
N3125 G3 X-31.595 Y11.276 I0. J-0.319
N3126 G1 Y1.224
N3127 G3 X-31.276 Y0.905 I0.319 J0.
N3128 G1 X-18.6
N3129 G2 X-17.325 Y0.055 I0. J-1.381
N3130 G3 X-16.05 Y-0.795 I1.275 J0.531
N3131 G1 X32.976
N3132 G3 X33.295 Y-0.476 I0. J0.319
N3133 G1 Y12.976
N3134 G3 X32.976 Y13.295 I-0.319 J0.
N3135 G1 X-32.976
N3136 G3 X-33.295 Y12.976 I0. J-0.319
N3137 G1 Y-0.476
N3138 G3 X-32.976 Y-0.795 I0.319 J0.
N3139 G1 X-16.05
N3140 G2 X-14.775 Y-1.645 I0. J-1.381
N3141 G3 X-13.5 Y-2.495 I1.275 J0.531
N3142 G1 X34.676
N3143 G3 X34.995 Y-2.176 I0. J0.319
N3144 G1 Y14.676
N3145 G3 X34.676 Y14.995 I-0.319 J0.
N3146 G1 X-27.5 Y14.95
N3147 G2 X-31.088 Y14.972 I0. J286.067
N3148 G3 X-34.676 Y14.995 I-3.588 J-286.044
N3149 X-34.995 Y14.676 I0. J-0.319
N3150 G1 Y-2.176
N3151 G3 X-34.676 Y-2.495 I0.319 J0.
N3152 G1 X-13.5
N3153 G2 X-12.225 Y-3.345 I0. J-1.381
N3154 G3 X-10.95 Y-4.195 I1.275 J0.531
N3155 G1 X36.376
N3156 G3 X36.695 Y-3.876 I0. J0.319
N3157 G1 Y16.376
N3158 G3 X36.376 Y16.695 I-0.319 J0.
N3159 G1 X-27.5 Y16.65
N3160 X-36.376 Y16.695
N3161 G3 X-36.695 Y16.376 I0. J-0.319
N3162 G1 Y-3.876
N3163 G3 X-36.376 Y-4.195 I0.319 J0.
N3164 G1 X-10.95
N3165 G2 X-9.675 Y-5.045 I0. J-1.381
N3166 G3 X-8.4 Y-5.895 I1.275 J0.531
N3167 G1 X38.076
N3168 G3 X38.395 Y-5.576 I0. J0.319
N3169 G1 Y18.076
N3170 G3 X38.076 Y18.395 I-0.319 J0.
N3171 G1 X-27.5 Y18.35
N3172 X-38.076 Y18.395
N3173 G3 X-38.395 Y18.076 I0. J-0.319
N3174 G1 Y-5.576
N3175 G3 X-38.076 Y-5.895 I0.319 J0.
N3176 G1 X-8.4
N3177 G2 X-7.125 Y-6.745 I0. J-1.381
N3178 G3 X-5.85 Y-7.595 I1.275 J0.531
N3179 G1 X39.776
N3180 G3 X40.095 Y-7.276 I0. J0.319
N3181 G1 Y19.776
N3182 G3 X39.776 Y20.095 I-0.319 J0.
N3183 G1 X-39.776
N3184 G3 X-40.095 Y19.776 I0. J-0.319
N3185 G1 Y-7.276
N3186 G3 X-39.776 Y-7.595 I0.319 J0.
N3187 G1 X-5.85
N3188 G2 X-4.575 Y-8.445 I0. J-1.381
N3189 G3 X-3.3 Y-9.295 I1.275 J0.531
N3190 G1 X41.476
N3191 G3 X41.795 Y-8.976 I0. J0.319
N3192 G1 Y21.476
N3193 G3 X41.476 Y21.795 I-0.319 J0.
N3194 G1 X-41.476
N3195 G3 X-41.795 Y21.476 I0. J-0.319
N3196 G1 Y-8.976
N3197 G3 X-41.476 Y-9.295 I0.319 J0.
N3198 G1 X-3.3
N3199 G2 X-2.021 Y-10.148 I0. J-1.385
N3200 G3 X-0.743 Y-11. I1.279 J0.533
N3201 G1 X43.5
N3202 Y23.5
N3203 X27.5
N3204 X-43.5
N3205 Y-11.
N3206 X-0.743
N3207 G3 X-0.649 Y-10.623 I0. J0.2
N3208 G1 X-32.648 Y6.227
N3209 X-32.693 Y6.244
N3210 X-32.741 Y6.25
N3211 X-33.6 Z-6.43 F333.33
N3212 X-18.9 Z-6.943
N3213 X-26.25 Z-7.2
N3214 X-26.292 Y6.243
N3215 X-26.329 Y6.221
N3216 X-26.356 Y6.189
N3217 X-26.371 Y6.149
N3218 Y6.106
N3219 X-26.356 Y6.066
N3220 X-26.329 Y6.034
N3221 X-26.292 Y6.012
N3222 X-26.25 Y6.005
N3223 X26.26 F1000.
N3224 G3 X26.495 Y6.24 I0. J0.235
N3225 G1 Y6.26
N3226 G3 X26.26 Y6.495 I-0.235 J0.
N3227 G1 X-22.5 Y6.45
N3228 G2 X-24.38 Y6.472 I0. J78.542
N3229 G3 X-26.26 Y6.495 I-1.88 J-78.52
N3230 X-26.495 Y6.26 I0. J-0.235
N3231 G1 Y6.24
N3232 G3 X-26.26 Y6.005 I0.235 J0.
N3233 G1 X-26.25
N3234 G2 X-24.975 Y5.155 I0. J-1.381
N3235 G3 X-23.7 Y4.305 I1.275 J0.531
N3236 G1 X27.876
N3237 G3 X28.195 Y4.624 I0. J0.319
N3238 G1 Y7.876
N3239 G3 X27.876 Y8.195 I-0.319 J0.
N3240 G1 X-27.876
N3241 G3 X-28.195 Y7.876 I0. J-0.319
N3242 G1 Y4.624
N3243 G3 X-27.876 Y4.305 I0.319 J0.
N3244 G1 X-23.7
N3245 G2 X-22.425 Y3.455 I0. J-1.381
N3246 G3 X-21.15 Y2.605 I1.275 J0.531
N3247 G1 X29.576
N3248 G3 X29.895 Y2.924 I0. J0.319
N3249 G1 Y9.576
N3250 G3 X29.576 Y9.895 I-0.319 J0.
N3251 G1 X-29.576
N3252 G3 X-29.895 Y9.576 I0. J-0.319
N3253 G1 Y2.924
N3254 G3 X-29.576 Y2.605 I0.319 J0.
N3255 G1 X-21.15
N3256 G2 X-19.875 Y1.755 I0. J-1.381
N3257 G3 X-18.6 Y0.905 I1.275 J0.531
N3258 G1 X31.276
N3259 G3 X31.595 Y1.224 I0. J0.319
N3260 G1 Y11.276
N3261 G3 X31.276 Y11.595 I-0.319 J0.
N3262 G1 X-31.276
N3263 G3 X-31.595 Y11.276 I0. J-0.319
N3264 G1 Y1.224
N3265 G3 X-31.276 Y0.905 I0.319 J0.
N3266 G1 X-18.6
N3267 G2 X-17.325 Y0.055 I0. J-1.381
N3268 G3 X-16.05 Y-0.795 I1.275 J0.531
N3269 G1 X32.976
N3270 G3 X33.295 Y-0.476 I0. J0.319
N3271 G1 Y12.976
N3272 G3 X32.976 Y13.295 I-0.319 J0.
N3273 G1 X-32.976
N3274 G3 X-33.295 Y12.976 I0. J-0.319
N3275 G1 Y-0.476
N3276 G3 X-32.976 Y-0.795 I0.319 J0.
N3277 G1 X-16.05
N3278 G2 X-14.775 Y-1.645 I0. J-1.381
N3279 G3 X-13.5 Y-2.495 I1.275 J0.531
N3280 G1 X34.676
N3281 G3 X34.995 Y-2.176 I0. J0.319
N3282 G1 Y14.676
N3283 G3 X34.676 Y14.995 I-0.319 J0.
N3284 G1 X-27.5 Y14.95
N3285 G2 X-31.088 Y14.972 I0. J286.067
N3286 G3 X-34.676 Y14.995 I-3.588 J-286.044
N3287 X-34.995 Y14.676 I0. J-0.319
N3288 G1 Y-2.176
N3289 G3 X-34.676 Y-2.495 I0.319 J0.
N3290 G1 X-13.5
N3291 G2 X-12.225 Y-3.345 I0. J-1.381
N3292 G3 X-10.95 Y-4.195 I1.275 J0.531
N3293 G1 X36.376
N3294 G3 X36.695 Y-3.876 I0. J0.319
N3295 G1 Y16.376
N3296 G3 X36.376 Y16.695 I-0.319 J0.
N3297 G1 X-27.5 Y16.65
N3298 X-36.376 Y16.695
N3299 G3 X-36.695 Y16.376 I0. J-0.319
N3300 G1 Y-3.876
N3301 G3 X-36.376 Y-4.195 I0.319 J0.
N3302 G1 X-10.95
N3303 G2 X-9.675 Y-5.045 I0. J-1.381
N3304 G3 X-8.4 Y-5.895 I1.275 J0.531
N3305 G1 X38.076
N3306 G3 X38.395 Y-5.576 I0. J0.319
N3307 G1 Y18.076
N3308 G3 X38.076 Y18.395 I-0.319 J0.
N3309 G1 X-27.5 Y18.35
N3310 X-38.076 Y18.395
N3311 G3 X-38.395 Y18.076 I0. J-0.319
N3312 G1 Y-5.576
N3313 G3 X-38.076 Y-5.895 I0.319 J0.
N3314 G1 X-8.4
N3315 G2 X-7.125 Y-6.745 I0. J-1.381
N3316 G3 X-5.85 Y-7.595 I1.275 J0.531
N3317 G1 X39.776
N3318 G3 X40.095 Y-7.276 I0. J0.319
N3319 G1 Y19.776
N3320 G3 X39.776 Y20.095 I-0.319 J0.
N3321 G1 X-39.776
N3322 G3 X-40.095 Y19.776 I0. J-0.319
N3323 G1 Y-7.276
N3324 G3 X-39.776 Y-7.595 I0.319 J0.
N3325 G1 X-5.85
N3326 G2 X-4.575 Y-8.445 I0. J-1.381
N3327 G3 X-3.3 Y-9.295 I1.275 J0.531
N3328 G1 X41.476
N3329 G3 X41.795 Y-8.976 I0. J0.319
N3330 G1 Y21.476
N3331 G3 X41.476 Y21.795 I-0.319 J0.
N3332 G1 X-41.476
N3333 G3 X-41.795 Y21.476 I0. J-0.319
N3334 G1 Y-8.976
N3335 G3 X-41.476 Y-9.295 I0.319 J0.
N3336 G1 X-3.3
N3337 G2 X-2.021 Y-10.148 I0. J-1.385
N3338 G3 X-0.743 Y-11. I1.279 J0.533
N3339 G1 X43.5
N3340 Y23.5
N3341 X27.5
N3342 X-43.5
N3343 Y-11.
N3344 X-0.743
N3345 G3 X-0.649 Y-10.623 I0. J0.2
N3346 G1 X-32.648 Y6.227
N3347 X-32.693 Y6.244
N3348 X-32.741 Y6.25
N3349 X-33.6 Z-7.23 F333.33
N3350 X-18.9 Z-7.743
N3351 X-26.25 Z-8.
N3352 X-26.292 Y6.243
N3353 X-26.329 Y6.221
N3354 X-26.356 Y6.189
N3355 X-26.371 Y6.149
N3356 Y6.106
N3357 X-26.356 Y6.066
N3358 X-26.329 Y6.034
N3359 X-26.292 Y6.012
N3360 X-26.25 Y6.005
N3361 X26.26 F1000.
N3362 G3 X26.495 Y6.24 I0. J0.235
N3363 G1 Y6.26
N3364 G3 X26.26 Y6.495 I-0.235 J0.
N3365 G1 X-22.5 Y6.45
N3366 G2 X-24.38 Y6.472 I0. J78.542
N3367 G3 X-26.26 Y6.495 I-1.88 J-78.52
N3368 X-26.495 Y6.26 I0. J-0.235
N3369 G1 Y6.24
N3370 G3 X-26.26 Y6.005 I0.235 J0.
N3371 G1 X-26.25
N3372 G2 X-24.975 Y5.155 I0. J-1.381
N3373 G3 X-23.7 Y4.305 I1.275 J0.531
N3374 G1 X27.876
N3375 G3 X28.195 Y4.624 I0. J0.319
N3376 G1 Y7.876
N3377 G3 X27.876 Y8.195 I-0.319 J0.
N3378 G1 X-27.876
N3379 G3 X-28.195 Y7.876 I0. J-0.319
N3380 G1 Y4.624
N3381 G3 X-27.876 Y4.305 I0.319 J0.
N3382 G1 X-23.7
N3383 G2 X-22.425 Y3.455 I0. J-1.381
N3384 G3 X-21.15 Y2.605 I1.275 J0.531
N3385 G1 X29.576
N3386 G3 X29.895 Y2.924 I0. J0.319
N3387 G1 Y9.576
N3388 G3 X29.576 Y9.895 I-0.319 J0.
N3389 G1 X-29.576
N3390 G3 X-29.895 Y9.576 I0. J-0.319
N3391 G1 Y2.924
N3392 G3 X-29.576 Y2.605 I0.319 J0.
N3393 G1 X-21.15
N3394 G2 X-19.875 Y1.755 I0. J-1.381
N3395 G3 X-18.6 Y0.905 I1.275 J0.531
N3396 G1 X31.276
N3397 G3 X31.595 Y1.224 I0. J0.319
N3398 G1 Y11.276
N3399 G3 X31.276 Y11.595 I-0.319 J0.
N3400 G1 X-31.276
N3401 G3 X-31.595 Y11.276 I0. J-0.319
N3402 G1 Y1.224
N3403 G3 X-31.276 Y0.905 I0.319 J0.
N3404 G1 X-18.6
N3405 G2 X-17.325 Y0.055 I0. J-1.381
N3406 G3 X-16.05 Y-0.795 I1.275 J0.531
N3407 G1 X32.976
N3408 G3 X33.295 Y-0.476 I0. J0.319
N3409 G1 Y12.976
N3410 G3 X32.976 Y13.295 I-0.319 J0.
N3411 G1 X-32.976
N3412 G3 X-33.295 Y12.976 I0. J-0.319
N3413 G1 Y-0.476
N3414 G3 X-32.976 Y-0.795 I0.319 J0.
N3415 G1 X-16.05
N3416 G2 X-14.775 Y-1.645 I0. J-1.381
N3417 G3 X-13.5 Y-2.495 I1.275 J0.531
N3418 G1 X34.676
N3419 G3 X34.995 Y-2.176 I0. J0.319
N3420 G1 Y14.676
N3421 G3 X34.676 Y14.995 I-0.319 J0.
N3422 G1 X-27.5 Y14.95
N3423 G2 X-31.088 Y14.972 I0. J286.067
N3424 G3 X-34.676 Y14.995 I-3.588 J-286.044
N3425 X-34.995 Y14.676 I0. J-0.319
N3426 G1 Y-2.176
N3427 G3 X-34.676 Y-2.495 I0.319 J0.
N3428 G1 X-13.5
N3429 G2 X-12.225 Y-3.345 I0. J-1.381
N3430 G3 X-10.95 Y-4.195 I1.275 J0.531
N3431 G1 X36.376
N3432 G3 X36.695 Y-3.876 I0. J0.319
N3433 G1 Y16.376
N3434 G3 X36.376 Y16.695 I-0.319 J0.
N3435 G1 X-27.5 Y16.65
N3436 X-36.376 Y16.695
N3437 G3 X-36.695 Y16.376 I0. J-0.319
N3438 G1 Y-3.876
N3439 G3 X-36.376 Y-4.195 I0.319 J0.
N3440 G1 X-10.95
N3441 G2 X-9.675 Y-5.045 I0. J-1.381
N3442 G3 X-8.4 Y-5.895 I1.275 J0.531
N3443 G1 X38.076
N3444 G3 X38.395 Y-5.576 I0. J0.319
N3445 G1 Y18.076
N3446 G3 X38.076 Y18.395 I-0.319 J0.
N3447 G1 X-27.5 Y18.35
N3448 X-38.076 Y18.395
N3449 G3 X-38.395 Y18.076 I0. J-0.319
N3450 G1 Y-5.576
N3451 G3 X-38.076 Y-5.895 I0.319 J0.
N3452 G1 X-8.4
N3453 G2 X-7.125 Y-6.745 I0. J-1.381
N3454 G3 X-5.85 Y-7.595 I1.275 J0.531
N3455 G1 X39.776
N3456 G3 X40.095 Y-7.276 I0. J0.319
N3457 G1 Y19.776
N3458 G3 X39.776 Y20.095 I-0.319 J0.
N3459 G1 X-39.776
N3460 G3 X-40.095 Y19.776 I0. J-0.319
N3461 G1 Y-7.276
N3462 G3 X-39.776 Y-7.595 I0.319 J0.
N3463 G1 X-5.85
N3464 G2 X-4.575 Y-8.445 I0. J-1.381
N3465 G3 X-3.3 Y-9.295 I1.275 J0.531
N3466 G1 X41.476
N3467 G3 X41.795 Y-8.976 I0. J0.319
N3468 G1 Y21.476
N3469 G3 X41.476 Y21.795 I-0.319 J0.
N3470 G1 X-41.476
N3471 G3 X-41.795 Y21.476 I0. J-0.319
N3472 G1 Y-8.976
N3473 G3 X-41.476 Y-9.295 I0.319 J0.
N3474 G1 X-3.3
N3475 G2 X-2.021 Y-10.148 I0. J-1.385
N3476 G3 X-0.743 Y-11. I1.279 J0.533
N3477 G1 X43.5
N3478 Y23.5
N3479 X27.5
N3480 X-43.5
N3481 Y-11.
N3482 X-0.743
N3483 G3 X-0.649 Y-10.623 I0. J0.2
N3484 G1 X-32.648 Y6.227
N3485 X-32.693 Y6.244
N3486 X-32.741 Y6.25
N3487 X-33.6 Z-8.03 F333.33
N3488 X-18.9 Z-8.543
N3489 X-26.25 Z-8.8
N3490 X-26.292 Y6.243
N3491 X-26.329 Y6.221
N3492 X-26.356 Y6.189
N3493 X-26.371 Y6.149
N3494 Y6.106
N3495 X-26.356 Y6.066
N3496 X-26.329 Y6.034
N3497 X-26.292 Y6.012
N3498 X-26.25 Y6.005
N3499 X26.26 F1000.
N3500 G3 X26.495 Y6.24 I0. J0.235
N3501 G1 Y6.26
N3502 G3 X26.26 Y6.495 I-0.235 J0.
N3503 G1 X-22.5 Y6.45
N3504 G2 X-24.38 Y6.472 I0. J78.542
N3505 G3 X-26.26 Y6.495 I-1.88 J-78.52
N3506 X-26.495 Y6.26 I0. J-0.235
N3507 G1 Y6.24
N3508 G3 X-26.26 Y6.005 I0.235 J0.
N3509 G1 X-26.25
N3510 G2 X-24.975 Y5.155 I0. J-1.381
N3511 G3 X-23.7 Y4.305 I1.275 J0.531
N3512 G1 X27.876
N3513 G3 X28.195 Y4.624 I0. J0.319
N3514 G1 Y7.876
N3515 G3 X27.876 Y8.195 I-0.319 J0.
N3516 G1 X-27.876
N3517 G3 X-28.195 Y7.876 I0. J-0.319
N3518 G1 Y4.624
N3519 G3 X-27.876 Y4.305 I0.319 J0.
N3520 G1 X-23.7
N3521 G2 X-22.425 Y3.455 I0. J-1.381
N3522 G3 X-21.15 Y2.605 I1.275 J0.531
N3523 G1 X29.576
N3524 G3 X29.895 Y2.924 I0. J0.319
N3525 G1 Y9.576
N3526 G3 X29.576 Y9.895 I-0.319 J0.
N3527 G1 X-29.576
N3528 G3 X-29.895 Y9.576 I0. J-0.319
N3529 G1 Y2.924
N3530 G3 X-29.576 Y2.605 I0.319 J0.
N3531 G1 X-21.15
N3532 G2 X-19.875 Y1.755 I0. J-1.381
N3533 G3 X-18.6 Y0.905 I1.275 J0.531
N3534 G1 X31.276
N3535 G3 X31.595 Y1.224 I0. J0.319
N3536 G1 Y11.276
N3537 G3 X31.276 Y11.595 I-0.319 J0.
N3538 G1 X-31.276
N3539 G3 X-31.595 Y11.276 I0. J-0.319
N3540 G1 Y1.224
N3541 G3 X-31.276 Y0.905 I0.319 J0.
N3542 G1 X-18.6
N3543 G2 X-17.325 Y0.055 I0. J-1.381
N3544 G3 X-16.05 Y-0.795 I1.275 J0.531
N3545 G1 X32.976
N3546 G3 X33.295 Y-0.476 I0. J0.319
N3547 G1 Y12.976
N3548 G3 X32.976 Y13.295 I-0.319 J0.
N3549 G1 X-32.976
N3550 G3 X-33.295 Y12.976 I0. J-0.319
N3551 G1 Y-0.476
N3552 G3 X-32.976 Y-0.795 I0.319 J0.
N3553 G1 X-16.05
N3554 G2 X-14.775 Y-1.645 I0. J-1.381
N3555 G3 X-13.5 Y-2.495 I1.275 J0.531
N3556 G1 X34.676
N3557 G3 X34.995 Y-2.176 I0. J0.319
N3558 G1 Y14.676
N3559 G3 X34.676 Y14.995 I-0.319 J0.
N3560 G1 X-27.5 Y14.95
N3561 G2 X-31.088 Y14.972 I0. J286.067
N3562 G3 X-34.676 Y14.995 I-3.588 J-286.044
N3563 X-34.995 Y14.676 I0. J-0.319
N3564 G1 Y-2.176
N3565 G3 X-34.676 Y-2.495 I0.319 J0.
N3566 G1 X-13.5
N3567 G2 X-12.225 Y-3.345 I0. J-1.381
N3568 G3 X-10.95 Y-4.195 I1.275 J0.531
N3569 G1 X36.376
N3570 G3 X36.695 Y-3.876 I0. J0.319
N3571 G1 Y16.376
N3572 G3 X36.376 Y16.695 I-0.319 J0.
N3573 G1 X-27.5 Y16.65
N3574 X-36.376 Y16.695
N3575 G3 X-36.695 Y16.376 I0. J-0.319
N3576 G1 Y-3.876
N3577 G3 X-36.376 Y-4.195 I0.319 J0.
N3578 G1 X-10.95
N3579 G2 X-9.675 Y-5.045 I0. J-1.381
N3580 G3 X-8.4 Y-5.895 I1.275 J0.531
N3581 G1 X38.076
N3582 G3 X38.395 Y-5.576 I0. J0.319
N3583 G1 Y18.076
N3584 G3 X38.076 Y18.395 I-0.319 J0.
N3585 G1 X-27.5 Y18.35
N3586 X-38.076 Y18.395
N3587 G3 X-38.395 Y18.076 I0. J-0.319
N3588 G1 Y-5.576
N3589 G3 X-38.076 Y-5.895 I0.319 J0.
N3590 G1 X-8.4
N3591 G2 X-7.125 Y-6.745 I0. J-1.381
N3592 G3 X-5.85 Y-7.595 I1.275 J0.531
N3593 G1 X39.776
N3594 G3 X40.095 Y-7.276 I0. J0.319
N3595 G1 Y19.776
N3596 G3 X39.776 Y20.095 I-0.319 J0.
N3597 G1 X-39.776
N3598 G3 X-40.095 Y19.776 I0. J-0.319
N3599 G1 Y-7.276
N3600 G3 X-39.776 Y-7.595 I0.319 J0.
N3601 G1 X-5.85
N3602 G2 X-4.575 Y-8.445 I0. J-1.381
N3603 G3 X-3.3 Y-9.295 I1.275 J0.531
N3604 G1 X41.476
N3605 G3 X41.795 Y-8.976 I0. J0.319
N3606 G1 Y21.476
N3607 G3 X41.476 Y21.795 I-0.319 J0.
N3608 G1 X-41.476
N3609 G3 X-41.795 Y21.476 I0. J-0.319
N3610 G1 Y-8.976
N3611 G3 X-41.476 Y-9.295 I0.319 J0.
N3612 G1 X-3.3
N3613 G2 X-2.021 Y-10.148 I0. J-1.385
N3614 G3 X-0.743 Y-11. I1.279 J0.533
N3615 G1 X43.5
N3616 Y23.5
N3617 X27.5
N3618 X-43.5
N3619 Y-11.
N3620 X-0.743
N3621 G3 X-0.649 Y-10.623 I0. J0.2
N3622 G1 X-32.648 Y6.227
N3623 X-32.693 Y6.244
N3624 X-32.741 Y6.25
N3625 X-33.6 Z-8.83 F333.33
N3626 X-18.9 Z-9.343
N3627 X-26.25 Z-9.6
N3628 X-26.292 Y6.243
N3629 X-26.329 Y6.221
N3630 X-26.356 Y6.189
N3631 X-26.371 Y6.149
N3632 Y6.106
N3633 X-26.356 Y6.066
N3634 X-26.329 Y6.034
N3635 X-26.292 Y6.012
N3636 X-26.25 Y6.005
N3637 X26.26 F1000.
N3638 G3 X26.495 Y6.24 I0. J0.235
N3639 G1 Y6.26
N3640 G3 X26.26 Y6.495 I-0.235 J0.
N3641 G1 X-22.5 Y6.45
N3642 G2 X-24.38 Y6.472 I0. J78.542
N3643 G3 X-26.26 Y6.495 I-1.88 J-78.52
N3644 X-26.495 Y6.26 I0. J-0.235
N3645 G1 Y6.24
N3646 G3 X-26.26 Y6.005 I0.235 J0.
N3647 G1 X-26.25
N3648 G2 X-24.975 Y5.155 I0. J-1.381
N3649 G3 X-23.7 Y4.305 I1.275 J0.531
N3650 G1 X27.876
N3651 G3 X28.195 Y4.624 I0. J0.319
N3652 G1 Y7.876
N3653 G3 X27.876 Y8.195 I-0.319 J0.
N3654 G1 X-27.876
N3655 G3 X-28.195 Y7.876 I0. J-0.319
N3656 G1 Y4.624
N3657 G3 X-27.876 Y4.305 I0.319 J0.
N3658 G1 X-23.7
N3659 G2 X-22.425 Y3.455 I0. J-1.381
N3660 G3 X-21.15 Y2.605 I1.275 J0.531
N3661 G1 X29.576
N3662 G3 X29.895 Y2.924 I0. J0.319
N3663 G1 Y9.576
N3664 G3 X29.576 Y9.895 I-0.319 J0.
N3665 G1 X-29.576
N3666 G3 X-29.895 Y9.576 I0. J-0.319
N3667 G1 Y2.924
N3668 G3 X-29.576 Y2.605 I0.319 J0.
N3669 G1 X-21.15
N3670 G2 X-19.875 Y1.755 I0. J-1.381
N3671 G3 X-18.6 Y0.905 I1.275 J0.531
N3672 G1 X31.276
N3673 G3 X31.595 Y1.224 I0. J0.319
N3674 G1 Y11.276
N3675 G3 X31.276 Y11.595 I-0.319 J0.
N3676 G1 X-31.276
N3677 G3 X-31.595 Y11.276 I0. J-0.319
N3678 G1 Y1.224
N3679 G3 X-31.276 Y0.905 I0.319 J0.
N3680 G1 X-18.6
N3681 G2 X-17.325 Y0.055 I0. J-1.381
N3682 G3 X-16.05 Y-0.795 I1.275 J0.531
N3683 G1 X32.976
N3684 G3 X33.295 Y-0.476 I0. J0.319
N3685 G1 Y12.976
N3686 G3 X32.976 Y13.295 I-0.319 J0.
N3687 G1 X-32.976
N3688 G3 X-33.295 Y12.976 I0. J-0.319
N3689 G1 Y-0.476
N3690 G3 X-32.976 Y-0.795 I0.319 J0.
N3691 G1 X-16.05
N3692 G2 X-14.775 Y-1.645 I0. J-1.381
N3693 G3 X-13.5 Y-2.495 I1.275 J0.531
N3694 G1 X34.676
N3695 G3 X34.995 Y-2.176 I0. J0.319
N3696 G1 Y14.676
N3697 G3 X34.676 Y14.995 I-0.319 J0.
N3698 G1 X-27.5 Y14.95
N3699 G2 X-31.088 Y14.972 I0. J286.067
N3700 G3 X-34.676 Y14.995 I-3.588 J-286.044
N3701 X-34.995 Y14.676 I0. J-0.319
N3702 G1 Y-2.176
N3703 G3 X-34.676 Y-2.495 I0.319 J0.
N3704 G1 X-13.5
N3705 G2 X-12.225 Y-3.345 I0. J-1.381
N3706 G3 X-10.95 Y-4.195 I1.275 J0.531
N3707 G1 X36.376
N3708 G3 X36.695 Y-3.876 I0. J0.319
N3709 G1 Y16.376
N3710 G3 X36.376 Y16.695 I-0.319 J0.
N3711 G1 X-27.5 Y16.65
N3712 X-36.376 Y16.695
N3713 G3 X-36.695 Y16.376 I0. J-0.319
N3714 G1 Y-3.876
N3715 G3 X-36.376 Y-4.195 I0.319 J0.
N3716 G1 X-10.95
N3717 G2 X-9.675 Y-5.045 I0. J-1.381
N3718 G3 X-8.4 Y-5.895 I1.275 J0.531
N3719 G1 X38.076
N3720 G3 X38.395 Y-5.576 I0. J0.319
N3721 G1 Y18.076
N3722 G3 X38.076 Y18.395 I-0.319 J0.
N3723 G1 X-27.5 Y18.35
N3724 X-38.076 Y18.395
N3725 G3 X-38.395 Y18.076 I0. J-0.319
N3726 G1 Y-5.576
N3727 G3 X-38.076 Y-5.895 I0.319 J0.
N3728 G1 X-8.4
N3729 G2 X-7.125 Y-6.745 I0. J-1.381
N3730 G3 X-5.85 Y-7.595 I1.275 J0.531
N3731 G1 X39.776
N3732 G3 X40.095 Y-7.276 I0. J0.319
N3733 G1 Y19.776
N3734 G3 X39.776 Y20.095 I-0.319 J0.
N3735 G1 X-39.776
N3736 G3 X-40.095 Y19.776 I0. J-0.319
N3737 G1 Y-7.276
N3738 G3 X-39.776 Y-7.595 I0.319 J0.
N3739 G1 X-5.85
N3740 G2 X-4.575 Y-8.445 I0. J-1.381
N3741 G3 X-3.3 Y-9.295 I1.275 J0.531
N3742 G1 X41.476
N3743 G3 X41.795 Y-8.976 I0. J0.319
N3744 G1 Y21.476
N3745 G3 X41.476 Y21.795 I-0.319 J0.
N3746 G1 X-41.476
N3747 G3 X-41.795 Y21.476 I0. J-0.319
N3748 G1 Y-8.976
N3749 G3 X-41.476 Y-9.295 I0.319 J0.
N3750 G1 X-3.3
N3751 G2 X-2.021 Y-10.148 I0. J-1.385
N3752 G3 X-0.743 Y-11. I1.279 J0.533
N3753 G1 X43.5
N3754 Y23.5
N3755 X27.5
N3756 X-43.5
N3757 Y-11.
N3758 X-0.743
N3759 G3 X-0.649 Y-10.623 I0. J0.2
N3760 G1 X-32.648 Y6.227
N3761 X-32.693 Y6.244
N3762 X-32.741 Y6.25
N3763 X-33.6 Z-9.63 F333.33
N3764 X-18.9 Z-10.143
N3765 X-26.25 Z-10.4
N3766 X-26.292 Y6.243
N3767 X-26.329 Y6.221
N3768 X-26.356 Y6.189
N3769 X-26.371 Y6.149
N3770 Y6.106
N3771 X-26.356 Y6.066
N3772 X-26.329 Y6.034
N3773 X-26.292 Y6.012
N3774 X-26.25 Y6.005
N3775 X26.26 F1000.
N3776 G3 X26.495 Y6.24 I0. J0.235
N3777 G1 Y6.26
N3778 G3 X26.26 Y6.495 I-0.235 J0.
N3779 G1 X-22.5 Y6.45
N3780 G2 X-24.38 Y6.472 I0. J78.542
N3781 G3 X-26.26 Y6.495 I-1.88 J-78.52
N3782 X-26.495 Y6.26 I0. J-0.235
N3783 G1 Y6.24
N3784 G3 X-26.26 Y6.005 I0.235 J0.
N3785 G1 X-26.25
N3786 G2 X-24.975 Y5.155 I0. J-1.381
N3787 G3 X-23.7 Y4.305 I1.275 J0.531
N3788 G1 X27.876
N3789 G3 X28.195 Y4.624 I0. J0.319
N3790 G1 Y7.876
N3791 G3 X27.876 Y8.195 I-0.319 J0.
N3792 G1 X-27.876
N3793 G3 X-28.195 Y7.876 I0. J-0.319
N3794 G1 Y4.624
N3795 G3 X-27.876 Y4.305 I0.319 J0.
N3796 G1 X-23.7
N3797 G2 X-22.425 Y3.455 I0. J-1.381
N3798 G3 X-21.15 Y2.605 I1.275 J0.531
N3799 G1 X29.576
N3800 G3 X29.895 Y2.924 I0. J0.319
N3801 G1 Y9.576
N3802 G3 X29.576 Y9.895 I-0.319 J0.
N3803 G1 X-29.576
N3804 G3 X-29.895 Y9.576 I0. J-0.319
N3805 G1 Y2.924
N3806 G3 X-29.576 Y2.605 I0.319 J0.
N3807 G1 X-21.15
N3808 G2 X-19.875 Y1.755 I0. J-1.381
N3809 G3 X-18.6 Y0.905 I1.275 J0.531
N3810 G1 X31.276
N3811 G3 X31.595 Y1.224 I0. J0.319
N3812 G1 Y11.276
N3813 G3 X31.276 Y11.595 I-0.319 J0.
N3814 G1 X-31.276
N3815 G3 X-31.595 Y11.276 I0. J-0.319
N3816 G1 Y1.224
N3817 G3 X-31.276 Y0.905 I0.319 J0.
N3818 G1 X-18.6
N3819 G2 X-17.325 Y0.055 I0. J-1.381
N3820 G3 X-16.05 Y-0.795 I1.275 J0.531
N3821 G1 X32.976
N3822 G3 X33.295 Y-0.476 I0. J0.319
N3823 G1 Y12.976
N3824 G3 X32.976 Y13.295 I-0.319 J0.
N3825 G1 X-32.976
N3826 G3 X-33.295 Y12.976 I0. J-0.319
N3827 G1 Y-0.476
N3828 G3 X-32.976 Y-0.795 I0.319 J0.
N3829 G1 X-16.05
N3830 G2 X-14.775 Y-1.645 I0. J-1.381
N3831 G3 X-13.5 Y-2.495 I1.275 J0.531
N3832 G1 X34.676
N3833 G3 X34.995 Y-2.176 I0. J0.319
N3834 G1 Y14.676
N3835 G3 X34.676 Y14.995 I-0.319 J0.
N3836 G1 X-27.5 Y14.95
N3837 G2 X-31.088 Y14.972 I0. J286.067
N3838 G3 X-34.676 Y14.995 I-3.588 J-286.044
N3839 X-34.995 Y14.676 I0. J-0.319
N3840 G1 Y-2.176
N3841 G3 X-34.676 Y-2.495 I0.319 J0.
N3842 G1 X-13.5
N3843 G2 X-12.225 Y-3.345 I0. J-1.381
N3844 G3 X-10.95 Y-4.195 I1.275 J0.531
N3845 G1 X36.376
N3846 G3 X36.695 Y-3.876 I0. J0.319
N3847 G1 Y16.376
N3848 G3 X36.376 Y16.695 I-0.319 J0.
N3849 G1 X-27.5 Y16.65
N3850 X-36.376 Y16.695
N3851 G3 X-36.695 Y16.376 I0. J-0.319
N3852 G1 Y-3.876
N3853 G3 X-36.376 Y-4.195 I0.319 J0.
N3854 G1 X-10.95
N3855 G2 X-9.675 Y-5.045 I0. J-1.381
N3856 G3 X-8.4 Y-5.895 I1.275 J0.531
N3857 G1 X38.076
N3858 G3 X38.395 Y-5.576 I0. J0.319
N3859 G1 Y18.076
N3860 G3 X38.076 Y18.395 I-0.319 J0.
N3861 G1 X-27.5 Y18.35
N3862 X-38.076 Y18.395
N3863 G3 X-38.395 Y18.076 I0. J-0.319
N3864 G1 Y-5.576
N3865 G3 X-38.076 Y-5.895 I0.319 J0.
N3866 G1 X-8.4
N3867 G2 X-7.125 Y-6.745 I0. J-1.381
N3868 G3 X-5.85 Y-7.595 I1.275 J0.531
N3869 G1 X39.776
N3870 G3 X40.095 Y-7.276 I0. J0.319
N3871 G1 Y19.776
N3872 G3 X39.776 Y20.095 I-0.319 J0.
N3873 G1 X-39.776
N3874 G3 X-40.095 Y19.776 I0. J-0.319
N3875 G1 Y-7.276
N3876 G3 X-39.776 Y-7.595 I0.319 J0.
N3877 G1 X-5.85
N3878 G2 X-4.575 Y-8.445 I0. J-1.381
N3879 G3 X-3.3 Y-9.295 I1.275 J0.531
N3880 G1 X41.476
N3881 G3 X41.795 Y-8.976 I0. J0.319
N3882 G1 Y21.476
N3883 G3 X41.476 Y21.795 I-0.319 J0.
N3884 G1 X-41.476
N3885 G3 X-41.795 Y21.476 I0. J-0.319
N3886 G1 Y-8.976
N3887 G3 X-41.476 Y-9.295 I0.319 J0.
N3888 G1 X-3.3
N3889 G2 X-2.021 Y-10.148 I0. J-1.385
N3890 G3 X-0.743 Y-11. I1.279 J0.533
N3891 G1 X43.5
N3892 Y23.5
N3893 X27.5
N3894 X-43.5
N3895 Y-11.
N3896 X-0.743
N3897 G3 X-0.649 Y-10.623 I0. J0.2
N3898 G1 X-32.648 Y6.227
N3899 X-32.693 Y6.244
N3900 X-32.741 Y6.25
N3901 X-33.6 Z-10.43 F333.33
N3902 X-18.9 Z-10.943
N3903 X-26.25 Z-11.2
N3904 X-26.292 Y6.243
N3905 X-26.329 Y6.221
N3906 X-26.356 Y6.189
N3907 X-26.371 Y6.149
N3908 Y6.106
N3909 X-26.356 Y6.066
N3910 X-26.329 Y6.034
N3911 X-26.292 Y6.012
N3912 X-26.25 Y6.005
N3913 X26.26 F1000.
N3914 G3 X26.495 Y6.24 I0. J0.235
N3915 G1 Y6.26
N3916 G3 X26.26 Y6.495 I-0.235 J0.
N3917 G1 X-22.5 Y6.45
N3918 G2 X-24.38 Y6.472 I0. J78.542
N3919 G3 X-26.26 Y6.495 I-1.88 J-78.52
N3920 X-26.495 Y6.26 I0. J-0.235
N3921 G1 Y6.24
N3922 G3 X-26.26 Y6.005 I0.235 J0.
N3923 G1 X-26.25
N3924 G2 X-24.975 Y5.155 I0. J-1.381
N3925 G3 X-23.7 Y4.305 I1.275 J0.531
N3926 G1 X27.876
N3927 G3 X28.195 Y4.624 I0. J0.319
N3928 G1 Y7.876
N3929 G3 X27.876 Y8.195 I-0.319 J0.
N3930 G1 X-27.876
N3931 G3 X-28.195 Y7.876 I0. J-0.319
N3932 G1 Y4.624
N3933 G3 X-27.876 Y4.305 I0.319 J0.
N3934 G1 X-23.7
N3935 G2 X-22.425 Y3.455 I0. J-1.381
N3936 G3 X-21.15 Y2.605 I1.275 J0.531
N3937 G1 X29.576
N3938 G3 X29.895 Y2.924 I0. J0.319
N3939 G1 Y9.576
N3940 G3 X29.576 Y9.895 I-0.319 J0.
N3941 G1 X-29.576
N3942 G3 X-29.895 Y9.576 I0. J-0.319
N3943 G1 Y2.924
N3944 G3 X-29.576 Y2.605 I0.319 J0.
N3945 G1 X-21.15
N3946 G2 X-19.875 Y1.755 I0. J-1.381
N3947 G3 X-18.6 Y0.905 I1.275 J0.531
N3948 G1 X31.276
N3949 G3 X31.595 Y1.224 I0. J0.319
N3950 G1 Y11.276
N3951 G3 X31.276 Y11.595 I-0.319 J0.
N3952 G1 X-31.276
N3953 G3 X-31.595 Y11.276 I0. J-0.319
N3954 G1 Y1.224
N3955 G3 X-31.276 Y0.905 I0.319 J0.
N3956 G1 X-18.6
N3957 G2 X-17.325 Y0.055 I0. J-1.381
N3958 G3 X-16.05 Y-0.795 I1.275 J0.531
N3959 G1 X32.976
N3960 G3 X33.295 Y-0.476 I0. J0.319
N3961 G1 Y12.976
N3962 G3 X32.976 Y13.295 I-0.319 J0.
N3963 G1 X-32.976
N3964 G3 X-33.295 Y12.976 I0. J-0.319
N3965 G1 Y-0.476
N3966 G3 X-32.976 Y-0.795 I0.319 J0.
N3967 G1 X-16.05
N3968 G2 X-14.775 Y-1.645 I0. J-1.381
N3969 G3 X-13.5 Y-2.495 I1.275 J0.531
N3970 G1 X34.676
N3971 G3 X34.995 Y-2.176 I0. J0.319
N3972 G1 Y14.676
N3973 G3 X34.676 Y14.995 I-0.319 J0.
N3974 G1 X-27.5 Y14.95
N3975 G2 X-31.088 Y14.972 I0. J286.067
N3976 G3 X-34.676 Y14.995 I-3.588 J-286.044
N3977 X-34.995 Y14.676 I0. J-0.319
N3978 G1 Y-2.176
N3979 G3 X-34.676 Y-2.495 I0.319 J0.
N3980 G1 X-13.5
N3981 G2 X-12.225 Y-3.345 I0. J-1.381
N3982 G3 X-10.95 Y-4.195 I1.275 J0.531
N3983 G1 X36.376
N3984 G3 X36.695 Y-3.876 I0. J0.319
N3985 G1 Y16.376
N3986 G3 X36.376 Y16.695 I-0.319 J0.
N3987 G1 X-27.5 Y16.65
N3988 X-36.376 Y16.695
N3989 G3 X-36.695 Y16.376 I0. J-0.319
N3990 G1 Y-3.876
N3991 G3 X-36.376 Y-4.195 I0.319 J0.
N3992 G1 X-10.95
N3993 G2 X-9.675 Y-5.045 I0. J-1.381
N3994 G3 X-8.4 Y-5.895 I1.275 J0.531
N3995 G1 X38.076
N3996 G3 X38.395 Y-5.576 I0. J0.319
N3997 G1 Y18.076
N3998 G3 X38.076 Y18.395 I-0.319 J0.
N3999 G1 X-27.5 Y18.35
N4000 X-38.076 Y18.395
N4001 G3 X-38.395 Y18.076 I0. J-0.319
N4002 G1 Y-5.576
N4003 G3 X-38.076 Y-5.895 I0.319 J0.
N4004 G1 X-8.4
N4005 G2 X-7.125 Y-6.745 I0. J-1.381
N4006 G3 X-5.85 Y-7.595 I1.275 J0.531
N4007 G1 X39.776
N4008 G3 X40.095 Y-7.276 I0. J0.319
N4009 G1 Y19.776
N4010 G3 X39.776 Y20.095 I-0.319 J0.
N4011 G1 X-39.776
N4012 G3 X-40.095 Y19.776 I0. J-0.319
N4013 G1 Y-7.276
N4014 G3 X-39.776 Y-7.595 I0.319 J0.
N4015 G1 X-5.85
N4016 G2 X-4.575 Y-8.445 I0. J-1.381
N4017 G3 X-3.3 Y-9.295 I1.275 J0.531
N4018 G1 X41.476
N4019 G3 X41.795 Y-8.976 I0. J0.319
N4020 G1 Y21.476
N4021 G3 X41.476 Y21.795 I-0.319 J0.
N4022 G1 X-41.476
N4023 G3 X-41.795 Y21.476 I0. J-0.319
N4024 G1 Y-8.976
N4025 G3 X-41.476 Y-9.295 I0.319 J0.
N4026 G1 X-3.3
