%
(1001)
(T1  D=3. CR=0. - ZMIN=-4. - FLAT END MILL)
N1 G90 G94 G17 G91.1
N2 G21
(WHEN USING FUSION 360 FOR PERSONAL USE, THE FEEDRATE OF)
(RAPID MOVES IS REDUCED TO MATCH THE FEEDRATE OF CUTTING)
(MOVES, WHICH CAN INCREASE MACHINING TIME. UNRESTRICTED RAPID)
(MOVES ARE AVAILABLE WITH A FUSION 360 SUBSCRIPTION.)
(2D POCKET3)
N3 T1
N4 S5000 M3
N5 G54
N6 G64 P0.1
N7 M8
N8 G0 X0.35 Y0.
N9 G43 Z15. H1
N10 G1 Z5. F500.
N11 Z2.5 F166.67
N12 X-7. Z2.375
N13 X7.7 Z2.125
N14 X-7. Z1.875
N15 X7.7 Z1.625
N16 X-7. Z1.375
N17 X7.7 Z1.125
N18 X-7. Z0.875
N19 X7.7 Z0.625
N20 X-7. Z0.375
N21 X7.7 Z0.125
N22 X-7. Z-0.125
N23 X7.7 Z-0.375
N24 X0.35 Z-0.5
N25 G3 X1.45 I0.55 J0. F500.
N26 X-1.45 I-1.45 J0.
N27 X3.25 I2.35 J0.
N28 X-3.25 I-3.25 J0.
N29 X5.05 I4.15 J0.
N30 X-5.05 I-5.05 J0.
N31 X6.85 I5.95 J0.
N32 X-6.85 I-6.85 J0.
N33 X8.65 I7.75 J0.
N34 X-8.65 I-8.65 J0.
N35 X10.45 I9.55 J0.
N36 X-10.45 I-10.45 J0.
N37 X12.25 I11.35 J0.
N38 X-12.25 I-12.25 J0.
N39 X14.05 I13.15 J0.
N40 X-14.05 I-14.05 J0.
N41 X15.85 I14.95 J0.
N42 X-15.85 I-15.85 J0.
N43 X17.65 I16.75 J0.
N44 X-17.65 I-17.65 J0.
N45 X17.65 I17.65 J0.
N46 G1 Z2.
N47 X0.35
N48 X-7. Z1.875 F166.67
N49 X7.7 Z1.625
N50 X-7. Z1.375
N51 X7.7 Z1.125
N52 X-7. Z0.875
N53 X7.7 Z0.625
N54 X-7. Z0.375
N55 X7.7 Z0.125
N56 X-7. Z-0.125
N57 X7.7 Z-0.375
N58 X-7. Z-0.625
N59 X7.7 Z-0.875
N60 X0.35 Z-1.
N61 G3 X1.45 I0.55 J0. F500.
N62 X-1.45 I-1.45 J0.
N63 X3.25 I2.35 J0.
N64 X-3.25 I-3.25 J0.
N65 X5.05 I4.15 J0.
N66 X-5.05 I-5.05 J0.
N67 X6.85 I5.95 J0.
N68 X-6.85 I-6.85 J0.
N69 X8.65 I7.75 J0.
N70 X-8.65 I-8.65 J0.
N71 X10.45 I9.55 J0.
N72 X-10.45 I-10.45 J0.
N73 X12.25 I11.35 J0.
N74 X-12.25 I-12.25 J0.
N75 X14.05 I13.15 J0.
N76 X-14.05 I-14.05 J0.
N77 X15.85 I14.95 J0.
N78 X-15.85 I-15.85 J0.
N79 X17.65 I16.75 J0.
N80 X-17.65 I-17.65 J0.
N81 X17.65 I17.65 J0.
N82 G1 Z1.5
N83 X0.35
N84 X-7. Z1.375 F166.67
N85 X7.7 Z1.125
N86 X-7. Z0.875
N87 X7.7 Z0.625
N88 X-7. Z0.375
N89 X7.7 Z0.125
N90 X-7. Z-0.125
N91 X7.7 Z-0.375
N92 X-7. Z-0.625
N93 X7.7 Z-0.875
N94 X-7. Z-1.125
N95 X7.7 Z-1.375
N96 X0.35 Z-1.5
N97 G3 X1.45 I0.55 J0. F500.
N98 X-1.45 I-1.45 J0.
N99 X3.25 I2.35 J0.
N100 X-3.25 I-3.25 J0.
N101 X5.05 I4.15 J0.
N102 X-5.05 I-5.05 J0.
N103 X6.85 I5.95 J0.
N104 X-6.85 I-6.85 J0.
N105 X8.65 I7.75 J0.
N106 X-8.65 I-8.65 J0.
N107 X10.45 I9.55 J0.
N108 X-10.45 I-10.45 J0.
N109 X12.25 I11.35 J0.
N110 X-12.25 I-12.25 J0.
N111 X14.05 I13.15 J0.
N112 X-14.05 I-14.05 J0.
N113 X15.85 I14.95 J0.
N114 X-15.85 I-15.85 J0.
N115 X17.65 I16.75 J0.
N116 X-17.65 I-17.65 J0.
N117 X17.65 I17.65 J0.
N118 G1 Z1.
N119 X0.35
N120 X-7. Z0.875 F166.67
N121 X7.7 Z0.625
N122 X-7. Z0.375
N123 X7.7 Z0.125
N124 X-7. Z-0.125
N125 X7.7 Z-0.375
N126 X-7. Z-0.625
N127 X7.7 Z-0.875
N128 X-7. Z-1.125
N129 X7.7 Z-1.375
N130 X-7. Z-1.625
N131 X7.7 Z-1.875
N132 X0.35 Z-2.
N133 G3 X1.45 I0.55 J0. F500.
N134 X-1.45 I-1.45 J0.
N135 X3.25 I2.35 J0.
N136 X-3.25 I-3.25 J0.
N137 X5.05 I4.15 J0.
N138 X-5.05 I-5.05 J0.
N139 X6.85 I5.95 J0.
N140 X-6.85 I-6.85 J0.
N141 X8.65 I7.75 J0.
N142 X-8.65 I-8.65 J0.
N143 X10.45 I9.55 J0.
N144 X-10.45 I-10.45 J0.
N145 X12.25 I11.35 J0.
N146 X-12.25 I-12.25 J0.
N147 X14.05 I13.15 J0.
N148 X-14.05 I-14.05 J0.
N149 X15.85 I14.95 J0.
N150 X-15.85 I-15.85 J0.
N151 X17.65 I16.75 J0.
N152 X-17.65 I-17.65 J0.
N153 X17.65 I17.65 J0.
N154 G1 Z0.5
N155 X0.35
N156 X-7. Z0.375 F166.67
N157 X7.7 Z0.125
N158 X-7. Z-0.125
N159 X7.7 Z-0.375
N160 X-7. Z-0.625
N161 X7.7 Z-0.875
N162 X-7. Z-1.125
N163 X7.7 Z-1.375
N164 X-7. Z-1.625
N165 X7.7 Z-1.875
N166 X-7. Z-2.125
N167 X7.7 Z-2.375
N168 X0.35 Z-2.5
N169 G3 X1.45 I0.55 J0. F500.
N170 X-1.45 I-1.45 J0.
N171 X3.25 I2.35 J0.
N172 X-3.25 I-3.25 J0.
N173 X5.05 I4.15 J0.
N174 X-5.05 I-5.05 J0.
N175 X6.85 I5.95 J0.
N176 X-6.85 I-6.85 J0.
N177 X8.65 I7.75 J0.
N178 X-8.65 I-8.65 J0.
N179 X10.45 I9.55 J0.
N180 X-10.45 I-10.45 J0.
N181 X12.25 I11.35 J0.
N182 X-12.25 I-12.25 J0.
N183 X14.05 I13.15 J0.
N184 X-14.05 I-14.05 J0.
N185 X15.85 I14.95 J0.
N186 X-15.85 I-15.85 J0.
N187 X17.65 I16.75 J0.
N188 X-17.65 I-17.65 J0.
N189 X17.65 I17.65 J0.
N190 G1 Z0.
N191 X0.35
N192 X-7. Z-0.125 F166.67
N193 X7.7 Z-0.375
N194 X-7. Z-0.625
N195 X7.7 Z-0.875
N196 X-7. Z-1.125
N197 X7.7 Z-1.375
N198 X-7. Z-1.625
N199 X7.7 Z-1.875
N200 X-7. Z-2.125
N201 X7.7 Z-2.375
N202 X-7. Z-2.625
N203 X7.7 Z-2.875
N204 X0.35 Z-3.
N205 G3 X1.45 I0.55 J0. F500.
N206 X-1.45 I-1.45 J0.
N207 X3.25 I2.35 J0.
N208 X-3.25 I-3.25 J0.
N209 X5.05 I4.15 J0.
N210 X-5.05 I-5.05 J0.
N211 X6.85 I5.95 J0.
N212 X-6.85 I-6.85 J0.
N213 X8.65 I7.75 J0.
N214 X-8.65 I-8.65 J0.
N215 X10.45 I9.55 J0.
N216 X-10.45 I-10.45 J0.
N217 X12.25 I11.35 J0.
N218 X-12.25 I-12.25 J0.
N219 X14.05 I13.15 J0.
N220 X-14.05 I-14.05 J0.
N221 X15.85 I14.95 J0.
N222 X-15.85 I-15.85 J0.
N223 X17.65 I16.75 J0.
N224 X-17.65 I-17.65 J0.
N225 X17.65 I17.65 J0.
N226 G1 Z-0.5
N227 X0.35
N228 X-7. Z-0.625 F166.67
N229 X7.7 Z-0.875
N230 X-7. Z-1.125
N231 X7.7 Z-1.375
N232 X-7. Z-1.625
N233 X7.7 Z-1.875
N234 X-7. Z-2.125
N235 X7.7 Z-2.375
N236 X-7. Z-2.625
N237 X7.7 Z-2.875
N238 X-7. Z-3.125
N239 X7.7 Z-3.375
N240 X0.35 Z-3.5
N241 G3 X1.45 I0.55 J0. F500.
N242 X-1.45 I-1.45 J0.
N243 X3.25 I2.35 J0.
N244 X-3.25 I-3.25 J0.
N245 X5.05 I4.15 J0.
N246 X-5.05 I-5.05 J0.
N247 X6.85 I5.95 J0.
N248 X-6.85 I-6.85 J0.
N249 X8.65 I7.75 J0.
N250 X-8.65 I-8.65 J0.
N251 X10.45 I9.55 J0.
N252 X-10.45 I-10.45 J0.
N253 X12.25 I11.35 J0.
N254 X-12.25 I-12.25 J0.
N255 X14.05 I13.15 J0.
N256 X-14.05 I-14.05 J0.
N257 X15.85 I14.95 J0.
N258 X-15.85 I-15.85 J0.
N259 X17.65 I16.75 J0.
N260 X-17.65 I-17.65 J0.
N261 X17.65 I17.65 J0.
N262 G1 Z-1.
N263 X0.35
N264 X-7. Z-1.125 F166.67
N265 X7.7 Z-1.375
N266 X-7. Z-1.625
N267 X7.7 Z-1.875
N268 X-7. Z-2.125
N269 X7.7 Z-2.375
N270 X-7. Z-2.625
N271 X7.7 Z-2.875
N272 X-7. Z-3.125
N273 X7.7 Z-3.375
N274 X-7. Z-3.625
N275 X7.7 Z-3.875
N276 X0.35 Z-4.
N277 G3 X1.45 I0.55 J0. F500.
N278 X-1.45 I-1.45 J0.
N279 X3.25 I2.35 J0.
N280 X-3.25 I-3.25 J0.
N281 X5.05 I4.15 J0.
N282 X-5.05 I-5.05 J0.
N283 X6.85 I5.95 J0.
N284 X-6.85 I-6.85 J0.
N285 X8.65 I7.75 J0.
N286 X-8.65 I-8.65 J0.
N287 X10.45 I9.55 J0.
N288 X-10.45 I-10.45 J0.
N289 X12.25 I11.35 J0.
N290 X-12.25 I-12.25 J0.
N291 X14.05 I13.15 J0.
N292 X-14.05 I-14.05 J0.
N293 X15.85 I14.95 J0.
N294 X-15.85 I-15.85 J0.
N295 X17.65 I16.75 J0.
N296 X-17.65 I-17.65 J0.
N297 X17.65 I17.65 J0.
N298 G1 Z15.
N299 M9
N300 M5
N301 M30
%
