%
(2023_05_26_NC_CNC)
(T1  D=3. CR=0. - ZMIN=-18.14 - FLAT END MILL)
N1 G90 G94 G17 G91.1
N2 G21
(WHEN USING FUSION 360 FOR PERSONAL USE, THE FEEDRATE OF)
(RAPID MOVES IS REDUCED TO MATCH THE FEEDRATE OF CUTTING)
(MOVES, WHICH CAN INCREASE MACHINING TIME. UNRESTRICTED RAPID)
(MOVES ARE AVAILABLE WITH A FUSION 360 SUBSCRIPTION.)
(2D ADAPTIVE1)
N3 T1
N4 S5000 M3
N5 G54
N6 G64 P0.1
N7 M8
N8 G0 X56.982 Y43.244
N9 G43 Z15. H1
N10 G1 Z5. F500.
N11 Z-0.5
N12 Z-0.8
N13 X56.979 Y43.237 Z-0.867
N14 X56.97 Y43.217 Z-0.93
N15 X56.954 Y43.185 Z-0.987
N16 X56.934 Y43.142 Z-1.035
N17 X56.909 Y43.091 Z-1.07
N18 X56.882 Y43.034 Z-1.092
N19 X56.853 Y42.974 Z-1.1
N20 G3 X56.304 Y41.418 I6.906 J-3.311
N21 G1 X56.274 Y41.271
N22 X56.34 Y41.136
N23 X56.428 Y41.015
N24 X56.531 Y40.905
N25 X56.651 Y40.8
N26 X56.807 Y40.683
N27 X57.013 Y40.553
N28 X57.289 Y40.409
N29 X57.554 Y40.296
N30 X57.875 Y40.19
N31 X58.326 Y40.079
N32 X58.942 Y39.979
N33 X59.564 Y39.923
N34 X60.187 Y39.891
N35 X60.811 Y39.887
N36 X61.434 Y39.923
N37 X62.055 Y39.979
N38 X62.675 Y40.048
N39 X63.295 Y40.124
N40 X63.908 Y40.24
N41 X64.516 Y40.379
N42 X65.121 Y40.531
N43 X65.725 Y40.69
N44 X66.321 Y40.874
N45 X66.907 Y41.086
N46 X67.488 Y41.314
N47 X68.065 Y41.551
N48 X68.638 Y41.799
N49 X69.195 Y42.081
N50 X69.741 Y42.381
N51 X70.283 Y42.692
N52 X70.82 Y43.008
N53 X71.341 Y43.353
N54 X71.846 Y43.719
N55 X72.342 Y44.097
N56 X72.833 Y44.482
N57 X73.313 Y44.881
N58 X73.77 Y45.306
N59 X74.214 Y45.744
N60 X74.65 Y46.19
N61 X75.082 Y46.641
N62 X75.485 Y47.117
N63 X75.869 Y47.608
N64 X76.243 Y48.108
N65 X76.612 Y48.612
N66 X76.959 Y49.13
N67 X77.281 Y49.664
N68 X77.588 Y50.207
N69 X77.887 Y50.755
N70 X78.176 Y51.308
N71 X78.431 Y51.878
N72 X78.666 Y52.456
N73 X78.89 Y53.038
N74 X79.107 Y53.623
N75 X79.295 Y54.218
N76 X79.457 Y54.82
N77 X79.604 Y55.427
N78 X79.743 Y56.035
N79 X79.864 Y56.647
N80 X79.952 Y57.265
N81 X80.02 Y57.885
N82 X80.077 Y58.506
N83 X80.128 Y59.128
N84 X80.142 Y59.752
N85 X80.131 Y60.376
N86 X80.106 Y60.999
N87 X80.074 Y61.623
N88 X80.019 Y62.244
N89 X79.932 Y62.862
N90 X79.828 Y63.477
N91 X79.714 Y64.091
N92 X79.591 Y64.702
N93 X79.43 Y65.305
N94 X79.249 Y65.902
N95 X79.055 Y66.495
N96 X78.855 Y67.086
N97 X78.627 Y67.667
N98 X78.373 Y68.237
N99 X78.105 Y68.8
N100 X77.829 Y69.36
N101 X77.538 Y69.912
N102 X77.217 Y70.447
N103 X76.879 Y70.971
N104 X76.532 Y71.49
N105 X76.179 Y72.004
N106 X75.797 Y72.498
N107 X75.396 Y72.976
N108 X74.984 Y73.444
N109 X74.566 Y73.907
N110 X74.132 Y74.356
N111 X73.675 Y74.781
N112 X73.207 Y75.193
N113 X72.731 Y75.597
N114 X72.251 Y75.996
N115 X71.746 Y76.362
N116 X71.229 Y76.711
N117 X70.705 Y77.05
N118 X70.177 Y77.382
N119 X69.634 Y77.69
N120 X69.078 Y77.973
N121 X68.515 Y78.241
N122 X67.947 Y78.501
N123 X67.374 Y78.748
N124 X66.788 Y78.961
N125 X66.195 Y79.155
N126 X65.599 Y79.338
N127 X65. Y79.515
N128 X64.393 Y79.658
N129 X63.78 Y79.776
N130 X63.165 Y79.88
N131 X62.549 Y79.976
N132 X61.929 Y80.052
N133 X61.307 Y80.095
N134 X60.683 Y80.119
N135 X60.059 Y80.133
N136 X59.436 Y80.141
N137 X58.812 Y80.108
N138 X58.191 Y80.053
N139 X57.571 Y79.985
N140 X56.951 Y79.909
N141 X56.336 Y79.808
N142 X55.726 Y79.677
N143 X55.119 Y79.53
N144 X54.515 Y79.374
N145 X53.914 Y79.205
N146 X53.325 Y79.002
N147 X52.742 Y78.778
N148 X52.164 Y78.544
N149 X51.588 Y78.304
N150 X51.026 Y78.033
N151 X50.475 Y77.739
N152 X49.932 Y77.432
N153 X49.393 Y77.118
N154 X48.864 Y76.787
N155 X48.354 Y76.428
N156 X47.854 Y76.054
N157 X47.361 Y75.672
N158 X46.872 Y75.284
N159 X46.409 Y74.867
N160 X45.961 Y74.432
N161 X45.522 Y73.988
N162 X45.089 Y73.539
N163 X44.675 Y73.073
N164 X44.283 Y72.587
N165 X43.905 Y72.091
N166 X43.535 Y71.589
N167 X43.173 Y71.08
N168 X42.844 Y70.55
N169 X42.532 Y70.01
N170 X42.231 Y69.463
N171 X41.936 Y68.914
N172 X41.669 Y68.35
N173 X41.427 Y67.774
N174 X41.199 Y67.194
N175 X40.979 Y66.61
N176 X40.775 Y66.02
N177 X40.605 Y65.42
N178 X40.453 Y64.815
N179 X40.312 Y64.207
N180 X40.176 Y63.598
N181 X40.079 Y62.981
N182 X40.005 Y62.362
N183 X39.944 Y61.741
N184 X39.891 Y61.119
N185 X39.862 Y60.496
N186 X39.864 Y59.872
N187 X39.883 Y59.248
N188 X39.913 Y58.625
N189 X39.952 Y58.002
N190 X40.029 Y57.383
N191 X40.128 Y56.767
N192 X40.239 Y56.153
N193 X40.357 Y55.54
N194 X40.504 Y54.934
N195 X40.678 Y54.335
N196 X40.867 Y53.74
N197 X41.065 Y53.149
N198 X41.278 Y52.562
N199 X41.523 Y51.988
N200 X41.787 Y51.423
N201 X42.061 Y50.862
N202 X42.34 Y50.304
N203 X42.652 Y49.764
N204 X42.984 Y49.236
N205 X43.329 Y48.716
N206 X43.68 Y48.2
N207 X44.049 Y47.697
N208 X44.444 Y47.214
N209 X44.852 Y46.742
N210 X45.268 Y46.277
N211 X45.69 Y45.817
N212 X46.14 Y45.385
N213 X46.605 Y44.969
N214 X47.078 Y44.562
N215 X47.556 Y44.161
N216 X48.052 Y43.783
N217 X48.565 Y43.427
N218 X49.087 Y43.085
N219 X49.613 Y42.75
N220 X50.147 Y42.428
N221 X50.699 Y42.137
N222 X51.261 Y41.864
N223 X51.827 Y41.602
N224 X52.395 Y41.345
N225 X52.978 Y41.121
N226 X53.569 Y40.92
N227 X54.164 Y40.734
N228 X54.742 Y40.5
N229 X55.284 Y40.19
N230 X55.821 Y39.872
N231 X56.17 Y39.685
N232 X56.232 Y39.655
N233 X56.297 Y39.632
N234 X56.364 Y39.615
N235 X57.023 Y39.484
N236 X57.165 Y39.459
N237 X57.59 Y39.413
N238 X57.732 Y39.402
N239 X59.858 Y39.263
N240 X60. Y39.254
N241 X60.567 Y39.29
N242 X62.268 Y39.402
N243 X62.41 Y39.413
N244 X62.835 Y39.459
N245 X62.977 Y39.484
N246 X65.245 Y39.935
N247 X65.386 Y39.975
N248 X65.67 Y40.064
N249 X65.812 Y40.11
N250 X67.615 Y40.722
N251 X67.654 Y40.737
N252 X68.08 Y40.902
N253 X70.015 Y41.856
N254 X70.489 Y42.113
N255 X70.533 Y42.14
N256 X72.332 Y43.342
N257 X72.438 Y43.415
N258 X72.801 Y43.699
N259 X72.899 Y43.777
N260 X74.458 Y45.144
N261 X74.579 Y45.258
N262 X74.742 Y45.421
N263 X74.856 Y45.542
N264 X76.223 Y47.101
N265 X76.446 Y47.384
N266 X76.585 Y47.562
N267 X76.658 Y47.668
N268 X77.86 Y49.467
N269 X77.887 Y49.511
N270 X78.144 Y49.985
N271 X79.098 Y51.92
N272 X79.263 Y52.346
N273 X79.278 Y52.385
N274 X79.89 Y54.188
N275 X79.936 Y54.33
N276 X80.025 Y54.614
N277 X80.065 Y54.755
N278 X80.516 Y57.023
N279 X80.541 Y57.165
N280 X80.587 Y57.59
N281 X80.598 Y57.732
N282 X80.737 Y59.858
N283 X80.746 Y60.
N284 X80.71 Y60.567
N285 X80.598 Y62.268
N286 X80.587 Y62.41
N287 X80.541 Y62.835
N288 X80.516 Y62.977
N289 X80.065 Y65.245
N290 X80.025 Y65.386
N291 X79.936 Y65.67
N292 X79.89 Y65.812
N293 X79.278 Y67.615
N294 X79.263 Y67.654
N295 X79.098 Y68.08
N296 X78.144 Y70.015
N297 X77.887 Y70.489
N298 X77.86 Y70.533
N299 X76.658 Y72.332
N300 X76.585 Y72.438
N301 X76.301 Y72.801
N302 X76.223 Y72.899
N303 X74.856 Y74.458
N304 X74.742 Y74.579
N305 X74.579 Y74.742
N306 X74.458 Y74.856
N307 X72.899 Y76.223
N308 X72.616 Y76.446
N309 X72.438 Y76.585
N310 X72.332 Y76.658
N311 X70.533 Y77.86
N312 X70.489 Y77.887
N313 X70.015 Y78.144
N314 X68.08 Y79.098
N315 X67.654 Y79.263
N316 X67.615 Y79.278
N317 X65.812 Y79.89
N318 X65.67 Y79.936
N319 X65.386 Y80.025
N320 X65.245 Y80.065
N321 X62.977 Y80.516
N322 X62.835 Y80.541
N323 X62.41 Y80.587
N324 X62.268 Y80.598
N325 X60.142 Y80.737
N326 X60. Y80.746
N327 X59.433 Y80.71
N328 X57.732 Y80.598
N329 X57.59 Y80.587
N330 X57.165 Y80.541
N331 X57.023 Y80.516
N332 X54.755 Y80.065
N333 X54.614 Y80.025
N334 X54.33 Y79.936
N335 X54.188 Y79.89
N336 X52.385 Y79.278
N337 X52.346 Y79.263
N338 X51.92 Y79.098
N339 X49.985 Y78.144
N340 X49.511 Y77.887
N341 X49.467 Y77.86
N342 X47.668 Y76.658
N343 X47.562 Y76.585
N344 X47.199 Y76.301
N345 X47.101 Y76.223
N346 X45.542 Y74.856
N347 X45.421 Y74.742
N348 X45.258 Y74.579
N349 X45.144 Y74.458
N350 X43.777 Y72.899
N351 X43.554 Y72.616
N352 X43.415 Y72.438
N353 X43.342 Y72.332
N354 X42.14 Y70.533
N355 X42.113 Y70.489
N356 X41.856 Y70.015
N357 X40.902 Y68.08
N358 X40.737 Y67.654
N359 X40.722 Y67.615
N360 X40.11 Y65.812
N361 X40.064 Y65.67
N362 X39.975 Y65.386
N363 X39.935 Y65.245
N364 X39.484 Y62.977
N365 X39.459 Y62.835
N366 X39.413 Y62.41
N367 X39.402 Y62.268
N368 X39.263 Y60.142
N369 X39.254 Y60.
N370 X39.29 Y59.433
N371 X39.402 Y57.732
N372 X39.413 Y57.59
N373 X39.459 Y57.165
N374 X39.484 Y57.023
N375 X39.935 Y54.755
N376 X39.975 Y54.614
N377 X40.064 Y54.33
N378 X40.11 Y54.188
N379 X40.722 Y52.385
N380 X40.737 Y52.346
N381 X40.902 Y51.92
N382 X41.856 Y49.985
N383 X42.113 Y49.511
N384 X42.14 Y49.467
N385 X43.342 Y47.668
N386 X43.415 Y47.562
N387 X43.699 Y47.199
N388 X43.777 Y47.101
N389 X45.144 Y45.542
N390 X45.258 Y45.421
N391 X45.421 Y45.258
N392 X45.542 Y45.144
N393 X47.101 Y43.777
N394 X47.384 Y43.554
N395 X47.562 Y43.415
N396 X47.668 Y43.342
N397 X49.467 Y42.14
N398 X49.511 Y42.113
N399 X49.985 Y41.856
N400 X51.92 Y40.902
N401 X52.346 Y40.737
N402 X52.385 Y40.722
N403 X54.188 Y40.11
N404 X54.33 Y40.064
N405 X54.614 Y39.975
N406 X54.755 Y39.935
N407 X56.364 Y39.615
N408 G3 X56.602 Y40.144 I0.048 J0.296
N409 G1 X56.55 Y40.186 Z-1.092
N410 X56.501 Y40.226 Z-1.07
N411 X56.457 Y40.262 Z-1.035
N412 X56.42 Y40.292 Z-0.987
N413 X56.393 Y40.315 Z-0.93
N414 X56.376 Y40.329 Z-0.867
N415 X56.37 Y40.334 Z-0.8
N416 Z15.
N417 X66.744 Y61.784
N418 Z5.
N419 Z-0.9
N420 Z-1.2
N421 X66.751 Y61.783 Z-1.267
N422 X66.774 Z-1.33
N423 X66.809 Y61.781 Z-1.387
N424 X66.857 Y61.779 Z-1.435
N425 X66.914 Y61.777 Z-1.47
N426 X66.977 Y61.775 Z-1.492
N427 X67.044 Y61.773 Z-1.5
N428 G3 X68.689 Y61.89 I0.28 J7.654
N429 G1 X68.836 Y61.922
N430 X68.942 Y62.028
N431 X69.023 Y62.154
N432 X69.086 Y62.291
N433 X69.135 Y62.433
N434 X69.173 Y62.578
N435 X69.196 Y62.726
N436 X69.21 Y62.907
N437 X69.208 Y63.13
N438 X69.183 Y63.412
N439 X69.121 Y63.779
N440 X69.024 Y64.162
N441 X68.915 Y64.485
N442 X68.728 Y64.917
N443 X68.435 Y65.467
N444 X68.13 Y65.955
N445 X67.78 Y66.428
N446 X67.369 Y66.897
N447 X66.936 Y67.346
N448 X66.473 Y67.764
N449 X65.978 Y68.145
N450 X65.467 Y68.503
N451 X64.933 Y68.826
N452 X64.377 Y69.108
N453 X63.808 Y69.365
N454 X63.224 Y69.584
N455 X62.625 Y69.758
N456 X62.019 Y69.907
N457 X61.404 Y70.014
N458 X60.783 Y70.075
N459 X60.16 Y70.109
N460 X59.536 Y70.101
N461 X58.915 Y70.046
N462 X58.296 Y69.966
N463 X57.684 Y69.843
N464 X57.083 Y69.675
N465 X56.49 Y69.482
N466 X55.911 Y69.248
N467 X55.352 Y68.972
N468 X54.804 Y68.673
N469 X54.278 Y68.337
N470 X53.779 Y67.963
N471 X53.296 Y67.568
N472 X52.841 Y67.141
N473 X52.419 Y66.681
N474 X52.017 Y66.205
N475 X51.649 Y65.701
N476 X51.319 Y65.171
N477 X51.011 Y64.629
N478 X50.742 Y64.066
N479 X50.515 Y63.485
N480 X50.312 Y62.894
N481 X50.151 Y62.292
N482 X50.036 Y61.678
N483 X49.945 Y61.061
N484 X49.898 Y60.439
N485 X49.897 Y59.815
N486 X49.921 Y59.192
N487 X49.99 Y58.571
N488 X50.104 Y57.958
N489 X50.242 Y57.35
N490 X50.424 Y56.753
N491 X50.649 Y56.171
N492 X50.897 Y55.598
N493 X51.186 Y55.045
N494 X51.514 Y54.514
N495 X51.863 Y53.997
N496 X52.249 Y53.507
N497 X52.669 Y53.046
N498 X53.107 Y52.602
N499 X53.577 Y52.191
N500 X54.075 Y51.815
N501 X54.587 Y51.459
N502 X55.125 Y51.142
N503 X55.683 Y50.864
N504 X56.252 Y50.608
N505 X56.839 Y50.395
N506 X57.439 Y50.225
N507 X58.046 Y50.079
N508 X58.662 Y49.978
N509 X59.283 Y49.921
N510 X59.906 Y49.888
N511 X60.53 Y49.903
N512 X61.151 Y49.961
N513 X61.769 Y50.044
N514 X62.38 Y50.173
N515 X62.98 Y50.345
N516 X63.572 Y50.54
N517 X64.149 Y50.779
N518 X64.707 Y51.058
N519 X65.253 Y51.359
N520 X65.775 Y51.7
N521 X66.272 Y52.078
N522 X66.754 Y52.474
N523 X67.205 Y52.906
N524 X67.624 Y53.368
N525 X68.025 Y53.846
N526 X68.388 Y54.354
N527 X68.715 Y54.885
N528 X69.021 Y55.429
N529 X69.284 Y55.994
N530 X69.507 Y56.577
N531 X69.708 Y57.168
N532 X69.863 Y57.772
N533 X69.975 Y58.386
N534 X70.064 Y59.004
N535 X70.104 Y59.626
N536 X70.102 Y60.25
N537 X70.13 Y60.874
N538 X70.222 Y61.491
N539 X70.303 Y62.109
N540 X70.329 Y62.632
N541 X70.314 Y63.136
N542 X70.26 Y63.616
N543 X70.165 Y64.109
N544 X70.026 Y64.609
N545 X69.82 Y65.169
N546 X69.559 Y65.736
N547 X69.254 Y66.28
N548 X68.907 Y66.799
N549 X68.527 Y67.293
N550 X68.117 Y67.764
N551 X67.898 Y67.986
N552 X67.785 Y68.093
N553 X67.329 Y68.519
N554 X66.848 Y68.918
N555 X66.346 Y69.287
N556 X65.821 Y69.625
N557 X65.279 Y69.933
N558 X64.72 Y70.212
N559 X64.147 Y70.459
N560 X63.561 Y70.672
N561 X62.964 Y70.855
N562 X62.359 Y71.005
N563 X61.745 Y71.117
N564 X61.126 Y71.197
N565 X60.504 Y71.242
N566 X59.88 Y71.251
N567 X59.257 Y71.226
N568 X58.635 Y71.169
N569 X58.018 Y71.076
N570 X57.408 Y70.948
N571 X56.804 Y70.79
N572 X56.21 Y70.598
N573 X55.63 Y70.37
N574 X55.062 Y70.112
N575 X54.785 Y69.967
N576 X54.717 Y69.929
N577 X54.173 Y69.623
N578 X53.649 Y69.286
N579 X53.142 Y68.922
N580 X52.657 Y68.529
N581 X52.197 Y68.108
N582 X51.759 Y67.662
N583 X51.347 Y67.194
N584 X50.963 Y66.703
N585 X50.606 Y66.191
N586 X50.276 Y65.661
N587 X49.977 Y65.114
N588 X49.71 Y64.55
N589 X49.471 Y63.973
N590 X49.265 Y63.384
N591 X49.097 Y62.784
N592 X48.96 Y62.175
N593 X48.856 Y61.56
N594 X48.788 Y60.939
N595 X48.754 Y60.316
N596 X48.752 Y59.692
N597 X48.786 Y59.069
N598 X48.856 Y58.449
N599 X48.906 Y58.141
N600 X49.042 Y57.453
N601 X49.2 Y56.849
N602 X49.392 Y56.256
N603 X49.614 Y55.672
N604 X49.869 Y55.103
N605 X50.156 Y54.549
N606 X50.472 Y54.011
N607 X50.818 Y53.491
N608 X51.194 Y52.994
N609 X51.597 Y52.517
N610 X52.024 Y52.062
N611 X52.477 Y51.633
N612 X52.953 Y51.23
N613 X53.449 Y50.851
N614 X53.965 Y50.501
N615 X54.502 Y50.182
N616 X55.053 Y49.891
N617 X55.621 Y49.632
N618 X56.203 Y49.407
N619 X56.796 Y49.214
N620 X57.399 Y49.052
N621 X58.01 Y48.926
N622 X58.318 Y48.88
N623 X58.473 Y48.86
N624 X59.093 Y48.786
N625 X59.716 Y48.751
N626 X60.34 Y48.754
N627 X60.962 Y48.789
N628 X61.582 Y48.859
N629 X62.197 Y48.965
N630 X62.805 Y49.105
N631 X63.406 Y49.275
N632 X63.995 Y49.48
N633 X64.572 Y49.719
N634 X65.136 Y49.985
N635 X65.683 Y50.285
N636 X66.211 Y50.617
N637 X66.722 Y50.975
N638 X67.212 Y51.362
N639 X67.679 Y51.776
N640 X68.122 Y52.215
N641 X68.543 Y52.676
N642 X68.936 Y53.16
N643 X69.3 Y53.666
N644 X69.64 Y54.19
N645 X69.947 Y54.733
N646 X70.084 Y55.013
N647 X70.375 Y55.652
N648 X70.603 Y56.233
N649 X70.796 Y56.826
N650 X70.955 Y57.43
N651 X71.083 Y58.04
N652 X71.175 Y58.657
N653 X71.23 Y59.279
N654 X71.27 Y59.902
N655 X71.332 Y60.522
N656 X71.402 Y61.142
N657 X71.456 Y61.764
N658 X71.479 Y62.388
N659 X71.463 Y63.011
N660 X71.399 Y63.632
N661 X71.288 Y64.246
N662 X71.13 Y64.85
N663 X70.926 Y65.439
N664 X70.68 Y66.013
N665 X70.394 Y66.567
N666 X70.071 Y67.101
N667 X69.716 Y67.614
N668 X69.332 Y68.106
N669 X69.176 Y68.28
N670 X69.1 Y68.416
N671 X69.056 Y68.566
N672 X69.037 Y68.877
N673 X69.141 Y69.493
N674 X69.309 Y70.077
N675 X69.357 Y70.316
N676 X69.39 Y70.592
N677 X69.396 Y70.742
N678 X69.387 Y70.892
N679 X69.361 Y71.073
N680 X69.328 Y71.22
N681 X69.279 Y71.362
N682 X69.214 Y71.497
N683 X69.137 Y71.625
N684 X69.046 Y71.744
N685 X68.937 Y71.848
N686 X68.818 Y71.938
N687 X68.687 Y72.012
N688 X68.545 Y72.062
N689 X68.399 Y72.095
N690 X68.249 Y72.099
N691 X68.1 Y72.08
N692 X67.955 Y72.041
N693 X67.823 Y71.971
N694 X67.701 Y71.883
N695 X67.598 Y71.766
N696 X67.351 Y71.576
N697 X66.771 Y71.346
N698 X66.147 Y71.326
N699 X65.53 Y71.417
N700 X64.923 Y71.561
N701 X63.718 Y71.886
N702 X63.113 Y72.036
N703 X62.502 Y72.164
N704 X61.886 Y72.267
N705 X61.267 Y72.342
N706 X60.645 Y72.389
N707 X60.021 Y72.404
N708 X59.397 Y72.388
N709 X58.775 Y72.341
N710 X58.156 Y72.263
N711 X57.542 Y72.154
N712 X56.933 Y72.015
N713 X56.333 Y71.846
N714 X55.742 Y71.647
N715 X55.161 Y71.418
N716 X54.949 Y71.32
N717 X54.796 Y71.287
N718 X54.64 Y71.289
N719 X54.337 Y71.362
N720 X53.783 Y71.649
N721 X53.274 Y71.992
N722 X53.107 Y72.086
N723 X52.891 Y72.186
N724 X52.692 Y72.259
N725 X52.548 Y72.3
N726 X52.4 Y72.325
N727 X52.22 Y72.341
N728 X52.07 Y72.342
N729 X51.921 Y72.323
N730 X51.776 Y72.287
N731 X51.634 Y72.239
N732 X51.501 Y72.17
N733 X51.378 Y72.083
N734 X51.266 Y71.983
N735 X51.173 Y71.866
N736 X51.099 Y71.735
N737 X51.039 Y71.598
N738 X51.012 Y71.45
N739 X51.005 Y71.3
N740 X51.027 Y71.152
N741 X51.075 Y71.01
N742 X51.216 Y70.732
N743 X51.276 Y70.425
N744 X51.259 Y69.802
N745 X51.059 Y69.211
N746 X50.769 Y68.658
N747 X50.439 Y68.128
N748 X50.098 Y67.606
N749 X49.761 Y67.081
N750 X49.437 Y66.548
N751 X49.132 Y66.003
N752 X48.851 Y65.446
N753 X48.594 Y64.878
N754 X48.364 Y64.298
N755 X48.164 Y63.707
N756 X47.993 Y63.107
N757 X47.851 Y62.499
N758 X47.741 Y61.885
N759 X47.663 Y61.266
N760 X47.616 Y60.644
N761 X47.6 Y60.02
N762 X47.615 Y59.396
N763 X47.638 Y59.085
N764 X47.653 Y58.93
N765 X47.671 Y58.775
N766 X47.689 Y58.62
N767 X47.673 Y58.465
N768 X47.623 Y58.317
N769 X47.46 Y58.051
N770 X46.992 Y57.638
N771 X46.739 Y57.455
N772 X46.426 Y57.198
N773 X46.309 Y57.084
N774 X46.177 Y56.934
N775 X46.044 Y56.756
N776 X45.964 Y56.629
N777 X45.9 Y56.494
N778 X45.843 Y56.34
N779 X45.803 Y56.196
N780 X45.782 Y56.047
N781 X45.779 Y55.897
N782 X45.791 Y55.748
N783 X45.825 Y55.601
N784 X45.88 Y55.462
N785 X45.949 Y55.329
N786 X46.042 Y55.211
N787 X46.152 Y55.109
N788 X46.273 Y55.02
N789 X46.411 Y54.961
N790 X46.555 Y54.921
N791 X46.705 Y54.912
N792 X46.854 Y54.928
N793 X47.164 Y54.969
N794 X47.47 Y54.909
N795 X48.047 Y54.671
N796 X48.537 Y54.285
N797 X48.967 Y53.833
N798 X49.367 Y53.354
N799 X49.758 Y52.868
N800 X50.153 Y52.385
N801 X50.562 Y51.914
N802 X50.989 Y51.459
N803 X51.435 Y51.022
N804 X51.9 Y50.606
N805 X52.383 Y50.212
N806 X52.886 Y49.842
N807 X53.406 Y49.497
N808 X53.942 Y49.178
N809 X54.493 Y48.886
N810 X55.059 Y48.623
N811 X55.638 Y48.389
N812 X56.227 Y48.185
N813 X56.827 Y48.012
N814 X57.13 Y47.94
N815 X57.283 Y47.908
N816 X57.436 Y47.878
N817 X57.578 Y47.814
N818 X57.703 Y47.721
N819 X57.905 Y47.483
N820 X58.171 Y46.918
N821 X58.347 Y46.438
N822 X58.5 Y46.107
N823 X58.573 Y45.976
N824 X58.676 Y45.823
N825 X58.817 Y45.645
N826 X58.92 Y45.536
N827 X59.035 Y45.44
N828 X59.164 Y45.353
N829 X59.294 Y45.278
N830 X59.432 Y45.22
N831 X59.577 Y45.182
N832 X59.725 Y45.157
N833 X59.875 Y45.154
N834 X60.024 Y45.174
N835 X60.169 Y45.211
N836 X60.306 Y45.273
N837 X60.431 Y45.356
N838 X60.546 Y45.452
N839 X60.635 Y45.573
N840 X60.707 Y45.704
N841 X60.751 Y45.848
N842 X60.788 Y46.158
N843 X60.921 Y46.44
N844 X61.302 Y46.934
N845 X61.812 Y47.293
N846 X62.372 Y47.57
N847 X62.95 Y47.803
N848 X63.534 Y48.024
N849 X64.115 Y48.251
N850 X64.691 Y48.491
N851 X65.258 Y48.751
N852 X65.813 Y49.035
N853 X66.355 Y49.345
N854 X66.881 Y49.68
N855 X67.391 Y50.04
N856 X67.883 Y50.424
N857 X68.354 Y50.833
N858 X68.804 Y51.265
N859 X69.232 Y51.719
N860 X69.636 Y52.194
N861 X70.017 Y52.689
N862 X70.372 Y53.202
N863 X70.701 Y53.732
N864 X70.776 Y53.869
N865 X70.879 Y53.986
N866 X71.006 Y54.077
N867 X71.293 Y54.198
N868 X71.915 Y54.252
N869 X72.419 Y54.265
N870 X72.731 Y54.298
N871 X72.926 Y54.335
N872 X73.07 Y54.374
N873 X73.236 Y54.435
N874 X73.403 Y54.512
N875 X73.534 Y54.585
N876 X73.654 Y54.675
N877 X73.767 Y54.778
N878 X73.869 Y54.888
N879 X73.953 Y55.012
N880 X74.021 Y55.146
N881 X74.076 Y55.285
N882 X74.105 Y55.432
N883 X74.112 Y55.582
N884 X74.105 Y55.732
N885 X74.064 Y55.876
N886 X74.005 Y56.014
N887 X73.921 Y56.139
N888 X73.816 Y56.246
N889 X73.7 Y56.34
N890 X73.416 Y56.47
N891 X73.187 Y56.682
N892 X72.834 Y57.196
N893 X72.649 Y57.792
N894 X72.559 Y58.41
N895 X72.524 Y59.033
N896 X72.53 Y59.656
N897 X72.562 Y60.28
N898 X72.602 Y60.902
N899 X72.635 Y61.525
N900 X72.647 Y62.149
N901 X72.63 Y62.773
N902 X72.579 Y63.395
N903 X72.492 Y64.012
N904 X72.365 Y64.624
N905 X72.2 Y65.225
N906 X71.998 Y65.815
N907 X71.758 Y66.391
N908 X71.481 Y66.951
N909 X71.172 Y67.493
N910 X70.832 Y68.016
N911 X70.657 Y68.615
N912 X70.609 Y69.237
N913 X70.603 Y69.861
N914 X70.581 Y70.363
N915 X70.536 Y70.717
N916 X70.474 Y71.017
N917 X70.396 Y71.28
N918 X70.311 Y71.502
N919 X70.214 Y71.705
N920 X70.106 Y71.89
N921 X69.987 Y72.061
N922 X69.87 Y72.204
N923 X69.741 Y72.337
N924 X69.601 Y72.46
N925 X69.469 Y72.559
N926 X69.324 Y72.65
N927 X69.185 Y72.723
N928 X69.035 Y72.787
N929 X68.882 Y72.837
N930 X68.732 Y72.874
N931 X68.584 Y72.898
N932 X68.435 Y72.909
N933 X68.285 Y72.908
N934 X68.135 Y72.895
N935 X67.52 Y72.788
N936 X66.904 Y72.693
N937 X66.28 Y72.688
N938 X65.659 Y72.751
N939 X65.044 Y72.856
N940 X64.433 Y72.981
N941 X63.822 Y73.111
N942 X63.211 Y73.234
N943 X62.596 Y73.343
N944 X61.979 Y73.433
N945 X61.359 Y73.501
N946 X60.736 Y73.544
N947 X60.113 Y73.561
N948 X59.489 Y73.55
N949 X58.866 Y73.51
N950 X58.246 Y73.442
N951 X57.629 Y73.345
N952 X57.018 Y73.221
N953 X56.413 Y73.07
N954 X55.815 Y72.89
N955 X55.192 Y72.848
N956 X54.579 Y72.964
N957 X53.979 Y73.134
N958 X53.438 Y73.28
N959 X53.071 Y73.348
N960 X52.768 Y73.379
N961 X52.487 Y73.385
N962 X52.241 Y73.371
N963 X52.021 Y73.34
N964 X51.81 Y73.293
N965 X51.608 Y73.231
N966 X51.432 Y73.161
N967 X51.269 Y73.08
N968 X51.112 Y72.986
N969 X50.966 Y72.882
N970 X50.836 Y72.771
N971 X50.725 Y72.662
N972 X50.621 Y72.54
N973 X50.527 Y72.412
N974 X50.449 Y72.283
N975 X50.381 Y72.149
N976 X50.324 Y72.01
N977 X50.279 Y71.867
N978 X50.246 Y71.72
N979 X50.162 Y71.102
N980 X50.059 Y70.487
N981 X49.869 Y69.893
N982 X49.617 Y69.322
N983 X49.328 Y68.769
N984 X49.021 Y68.226
N985 X48.71 Y67.685
N986 X48.404 Y67.141
N987 X48.111 Y66.59
N988 X47.834 Y66.031
N989 X47.577 Y65.462
N990 X47.345 Y64.883
N991 X47.137 Y64.295
N992 X46.955 Y63.698
N993 X46.801 Y63.094
N994 X46.674 Y62.483
N995 X46.575 Y61.867
N996 X46.504 Y61.247
N997 X46.461 Y60.624
N998 X46.447 Y60.001
N999 X46.304 Y59.393
N1000 X46.009 Y58.843
N1001 X45.662 Y58.325
N1002 X45.363 Y57.87
N1003 X45.18 Y57.536
N1004 X45.055 Y57.256
N1005 X44.962 Y56.997
N1006 X44.899 Y56.757
N1007 X44.857 Y56.529
N1008 X44.836 Y56.319
N1009 X44.832 Y56.116
N1010 X44.844 Y55.92
N1011 X44.87 Y55.739
N1012 X44.908 Y55.57
N1013 X44.96 Y55.401
N1014 X45.025 Y55.241
N1015 X45.099 Y55.093
N1016 X45.177 Y54.963
N1017 X45.268 Y54.836
N1018 X45.368 Y54.718
N1019 X45.474 Y54.612
N1020 X45.588 Y54.515
N1021 X45.71 Y54.427
N1022 X45.839 Y54.35
N1023 X46.4 Y54.078
N1024 X46.953 Y53.789
N1025 X47.46 Y53.424
N1026 X47.924 Y53.008
N1027 X48.36 Y52.561
N1028 X48.781 Y52.101
N1029 X49.199 Y51.638
N1030 X49.622 Y51.179
N1031 X50.055 Y50.729
N1032 X50.502 Y50.294
N1033 X50.965 Y49.876
N1034 X51.444 Y49.476
N1035 X51.94 Y49.097
N1036 X52.451 Y48.74
N1037 X52.978 Y48.405
N1038 X53.519 Y48.094
N1039 X54.073 Y47.809
N1040 X54.641 Y47.549
N1041 X55.219 Y47.316
N1042 X55.808 Y47.109
N1043 X56.334 Y46.773
N1044 X56.763 Y46.321
N1045 X57.149 Y45.83
N1046 X57.484 Y45.414
N1047 X57.753 Y45.131
N1048 X57.985 Y44.922
N1049 X58.199 Y44.759
N1050 X58.411 Y44.623
N1051 X58.612 Y44.516
N1052 X58.807 Y44.431
N1053 X59.002 Y44.364
N1054 X59.194 Y44.315
N1055 X59.374 Y44.284
N1056 X59.556 Y44.268
N1057 X59.722 Y44.267
N1058 X59.895 Y44.279
N1059 X60.066 Y44.305
N1060 X60.221 Y44.342
N1061 X60.364 Y44.388
N1062 X60.505 Y44.447
N1063 X60.641 Y44.517
N1064 X60.769 Y44.596
N1065 X60.889 Y44.685
N1066 X61.002 Y44.784
N1067 X61.434 Y45.234
N1068 X61.878 Y45.673
N1069 X62.38 Y46.043
N1070 X62.92 Y46.356
N1071 X63.479 Y46.633
N1072 X64.046 Y46.892
N1073 X64.616 Y47.146
N1074 X65.184 Y47.406
N1075 X65.745 Y47.679
N1076 X66.297 Y47.968
N1077 X66.839 Y48.278
N1078 X67.368 Y48.61
N1079 X67.881 Y48.964
N1080 X68.379 Y49.34
N1081 X68.859 Y49.738
N1082 X69.321 Y50.158
N1083 X69.763 Y50.598
N1084 X70.185 Y51.058
N1085 X70.586 Y51.536
N1086 X70.964 Y52.032
N1087 X71.438 Y52.438
N1088 X72. Y52.709
N1089 X72.586 Y52.923
N1090 X73.109 Y53.123
N1091 X73.445 Y53.282
N1092 X73.72 Y53.442
N1093 X73.942 Y53.595
N1094 X74.131 Y53.749
N1095 X74.301 Y53.912
N1096 X74.438 Y54.067
N1097 X74.56 Y54.23
N1098 X74.663 Y54.393
N1099 X74.75 Y54.559
N1100 X74.824 Y54.731
N1101 X74.876 Y54.885
N1102 X74.916 Y55.049
N1103 X74.943 Y55.212
N1104 X74.956 Y55.369
N1105 Y55.525
N1106 X74.944 Y55.674
N1107 X74.92 Y55.822
N1108 X74.885 Y55.968
N1109 X74.836 Y56.115
N1110 X74.777 Y56.253
N1111 X74.484 Y56.804
N1112 X74.205 Y57.363
N1113 X74.013 Y57.956
N1114 X73.894 Y58.569
N1115 X73.835 Y59.19
N1116 X73.816 Y59.813
N1117 X73.819 Y60.437
N1118 X73.829 Y61.061
N1119 X73.833 Y61.685
N1120 X73.82 Y62.309
N1121 X73.786 Y62.932
N1122 X73.724 Y63.553
N1123 X73.632 Y64.17
N1124 X73.507 Y64.781
N1125 X73.349 Y65.385
N1126 X73.156 Y65.978
N1127 X72.931 Y66.56
N1128 X72.673 Y67.128
N1129 X72.385 Y67.682
N1130 X72.154 Y68.261
N1131 X72.009 Y68.868
N1132 X71.914 Y69.485
N1133 X71.83 Y70.103
N1134 X71.72 Y70.714
N1135 X71.598 Y71.176
N1136 X71.464 Y71.556
N1137 X71.316 Y71.888
N1138 X71.153 Y72.186
N1139 X70.978 Y72.453
N1140 X70.796 Y72.689
N1141 X70.604 Y72.898
N1142 X70.402 Y73.086
N1143 X70.192 Y73.253
N1144 X69.974 Y73.398
N1145 X69.754 Y73.522
N1146 X69.529 Y73.624
N1147 X69.302 Y73.707
N1148 X69.071 Y73.77
N1149 X68.78 Y73.825
N1150 X68.361 Y73.871
N1151 X67.737 Y73.887
N1152 X67.113 Y73.892
N1153 X66.49 Y73.926
N1154 X65.87 Y73.994
N1155 X65.253 Y74.086
N1156 X64.638 Y74.193
N1157 X64.024 Y74.305
N1158 X63.41 Y74.413
N1159 X62.793 Y74.51
N1160 X62.175 Y74.594
N1161 X61.554 Y74.658
N1162 X60.932 Y74.702
N1163 X60.308 Y74.722
N1164 X59.684 Y74.718
N1165 X59.061 Y74.687
N1166 X58.44 Y74.631
N1167 X57.821 Y74.55
N1168 X57.206 Y74.443
N1169 X56.597 Y74.31
N1170 X55.98 Y74.219
N1171 X55.356 Y74.228
N1172 X54.736 Y74.302
N1173 X54.12 Y74.398
N1174 X53.501 Y74.477
N1175 X53.01 Y74.504
N1176 X52.583 Y74.494
N1177 X52.215 Y74.455
N1178 X51.877 Y74.392
N1179 X51.563 Y74.306
N1180 X51.275 Y74.203
N1181 X51.013 Y74.084
N1182 X50.771 Y73.949
N1183 X50.547 Y73.8
N1184 X50.341 Y73.639
N1185 X50.154 Y73.465
N1186 X49.986 Y73.283
N1187 X49.837 Y73.092
N1188 X49.707 Y72.893
N1189 X49.567 Y72.638
N1190 X49.393 Y72.251
N1191 X49.184 Y71.663
N1192 X48.988 Y71.07
N1193 X48.763 Y70.488
N1194 X48.508 Y69.919
N1195 X48.23 Y69.36
N1196 X47.939 Y68.808
N1197 X47.643 Y68.259
N1198 X47.351 Y67.708
N1199 X47.067 Y67.152
N1200 X46.797 Y66.59
N1201 X46.543 Y66.02
N1202 X46.309 Y65.441
N1203 X46.097 Y64.854
N1204 X45.909 Y64.259
N1205 X45.745 Y63.657
N1206 X45.605 Y63.049
N1207 X45.491 Y62.436
N1208 X45.402 Y61.818
N1209 X45.339 Y61.198
N1210 X45.243 Y60.581
N1211 X45.047 Y59.989
N1212 X44.788 Y59.421
N1213 X44.507 Y58.864
N1214 X44.24 Y58.3
N1215 X44.059 Y57.837
N1216 X43.936 Y57.427
N1217 X43.858 Y57.065
N1218 X43.813 Y56.723
N1219 X43.796 Y56.4
N1220 X43.805 Y56.097
N1221 X43.836 Y55.81
N1222 X43.888 Y55.539
N1223 X43.96 Y55.28
N1224 X44.05 Y55.035
N1225 X44.156 Y54.803
N1226 X44.277 Y54.587
N1227 X44.412 Y54.386
N1228 X44.56 Y54.201
N1229 X44.758 Y53.989
N1230 X45.07 Y53.705
N1231 X45.564 Y53.323
N1232 X46.066 Y52.952
N1233 X46.55 Y52.558
N1234 X47.012 Y52.139
N1235 X47.457 Y51.702
N1236 X47.891 Y51.254
N1237 X48.322 Y50.803
N1238 X48.756 Y50.354
N1239 X49.197 Y49.913
N1240 X49.649 Y49.482
N1241 X50.113 Y49.066
N1242 X50.591 Y48.665
N1243 X51.084 Y48.282
N1244 X51.592 Y47.919
N1245 X52.113 Y47.576
N1246 X52.648 Y47.255
N1247 X53.195 Y46.956
N1248 X53.755 Y46.68
N1249 X54.326 Y46.427
N1250 X54.879 Y46.139
N1251 X55.379 Y45.766
N1252 X55.838 Y45.343
N1253 X56.28 Y44.903
N1254 X56.734 Y44.475
N1255 X57.117 Y44.162
N1256 X57.47 Y43.918
N1257 X57.791 Y43.732
N1258 X58.103 Y43.583
N1259 X58.408 Y43.467
N1260 X58.699 Y43.382
N1261 X58.983 Y43.323
N1262 X59.26 Y43.288
N1263 X59.529 Y43.277
N1264 X59.79 Y43.287
N1265 X60.044 Y43.317
N1266 X60.289 Y43.366
N1267 X60.522 Y43.432
N1268 X60.745 Y43.516
N1269 X61.007 Y43.639
N1270 X61.369 Y43.845
N1271 X61.884 Y44.198
N1272 X62.39 Y44.563
N1273 X62.913 Y44.902
N1274 X63.454 Y45.214
N1275 X64.007 Y45.502
N1276 X64.567 Y45.778
N1277 X65.129 Y46.049
N1278 X65.69 Y46.322
N1279 X66.246 Y46.605
N1280 X66.795 Y46.9
N1281 X67.336 Y47.212
N1282 X67.865 Y47.542
N1283 X68.382 Y47.892
N1284 X68.884 Y48.262
N1285 X69.371 Y48.652
N1286 X69.842 Y49.062
N1287 X70.295 Y49.491
N1288 X70.731 Y49.938
N1289 X71.147 Y50.402
N1290 X71.587 Y50.845
N1291 X72.093 Y51.21
N1292 X72.636 Y51.518
N1293 X73.19 Y51.803
N1294 X73.738 Y52.102
N1295 X74.158 Y52.369
N1296 X74.501 Y52.629
N1297 X74.778 Y52.875
N1298 X75.016 Y53.125
N1299 X75.222 Y53.379
N1300 X75.395 Y53.63
N1301 X75.538 Y53.88
N1302 X75.656 Y54.13
N1303 X75.751 Y54.381
N1304 X75.823 Y54.631
N1305 X75.874 Y54.88
N1306 X75.903 Y55.127
N1307 X75.913 Y55.371
N1308 X75.903 Y55.61
N1309 X75.868 Y55.897
N1310 X75.785 Y56.304
N1311 X75.611 Y56.903
N1312 X75.424 Y57.498
N1313 X75.273 Y58.104
N1314 X75.169 Y58.719
N1315 X75.105 Y59.34
N1316 X75.072 Y59.963
N1317 X75.055 Y60.587
N1318 X75.042 Y61.21
N1319 X75.025 Y61.834
N1320 X74.995 Y62.457
N1321 X74.947 Y63.079
N1322 X74.877 Y63.699
N1323 X74.782 Y64.316
N1324 X74.659 Y64.928
N1325 X74.505 Y65.532
N1326 X74.322 Y66.129
N1327 X74.108 Y66.715
N1328 X73.866 Y67.29
N1329 X73.625 Y67.866
N1330 X73.431 Y68.459
N1331 X73.279 Y69.064
N1332 X73.151 Y69.674
N1333 X73.025 Y70.286
N1334 X72.88 Y70.892
N1335 X72.697 Y71.489
N1336 X72.507 Y71.969
N1337 X72.297 Y72.396
N1338 X72.069 Y72.778
N1339 X71.992 Y72.886
N1340 X71.968 Y72.917
N1341 X71.943 Y72.947
N1342 X71.916 Y72.976
N1343 X71.801 Y73.09
N1344 X71.675 Y73.21
N1345 X71.251 Y73.563
N1346 X71.109 Y73.67
N1347 X70.561 Y74.081
N1348 X70.216 Y74.313
N1349 X69.976 Y74.448
N1350 X69.685 Y74.582
N1351 X69.371 Y74.697
N1352 X68.947 Y74.815
N1353 X68.334 Y74.934
N1354 X67.714 Y75.007
N1355 X67.094 Y75.072
N1356 X66.474 Y75.144
N1357 X65.856 Y75.23
N1358 X65.239 Y75.326
N1359 X64.008 Y75.528
N1360 X63.392 Y75.624
N1361 X62.773 Y75.709
N1362 X62.154 Y75.781
N1363 X61.532 Y75.836
N1364 X60.909 Y75.872
N1365 X60.286 Y75.887
N1366 X59.662 Y75.88
N1367 X59.038 Y75.851
N1368 X58.417 Y75.798
N1369 X57.797 Y75.721
N1370 X57.181 Y75.622
N1371 X56.563 Y75.539
N1372 X55.94 Y75.51
N1373 X55.316 Y75.532
N1374 X54.694 Y75.579
N1375 X54.072 Y75.628
N1376 X53.449 Y75.656
N1377 X52.861 Y75.648
N1378 X52.333 Y75.598
N1379 X51.857 Y75.514
N1380 X51.612 Y75.45
N1381 X51.557 Y75.434
N1382 X51.504 Y75.413
N1383 X51.453 Y75.387
N1384 X50.731 Y74.993
N1385 X50.627 Y74.93
N1386 X50.196 Y74.647
N1387 X49.74 Y74.306
N1388 X49.467 Y74.08
N1389 X49.265 Y73.883
N1390 X49.054 Y73.641
N1391 X48.834 Y73.343
N1392 X48.578 Y72.932
N1393 X48.292 Y72.378
N1394 X48.036 Y71.809
N1395 X47.782 Y71.239
N1396 X47.518 Y70.673
N1397 X47.243 Y70.113
N1398 X46.959 Y69.558
N1399 X46.672 Y69.004
N1400 X46.386 Y68.449
N1401 X46.106 Y67.892
N1402 X45.837 Y67.329
N1403 X45.582 Y66.759
N1404 X45.343 Y66.183
N1405 X45.122 Y65.599
N1406 X44.922 Y65.008
N1407 X44.743 Y64.411
N1408 X44.586 Y63.807
N1409 X44.451 Y63.198
N1410 X44.34 Y62.584
N1411 X44.244 Y61.967
N1412 X44.123 Y61.355
N1413 X43.945 Y60.757
N1414 X43.724 Y60.174
N1415 X43.483 Y59.598
N1416 X43.247 Y59.02
N1417 X43.037 Y58.433
N1418 X42.876 Y57.863
N1419 X42.778 Y57.365
N1420 X42.726 Y56.912
N1421 X42.72 Y56.73
N1422 X42.721 Y56.672
N1423 X42.726 Y56.615
N1424 X42.736 Y56.558
N1425 X43.018 Y55.259
N1426 X43.053 Y55.118
N1427 X43.089 Y54.976
N1428 X43.194 Y54.693
N1429 X43.374 Y54.274
N1430 X43.52 Y53.999
N1431 X43.696 Y53.723
N1432 X43.947 Y53.392
N1433 X44.317 Y52.977
N1434 X44.768 Y52.546
N1435 X45.232 Y52.129
N1436 X45.693 Y51.708
N1437 X46.146 Y51.279
N1438 X46.59 Y50.841
N1439 X47.03 Y50.398
N1440 X47.468 Y49.954
N1441 X47.909 Y49.512
N1442 X48.356 Y49.077
N1443 X48.811 Y48.651
N1444 X49.278 Y48.236
N1445 X49.756 Y47.835
N1446 X50.247 Y47.451
N1447 X50.751 Y47.083
N1448 X51.269 Y46.734
N1449 X51.799 Y46.405
N1450 X52.34 Y46.096
N1451 X52.894 Y45.807
N1452 X53.449 Y45.523
N1453 X53.98 Y45.196
N1454 X54.481 Y44.824
N1455 X54.961 Y44.425
N1456 X55.433 Y44.017
N1457 X55.915 Y43.62
N1458 X56.416 Y43.249
N1459 X56.87 Y42.962
N1460 X57.302 Y42.736
N1461 X57.721 Y42.557
N1462 X57.79 Y42.534
N1463 X57.846 Y42.518
N1464 X57.904 Y42.506
N1465 X57.962 Y42.5
N1466 X59.505 Y42.389
N1467 X59.918 Y42.38
N1468 X60.194 Y42.397
N1469 X60.474 Y42.436
N1470 X60.792 Y42.507
N1471 X61.141 Y42.615
N1472 X61.581 Y42.791
N1473 X62.14 Y43.068
N1474 X62.682 Y43.378
N1475 X63.221 Y43.691
N1476 X63.766 Y43.996
N1477 X64.317 Y44.288
N1478 X64.873 Y44.572
N1479 X65.431 Y44.851
N1480 X65.988 Y45.131
N1481 X66.543 Y45.418
N1482 X67.092 Y45.714
N1483 X67.634 Y46.023
N1484 X68.167 Y46.347
N1485 X68.69 Y46.688
N1486 X69.2 Y47.046
N1487 X69.698 Y47.422
N1488 X70.182 Y47.816
N1489 X70.651 Y48.228
N1490 X71.104 Y48.657
N1491 X71.544 Y49.1
N1492 X71.999 Y49.526
N1493 X72.491 Y49.91
N1494 X73.011 Y50.255
N1495 X73.543 Y50.58
N1496 X74.074 Y50.908
N1497 X74.593 Y51.255
N1498 X75.062 Y51.619
N1499 X75.449 Y51.973
N1500 X75.762 Y52.308
N1501 X75.971 Y52.571
N1502 X76.011 Y52.627
N1503 X76.045 Y52.686
N1504 X76.073 Y52.748
N1505 X76.204 Y53.078
N1506 X76.628 Y54.216
N1507 X76.749 Y54.596
N1508 X76.811 Y54.864
N1509 X76.856 Y55.17
N1510 X76.877 Y55.489
N1511 X76.871 Y55.898
N1512 X76.819 Y56.445
N1513 X76.71 Y57.059
N1514 X76.588 Y57.671
N1515 X76.481 Y58.286
N1516 X76.398 Y58.904
N1517 X76.34 Y59.525
N1518 X76.301 Y60.148
N1519 X76.271 Y60.771
N1520 X76.244 Y61.395
N1521 X76.212 Y62.018
N1522 X76.168 Y62.64
N1523 X76.109 Y63.261
N1524 X76.031 Y63.881
N1525 X75.931 Y64.496
N1526 X75.807 Y65.108
N1527 X75.656 Y65.713
N1528 X75.478 Y66.311
N1529 X75.274 Y66.901
N1530 X75.053 Y67.485
N1531 X74.846 Y68.073
N1532 X74.665 Y68.67
N1533 X74.506 Y69.273
N1534 X74.359 Y69.88
N1535 X74.28 Y70.203
N1536 X74.251 Y70.292
N1537 X74.211 Y70.376
N1538 X74.16 Y70.455
N1539 X73.657 Y71.128
N1540 X73.563 Y71.251
N1541 X73.21 Y71.675
N1542 X73.09 Y71.801
N1543 X71.916 Y72.976
N1544 G3 X71.678 Y73.062 Z-1.389 I-0.212 J-0.212
N1545 G1 X71.626 Z-1.367
N1546 X71.574 Y73.071 Z-1.344
N1547 X71.525 Y73.089 Z-1.322
N1548 X71.48 Y73.115 Z-1.3
N1549 X71.466 Y73.125
N1550 X71.265 Y73.284
N1551 X71.005 Y73.488
N1552 X70.968 Y73.523
N1553 X70.937 Y73.564
N1554 X70.914 Y73.609
N1555 X70.86 Y73.722
N1556 G3 X70.561 Y74.081 Z-1.5 I-1.044 J-0.565
N1557 G1 X69.804 Y74.647
N1558 X69.373 Y74.93
N1559 X69.269 Y74.993
N1560 X68.088 Y75.638
N1561 X67.619 Y75.864
N1562 X67.151 Y76.046
N1563 X66.553 Y76.223
N1564 X65.946 Y76.367
N1565 X65.335 Y76.492
N1566 X64.721 Y76.606
N1567 X64.106 Y76.711
N1568 X63.489 Y76.804
N1569 X62.871 Y76.886
N1570 X62.25 Y76.954
N1571 X61.629 Y77.006
N1572 X61.006 Y77.04
N1573 X60.382 Y77.056
N1574 X59.758 Y77.051
N1575 X59.134 Y77.026
N1576 X58.512 Y76.979
N1577 X57.892 Y76.91
N1578 X57.273 Y76.836
N1579 X56.651 Y76.785
N1580 X56.027 Y76.769
N1581 X55.403 Y76.779
N1582 X54.833 Y76.801
N1583 X54.741 Y76.799
N1584 X54.65 Y76.784
N1585 X54.562 Y76.757
N1586 X53.078 Y76.204
N1587 X52.712 Y76.059
N1588 X52.57 Y75.997
N1589 X51.453 Y75.387
N1590 G3 X51.303 Y75.183 Z-1.389 I0.144 J-0.263
N1591 G1 X51.288 Y75.133 Z-1.367
N1592 X51.265 Y75.086 Z-1.344
N1593 X51.234 Y75.044 Z-1.322
N1594 X51.196 Y75.008 Z-1.3
N1595 X51.171 Y74.99
N1596 X50.967 Y74.859
N1597 X50.606 Y74.627
N1598 X50.565 Y74.604
N1599 X50.522 Y74.589
N1600 X50.476 Y74.58
N1601 G3 X50.161 Y74.514 I0.168 J-1.574
N1602 X49.74 Y74.306 Z-1.5 I0.483 J-1.507
N1603 G1 X48.872 Y73.657
N1604 X48.749 Y73.563
N1605 X48.325 Y73.21
N1606 X48.199 Y73.09
N1607 X47.491 Y72.383
N1608 X47.154 Y72.011
N1609 X46.788 Y71.534
N1610 X46.449 Y71.01
N1611 X46.132 Y70.472
N1612 X45.828 Y69.927
N1613 X45.534 Y69.377
N1614 X45.249 Y68.822
N1615 X44.973 Y68.262
N1616 X44.71 Y67.697
N1617 X44.461 Y67.125
N1618 X44.227 Y66.546
N1619 X44.01 Y65.961
N1620 X43.812 Y65.37
N1621 X43.633 Y64.772
N1622 X43.474 Y64.169
N1623 X43.336 Y63.56
N1624 X43.215 Y62.948
N1625 X43.088 Y62.337
N1626 X42.931 Y61.733
N1627 X42.743 Y61.138
N1628 X42.534 Y60.55
N1629 X42.414 Y60.226
N1630 X42.391 Y60.147
N1631 X42.376 Y60.066
N1632 X42.371 Y59.984
N1633 Y59.788
N1634 X42.381 Y59.62
N1635 X42.501 Y57.948
N1636 X42.512 Y57.806
N1637 X42.538 Y57.523
N1638 X42.557 Y57.382
N1639 X42.736 Y56.558
N1640 G3 X42.889 Y56.356 Z-1.389 I0.293 J0.064
N1641 G1 X42.933 Y56.328 Z-1.367
N1642 X42.972 Y56.292 Z-1.344
N1643 X43.003 Y56.251 Z-1.322
N1644 X43.027 Y56.205 Z-1.3
N1645 X43.046 Y56.14
N1646 X43.079 Y55.936
N1647 X43.139 Y55.579
N1648 X43.143 Y55.528
N1649 X43.138 Y55.476
N1650 G3 X43.113 Y55.155 I1.557 J-0.282
N1651 X43.194 Y54.693 Z-1.5 I1.582 J0.039
N1652 G1 X43.796 Y53.078
N1653 X43.941 Y52.712
N1654 X44.003 Y52.57
N1655 X44.362 Y51.912
N1656 X44.688 Y51.38
N1657 X45.051 Y50.872
N1658 X45.449 Y50.392
N1659 X45.865 Y49.927
N1660 X46.292 Y49.471
N1661 X46.726 Y49.023
N1662 X47.167 Y48.582
N1663 X47.617 Y48.15
N1664 X48.076 Y47.728
N1665 X48.546 Y47.317
N1666 X49.027 Y46.919
N1667 X49.519 Y46.535
N1668 X50.023 Y46.168
N1669 X50.539 Y45.817
N1670 X51.067 Y45.484
N1671 X51.606 Y45.17
N1672 X52.152 Y44.867
N1673 X52.688 Y44.549
N1674 X53.208 Y44.203
N1675 X53.71 Y43.833
N1676 X54.289 Y43.38
N1677 X54.348 Y43.338
N1678 X54.411 Y43.303
N1679 X54.477 Y43.274
N1680 X54.976 Y43.089
N1681 X55.118 Y43.053
N1682 X55.259 Y43.018
N1683 X57.382 Y42.557
N1684 X57.523 Y42.538
N1685 X57.806 Y42.512
N1686 X57.962 Y42.5
N1687 G3 X58.199 Y42.59 Z-1.389 I0.021 J0.299
N1688 G1 X58.245 Y42.629 Z-1.363
N1689 X58.298 Y42.658 Z-1.337
N1690 X58.356 Y42.676 Z-1.312
N1691 X58.383 Y42.681 Z-1.3
N1692 X58.539 Y42.712
N1693 X58.599 Y42.717
N1694 X58.659 Y42.711
N1695 X58.716 Y42.693
N1696 X58.769 Y42.664
N1697 G3 X59.051 Y42.508 I0.904 J1.299
N1698 X59.505 Y42.389 Z-1.5 I0.622 J1.455
N1699 G1 X59.646 Y42.379
N1700 X59.788 Y42.371
N1701 X60.212
N1702 X60.38 Y42.381
N1703 X62.052 Y42.501
N1704 X62.194 Y42.512
N1705 X62.477 Y42.538
N1706 X62.618 Y42.557
N1707 X63.043 Y42.649
N1708 X63.645 Y42.812
N1709 X64.233 Y43.02
N1710 X64.809 Y43.261
N1711 X65.377 Y43.519
N1712 X65.94 Y43.787
N1713 X66.499 Y44.064
N1714 X67.054 Y44.35
N1715 X67.602 Y44.648
N1716 X68.144 Y44.957
N1717 X68.677 Y45.281
N1718 X69.201 Y45.62
N1719 X69.714 Y45.975
N1720 X70.216 Y46.346
N1721 X70.705 Y46.734
N1722 X71.18 Y47.138
N1723 X71.642 Y47.558
N1724 X72.099 Y47.982
N1725 X72.571 Y48.39
N1726 X73.065 Y48.772
N1727 X73.575 Y49.13
N1728 X74.026 Y49.432
N1729 X74.089 Y49.479
N1730 X74.146 Y49.533
N1731 X74.197 Y49.594
N1732 X74.647 Y50.196
N1733 X74.93 Y50.627
N1734 X74.993 Y50.731
N1735 X75.997 Y52.57
N1736 X76.062 Y52.72
N1737 X76.073 Y52.748
N1738 G3 X76.058 Y53.001 Z-1.389 I-0.279 J0.11
N1739 G1 X76.035 Y53.057 Z-1.363
N1740 X76.023 Y53.117 Z-1.337
N1741 X76.024 Y53.177 Z-1.312
N1742 X76.027 Y53.204 Z-1.3
N1743 X76.048 Y53.387
N1744 X76.06 Y53.444
N1745 X76.083 Y53.498
N1746 X76.116 Y53.546
N1747 X76.158 Y53.587
N1748 G3 X76.387 Y53.814 I-0.992 J1.233
N1749 X76.628 Y54.216 Z-1.5 I-1.221 J1.007
N1750 G1 X76.911 Y54.976
N1751 X76.947 Y55.118
N1752 X76.982 Y55.259
N1753 X77.382 Y57.099
N1754 X77.413 Y57.24
N1755 X77.429 Y57.318
N1756 X77.457 Y57.485
N1757 G3 X77.186 Y57.812 Z-1.3 I-0.299 J0.028
N1758 X76.862 Y57.56 I-0.028 J-0.299
N1759 G1 X76.842 Y57.439
N1760 G3 X77.065 Y57.101 I0.296 J-0.047
N1761 X77.429 Y57.318 Z-1.5 I0.074 J0.291
N1762 G1 X77.443 Y57.382
N1763 X77.462 Y57.523
N1764 X77.489 Y58.147
N1765 X77.51 Y58.77
N1766 X77.505 Y59.394
N1767 X77.489 Y60.018
N1768 X77.469 Y60.642
N1769 X77.443 Y61.265
N1770 X77.41 Y61.888
N1771 X77.366 Y62.511
N1772 X77.308 Y63.132
N1773 X77.279 Y63.366
N1774 X77.271 Y63.409
N1775 G3 X76.907 Y63.626 Z-1.3 I-0.291 J-0.074
N1776 X76.681 Y63.326 I0.074 J-0.291
N1777 G1 X76.866 Y57.563
N1778 G3 X77.117 Y57.276 I0.3 J0.01
N1779 X77.462 Y57.523 Z-1.5 I0.049 J0.296
N1780 G1 X77.488 Y57.806
N1781 X77.499 Y57.948
N1782 X77.621 Y59.646
N1783 X77.629 Y59.788
N1784 Y60.212
N1785 X77.619 Y60.38
N1786 X77.499 Y62.052
N1787 X77.488 Y62.194
N1788 X77.462 Y62.477
N1789 X77.443 Y62.618
N1790 X76.982 Y64.741
N1791 X76.947 Y64.882
N1792 X76.911 Y65.024
N1793 X76.204 Y66.922
N1794 X76.059 Y67.288
N1795 X75.997 Y67.43
N1796 X74.993 Y69.269
N1797 X74.93 Y69.373
N1798 X74.647 Y69.804
N1799 X74.16 Y70.455
N1800 X74.121 Y70.495 Z-1.476
N1801 X73.806 Y70.764 Z-1.3
N1802 X73.597 Y70.942
N1803 X68.657 Y75.158
N1804 X68.449 Y75.336
N1805 X68.13 Y75.608 Z-1.478
N1806 X68.088 Y75.638 Z-1.5
N1807 X67.43 Y75.997
N1808 X67.28 Y76.062
N1809 X66.922 Y76.204
N1810 X65.024 Y76.911
N1811 X64.882 Y76.947
N1812 X64.741 Y76.982
N1813 X62.618 Y77.443
N1814 X62.477 Y77.462
N1815 X62.194 Y77.488
N1816 X62.052 Y77.499
N1817 X60.354 Y77.621
N1818 X60.212 Y77.629
N1819 X59.788
N1820 X59.62 Y77.619
N1821 X57.948 Y77.499
N1822 X57.806 Y77.488
N1823 X57.523 Y77.462
N1824 X57.382 Y77.443
N1825 X55.259 Y76.982
N1826 X55.118 Y76.947
N1827 X54.976 Y76.911
N1828 X54.562 Y76.757
N1829 X54.513 Y76.73 Z-1.476
N1830 X54.472 Y76.692 Z-1.452
N1831 X54.44 Y76.645 Z-1.428
N1832 X54.421 Y76.592 Z-1.404
N1833 X54.358 Y76.355 Z-1.3
N1834 G2 X53.643 Y74.807 I-5.389 J1.55
N1835 G1 X53.601 Y74.757
N1836 X53.55 Y74.717
N1837 X49.775 Y72.382
N1838 X49.716 Y72.354
N1839 X49.653 Y72.34
N1840 G2 X47.94 Y72.393 I-0.685 J5.566
N1841 G1 X47.709 Y72.441 Z-1.4
N1842 X47.65 Y72.447 Z-1.425
N1843 X47.592 Y72.439 Z-1.45
N1844 X47.538 Y72.417 Z-1.475
N1845 X47.491 Y72.383 Z-1.5
N1846 X46.91 Y71.801
N1847 X46.79 Y71.675
N1848 X46.437 Y71.251
N1849 X46.33 Y71.109
N1850 X45.353 Y69.804
N1851 X45.07 Y69.373
N1852 X45.007 Y69.269
N1853 X44.003 Y67.43
N1854 X43.938 Y67.28
N1855 X43.796 Y66.922
N1856 X43.089 Y65.024
N1857 X43.053 Y64.882
N1858 X43.018 Y64.741
N1859 X42.557 Y62.618
N1860 X42.538 Y62.477
N1861 X42.512 Y62.194
N1862 X42.501 Y62.052
N1863 X42.379 Y60.354
N1864 X42.371 Y60.212
N1865 Y59.984
N1866 X42.38 Y59.929 Z-1.476
N1867 X42.401 Y59.876 Z-1.452
N1868 X42.434 Y59.831 Z-1.428
N1869 X42.477 Y59.794 Z-1.404
N1870 X42.677 Y59.653 Z-1.3
N1871 G2 X44.678 Y57.027 I-3.487 J-4.732
N1872 G1 X44.689 Y56.991
N1873 X45.021 Y55.643
N1874 X45.028 Y55.606
N1875 G2 X44.475 Y52.347 I-5.838 J-0.685
N1876 G1 X44.365 Y52.133 Z-1.402
N1877 X44.344 Y52.08 Z-1.427
N1878 X44.337 Y52.023 Z-1.451
N1879 X44.343 Y51.966 Z-1.476
N1880 X44.362 Y51.912 Z-1.5
N1881 X45.007 Y50.731
N1882 X45.07 Y50.627
N1883 X45.353 Y50.196
N1884 X46.344 Y48.872
N1885 X46.437 Y48.749
N1886 X46.79 Y48.325
N1887 X46.91 Y48.199
N1888 X48.199 Y46.91
N1889 X48.325 Y46.79
N1890 X48.749 Y46.437
N1891 X48.891 Y46.33
N1892 X50.196 Y45.353
N1893 X50.627 Y45.07
N1894 X50.731 Y45.007
N1895 X52.57 Y44.003
N1896 X52.72 Y43.938
N1897 X53.078 Y43.796
N1898 X54.477 Y43.274
N1899 X54.514 Y43.265 Z-1.484
N1900 X54.551 Y43.26 Z-1.468
N1901 X54.946 Y43.231 Z-1.3
N1902 X55.219 Y43.211
N1903 X62.3 Y42.694
N1904 X62.573 Y42.674
N1905 X62.967 Y42.645 Z-1.468
N1906 X63.005 Z-1.484
N1907 X63.043 Y42.649 Z-1.5
N1908 X64.741 Y43.018
N1909 X64.882 Y43.053
N1910 X65.024 Y43.089
N1911 X66.922 Y43.796
N1912 X67.288 Y43.941
N1913 X67.43 Y44.003
N1914 X69.269 Y45.007
N1915 X69.373 Y45.07
N1916 X69.804 Y45.353
N1917 X71.128 Y46.344
N1918 X71.251 Y46.437
N1919 X71.675 Y46.79
N1920 X71.801 Y46.91
N1921 X73.09 Y48.199
N1922 X73.21 Y48.325
N1923 X73.563 Y48.749
N1924 X73.67 Y48.891
N1925 X74.197 Y49.594
N1926 G3 X74.11 Y50.019 I-0.246 J0.171
N1927 G1 X74.059 Y50.035 Z-1.495
N1928 X74.011 Y50.05 Z-1.481
N1929 X73.965 Y50.065 Z-1.458
N1930 X73.95 Z-1.448
N1931 X73.907 Y50.055 Z-1.411
N1932 X73.871 Y50.047 Z-1.366
N1933 X73.845 Y50.041 Z-1.314
N1934 X73.828 Y50.038 Z-1.258
N1935 X73.823 Y50.037 Z-1.2
N1936 Z5.
N1937 X66.744 Y61.784
N1938 Z-2.4
N1939 Z-2.7
N1940 X66.751 Y61.783 Z-2.767
N1941 X66.774 Z-2.83
N1942 X66.809 Y61.781 Z-2.887
N1943 X66.857 Y61.779 Z-2.935
N1944 X66.914 Y61.777 Z-2.97
N1945 X66.977 Y61.775 Z-2.992
N1946 X67.044 Y61.773 Z-3.
N1947 G3 X68.689 Y61.89 I0.28 J7.654
N1948 G1 X68.836 Y61.922
N1949 X68.942 Y62.028
N1950 X69.023 Y62.154
N1951 X69.086 Y62.291
N1952 X69.135 Y62.433
N1953 X69.173 Y62.578
N1954 X69.196 Y62.726
N1955 X69.21 Y62.907
N1956 X69.208 Y63.13
N1957 X69.183 Y63.412
N1958 X69.121 Y63.779
N1959 X69.024 Y64.162
N1960 X68.915 Y64.485
N1961 X68.728 Y64.917
N1962 X68.435 Y65.467
N1963 X68.13 Y65.955
N1964 X67.78 Y66.428
N1965 X67.369 Y66.897
N1966 X66.936 Y67.346
N1967 X66.473 Y67.764
N1968 X65.978 Y68.145
N1969 X65.467 Y68.503
N1970 X64.933 Y68.826
N1971 X64.377 Y69.108
N1972 X63.808 Y69.365
N1973 X63.224 Y69.584
N1974 X62.625 Y69.758
N1975 X62.019 Y69.907
N1976 X61.404 Y70.014
N1977 X60.783 Y70.075
N1978 X60.16 Y70.109
N1979 X59.536 Y70.101
N1980 X58.915 Y70.046
N1981 X58.296 Y69.966
N1982 X57.684 Y69.843
N1983 X57.083 Y69.675
N1984 X56.49 Y69.482
N1985 X55.911 Y69.248
N1986 X55.352 Y68.972
N1987 X54.804 Y68.673
N1988 X54.278 Y68.337
N1989 X53.779 Y67.963
N1990 X53.296 Y67.568
N1991 X52.841 Y67.141
N1992 X52.419 Y66.681
N1993 X52.017 Y66.205
N1994 X51.649 Y65.701
N1995 X51.319 Y65.171
N1996 X51.011 Y64.629
N1997 X50.742 Y64.066
N1998 X50.515 Y63.485
N1999 X50.312 Y62.894
N2000 X50.151 Y62.292
N2001 X50.036 Y61.678
N2002 X49.945 Y61.061
N2003 X49.898 Y60.439
N2004 X49.897 Y59.815
N2005 X49.921 Y59.192
N2006 X49.99 Y58.571
N2007 X50.104 Y57.958
N2008 X50.242 Y57.35
N2009 X50.424 Y56.753
N2010 X50.649 Y56.171
N2011 X50.897 Y55.598
N2012 X51.186 Y55.045
N2013 X51.514 Y54.514
N2014 X51.863 Y53.997
N2015 X52.249 Y53.507
N2016 X52.669 Y53.046
N2017 X53.107 Y52.602
N2018 X53.577 Y52.191
N2019 X54.075 Y51.815
N2020 X54.587 Y51.459
N2021 X55.125 Y51.142
N2022 X55.683 Y50.864
N2023 X56.252 Y50.608
N2024 X56.839 Y50.395
N2025 X57.439 Y50.225
N2026 X58.046 Y50.079
N2027 X58.662 Y49.978
N2028 X59.283 Y49.921
N2029 X59.906 Y49.888
N2030 X60.53 Y49.903
N2031 X61.151 Y49.961
N2032 X61.769 Y50.044
N2033 X62.38 Y50.173
N2034 X62.98 Y50.345
N2035 X63.572 Y50.54
N2036 X64.149 Y50.779
N2037 X64.707 Y51.058
N2038 X65.253 Y51.359
N2039 X65.775 Y51.7
N2040 X66.272 Y52.078
N2041 X66.754 Y52.474
N2042 X67.205 Y52.906
N2043 X67.624 Y53.368
N2044 X68.025 Y53.846
N2045 X68.388 Y54.354
N2046 X68.715 Y54.885
N2047 X69.021 Y55.429
N2048 X69.284 Y55.994
N2049 X69.507 Y56.577
N2050 X69.708 Y57.168
N2051 X69.863 Y57.772
N2052 X69.975 Y58.386
N2053 X70.064 Y59.004
N2054 X70.104 Y59.626
N2055 X70.102 Y60.25
N2056 X70.13 Y60.874
N2057 X70.222 Y61.491
N2058 X70.303 Y62.109
N2059 X70.329 Y62.632
N2060 X70.314 Y63.136
N2061 X70.26 Y63.616
N2062 X70.165 Y64.109
N2063 X70.026 Y64.609
N2064 X69.82 Y65.169
N2065 X69.559 Y65.736
N2066 X69.254 Y66.28
N2067 X68.907 Y66.799
N2068 X68.527 Y67.293
N2069 X68.117 Y67.764
N2070 X67.898 Y67.986
N2071 X67.785 Y68.093
N2072 X67.329 Y68.519
N2073 X66.848 Y68.918
N2074 X66.346 Y69.287
N2075 X65.821 Y69.625
N2076 X65.279 Y69.933
N2077 X64.72 Y70.212
N2078 X64.147 Y70.459
N2079 X63.561 Y70.672
N2080 X62.964 Y70.855
N2081 X62.359 Y71.005
N2082 X61.745 Y71.117
N2083 X61.126 Y71.197
N2084 X60.504 Y71.242
N2085 X59.88 Y71.251
N2086 X59.257 Y71.226
N2087 X58.635 Y71.169
N2088 X58.018 Y71.076
N2089 X57.408 Y70.948
N2090 X56.804 Y70.79
N2091 X56.21 Y70.598
N2092 X55.63 Y70.37
N2093 X55.062 Y70.112
N2094 X54.785 Y69.967
N2095 X54.717 Y69.929
N2096 X54.173 Y69.623
N2097 X53.649 Y69.286
N2098 X53.142 Y68.922
N2099 X52.657 Y68.529
N2100 X52.197 Y68.108
N2101 X51.759 Y67.662
N2102 X51.347 Y67.194
N2103 X50.963 Y66.703
N2104 X50.606 Y66.191
N2105 X50.276 Y65.661
N2106 X49.977 Y65.114
N2107 X49.71 Y64.55
N2108 X49.471 Y63.973
N2109 X49.265 Y63.384
N2110 X49.097 Y62.784
N2111 X48.96 Y62.175
N2112 X48.856 Y61.56
N2113 X48.788 Y60.939
N2114 X48.754 Y60.316
N2115 X48.752 Y59.692
N2116 X48.786 Y59.069
N2117 X48.856 Y58.449
N2118 X48.906 Y58.141
N2119 X49.042 Y57.453
N2120 X49.2 Y56.849
N2121 X49.392 Y56.256
N2122 X49.614 Y55.672
N2123 X49.869 Y55.103
N2124 X50.156 Y54.549
N2125 X50.472 Y54.011
N2126 X50.818 Y53.491
N2127 X51.194 Y52.994
N2128 X51.597 Y52.517
N2129 X52.024 Y52.062
N2130 X52.477 Y51.633
N2131 X52.953 Y51.23
N2132 X53.449 Y50.851
N2133 X53.965 Y50.501
N2134 X54.502 Y50.182
N2135 X55.053 Y49.891
N2136 X55.621 Y49.632
N2137 X56.203 Y49.407
N2138 X56.796 Y49.214
N2139 X57.399 Y49.052
N2140 X58.01 Y48.926
N2141 X58.318 Y48.88
N2142 X58.473 Y48.86
N2143 X59.093 Y48.786
N2144 X59.716 Y48.751
N2145 X60.34 Y48.754
N2146 X60.962 Y48.789
N2147 X61.582 Y48.859
N2148 X62.197 Y48.965
N2149 X62.805 Y49.105
N2150 X63.406 Y49.275
N2151 X63.995 Y49.48
N2152 X64.572 Y49.719
N2153 X65.136 Y49.985
N2154 X65.683 Y50.285
N2155 X66.211 Y50.617
N2156 X66.722 Y50.975
N2157 X67.212 Y51.362
N2158 X67.679 Y51.776
N2159 X68.122 Y52.215
N2160 X68.543 Y52.676
N2161 X68.936 Y53.16
N2162 X69.3 Y53.666
N2163 X69.64 Y54.19
N2164 X69.947 Y54.733
N2165 X70.084 Y55.013
N2166 X70.375 Y55.652
N2167 X70.603 Y56.233
N2168 X70.796 Y56.826
N2169 X70.955 Y57.43
N2170 X71.083 Y58.04
N2171 X71.175 Y58.657
N2172 X71.23 Y59.279
N2173 X71.27 Y59.902
N2174 X71.332 Y60.522
N2175 X71.402 Y61.142
N2176 X71.456 Y61.764
N2177 X71.479 Y62.388
N2178 X71.463 Y63.011
N2179 X71.399 Y63.632
N2180 X71.288 Y64.246
N2181 X71.13 Y64.85
N2182 X70.926 Y65.439
N2183 X70.68 Y66.013
N2184 X70.394 Y66.567
N2185 X70.071 Y67.101
N2186 X69.716 Y67.614
N2187 X69.332 Y68.106
N2188 X69.176 Y68.28
N2189 X69.1 Y68.416
N2190 X69.056 Y68.566
N2191 X69.037 Y68.877
N2192 X69.141 Y69.493
N2193 X69.309 Y70.077
N2194 X69.357 Y70.316
N2195 X69.39 Y70.592
N2196 X69.396 Y70.742
N2197 X69.387 Y70.892
N2198 X69.361 Y71.073
N2199 X69.328 Y71.22
N2200 X69.279 Y71.362
N2201 X69.214 Y71.497
N2202 X69.137 Y71.625
N2203 X69.046 Y71.744
N2204 X68.937 Y71.848
N2205 X68.818 Y71.938
N2206 X68.687 Y72.012
N2207 X68.545 Y72.062
N2208 X68.399 Y72.095
N2209 X68.249 Y72.099
N2210 X68.1 Y72.08
N2211 X67.955 Y72.041
N2212 X67.823 Y71.971
N2213 X67.701 Y71.883
N2214 X67.598 Y71.766
N2215 X67.351 Y71.576
N2216 X66.771 Y71.346
N2217 X66.147 Y71.326
N2218 X65.53 Y71.417
N2219 X64.923 Y71.561
N2220 X63.718 Y71.886
N2221 X63.113 Y72.036
N2222 X62.502 Y72.164
N2223 X61.886 Y72.267
N2224 X61.267 Y72.342
N2225 X60.645 Y72.389
N2226 X60.021 Y72.404
N2227 X59.397 Y72.388
N2228 X58.775 Y72.341
N2229 X58.156 Y72.263
N2230 X57.542 Y72.154
N2231 X56.933 Y72.015
N2232 X56.333 Y71.846
N2233 X55.742 Y71.647
N2234 X55.161 Y71.418
N2235 X54.949 Y71.32
N2236 X54.796 Y71.287
N2237 X54.64 Y71.289
N2238 X54.337 Y71.362
N2239 X53.783 Y71.649
N2240 X53.274 Y71.992
N2241 X53.107 Y72.086
N2242 X52.891 Y72.186
N2243 X52.692 Y72.259
N2244 X52.548 Y72.3
N2245 X52.4 Y72.325
N2246 X52.22 Y72.341
N2247 X52.07 Y72.342
N2248 X51.921 Y72.323
N2249 X51.776 Y72.287
N2250 X51.634 Y72.239
N2251 X51.501 Y72.17
N2252 X51.378 Y72.083
N2253 X51.266 Y71.983
N2254 X51.173 Y71.866
N2255 X51.099 Y71.735
N2256 X51.039 Y71.598
N2257 X51.012 Y71.45
N2258 X51.005 Y71.3
N2259 X51.027 Y71.152
N2260 X51.075 Y71.01
N2261 X51.216 Y70.732
N2262 X51.276 Y70.425
N2263 X51.259 Y69.802
N2264 X51.059 Y69.211
N2265 X50.769 Y68.658
N2266 X50.439 Y68.128
N2267 X50.098 Y67.606
N2268 X49.761 Y67.081
N2269 X49.437 Y66.548
N2270 X49.132 Y66.003
N2271 X48.851 Y65.446
N2272 X48.594 Y64.878
N2273 X48.364 Y64.298
N2274 X48.164 Y63.707
N2275 X47.993 Y63.107
N2276 X47.851 Y62.499
N2277 X47.741 Y61.885
N2278 X47.663 Y61.266
N2279 X47.616 Y60.644
N2280 X47.6 Y60.02
N2281 X47.615 Y59.396
N2282 X47.638 Y59.085
N2283 X47.653 Y58.93
N2284 X47.671 Y58.775
N2285 X47.689 Y58.62
N2286 X47.673 Y58.465
N2287 X47.623 Y58.317
N2288 X47.46 Y58.051
N2289 X46.992 Y57.638
N2290 X46.739 Y57.455
N2291 X46.426 Y57.198
N2292 X46.309 Y57.084
N2293 X46.177 Y56.934
N2294 X46.044 Y56.756
N2295 X45.964 Y56.629
N2296 X45.9 Y56.494
N2297 X45.843 Y56.34
N2298 X45.803 Y56.196
N2299 X45.782 Y56.047
N2300 X45.779 Y55.897
N2301 X45.791 Y55.748
N2302 X45.825 Y55.601
N2303 X45.88 Y55.462
N2304 X45.949 Y55.329
N2305 X46.042 Y55.211
N2306 X46.152 Y55.109
N2307 X46.273 Y55.02
N2308 X46.411 Y54.961
N2309 X46.555 Y54.921
N2310 X46.705 Y54.912
N2311 X46.854 Y54.928
N2312 X47.164 Y54.969
N2313 X47.47 Y54.909
N2314 X48.047 Y54.671
N2315 X48.537 Y54.285
N2316 X48.967 Y53.833
N2317 X49.367 Y53.354
N2318 X49.758 Y52.868
N2319 X50.153 Y52.385
N2320 X50.562 Y51.914
N2321 X50.989 Y51.459
N2322 X51.435 Y51.022
N2323 X51.9 Y50.606
N2324 X52.383 Y50.212
N2325 X52.886 Y49.842
N2326 X53.406 Y49.497
N2327 X53.942 Y49.178
N2328 X54.493 Y48.886
N2329 X55.059 Y48.623
N2330 X55.638 Y48.389
N2331 X56.227 Y48.185
N2332 X56.827 Y48.012
N2333 X57.13 Y47.94
N2334 X57.283 Y47.908
N2335 X57.436 Y47.878
N2336 X57.578 Y47.814
N2337 X57.703 Y47.721
N2338 X57.905 Y47.483
N2339 X58.171 Y46.918
N2340 X58.347 Y46.438
N2341 X58.5 Y46.107
N2342 X58.573 Y45.976
N2343 X58.676 Y45.823
N2344 X58.817 Y45.645
N2345 X58.92 Y45.536
N2346 X59.035 Y45.44
N2347 X59.164 Y45.353
N2348 X59.294 Y45.278
N2349 X59.432 Y45.22
N2350 X59.577 Y45.182
N2351 X59.725 Y45.157
N2352 X59.875 Y45.154
N2353 X60.024 Y45.174
N2354 X60.169 Y45.211
N2355 X60.306 Y45.273
N2356 X60.431 Y45.356
N2357 X60.546 Y45.452
N2358 X60.635 Y45.573
N2359 X60.707 Y45.704
N2360 X60.751 Y45.848
N2361 X60.788 Y46.158
N2362 X60.921 Y46.44
N2363 X61.302 Y46.934
N2364 X61.812 Y47.293
N2365 X62.372 Y47.57
N2366 X62.95 Y47.803
N2367 X63.534 Y48.024
N2368 X64.115 Y48.251
N2369 X64.691 Y48.491
N2370 X65.258 Y48.751
N2371 X65.813 Y49.035
N2372 X66.355 Y49.345
N2373 X66.881 Y49.68
N2374 X67.391 Y50.04
N2375 X67.883 Y50.424
N2376 X68.354 Y50.833
N2377 X68.804 Y51.265
N2378 X69.232 Y51.719
N2379 X69.636 Y52.194
N2380 X70.017 Y52.689
N2381 X70.372 Y53.202
N2382 X70.701 Y53.732
N2383 X70.776 Y53.869
N2384 X70.879 Y53.986
N2385 X71.006 Y54.077
N2386 X71.293 Y54.198
N2387 X71.915 Y54.252
N2388 X72.419 Y54.265
N2389 X72.731 Y54.298
N2390 X72.926 Y54.335
N2391 X73.07 Y54.374
N2392 X73.236 Y54.435
N2393 X73.403 Y54.512
N2394 X73.534 Y54.585
N2395 X73.654 Y54.675
N2396 X73.767 Y54.778
N2397 X73.869 Y54.888
N2398 X73.953 Y55.012
N2399 X74.021 Y55.146
N2400 X74.076 Y55.285
N2401 X74.105 Y55.432
N2402 X74.112 Y55.582
N2403 X74.105 Y55.732
N2404 X74.064 Y55.876
N2405 X74.005 Y56.014
N2406 X73.921 Y56.139
N2407 X73.816 Y56.246
N2408 X73.7 Y56.34
N2409 X73.416 Y56.47
N2410 X73.187 Y56.682
N2411 X72.834 Y57.196
N2412 X72.649 Y57.792
N2413 X72.559 Y58.41
N2414 X72.524 Y59.033
N2415 X72.53 Y59.656
N2416 X72.562 Y60.28
N2417 X72.602 Y60.902
N2418 X72.635 Y61.525
N2419 X72.647 Y62.149
N2420 X72.63 Y62.773
N2421 X72.579 Y63.395
N2422 X72.492 Y64.012
N2423 X72.365 Y64.624
N2424 X72.2 Y65.225
N2425 X71.998 Y65.815
N2426 X71.758 Y66.391
N2427 X71.481 Y66.951
N2428 X71.172 Y67.493
N2429 X70.832 Y68.016
N2430 X70.657 Y68.615
N2431 X70.609 Y69.237
N2432 X70.603 Y69.861
N2433 X70.581 Y70.363
N2434 X70.536 Y70.717
N2435 X70.474 Y71.017
N2436 X70.396 Y71.28
N2437 X70.311 Y71.502
N2438 X70.214 Y71.705
N2439 X70.106 Y71.89
N2440 X69.987 Y72.061
N2441 X69.87 Y72.204
N2442 X69.741 Y72.337
N2443 X69.601 Y72.46
N2444 X69.469 Y72.559
N2445 X69.324 Y72.65
N2446 X69.185 Y72.723
N2447 X69.035 Y72.787
N2448 X68.882 Y72.837
N2449 X68.732 Y72.874
N2450 X68.584 Y72.898
N2451 X68.435 Y72.909
N2452 X68.285 Y72.908
N2453 X68.135 Y72.895
N2454 X67.52 Y72.788
N2455 X66.904 Y72.693
N2456 X66.28 Y72.688
N2457 X65.659 Y72.751
N2458 X65.044 Y72.856
N2459 X64.433 Y72.981
N2460 X63.822 Y73.111
N2461 X63.211 Y73.234
N2462 X62.596 Y73.343
N2463 X61.979 Y73.433
N2464 X61.359 Y73.501
N2465 X60.736 Y73.544
N2466 X60.113 Y73.561
N2467 X59.489 Y73.55
N2468 X58.866 Y73.51
N2469 X58.246 Y73.442
N2470 X57.629 Y73.345
N2471 X57.018 Y73.221
N2472 X56.413 Y73.07
N2473 X55.815 Y72.89
N2474 X55.192 Y72.848
N2475 X54.579 Y72.964
N2476 X53.979 Y73.134
N2477 X53.438 Y73.28
N2478 X53.071 Y73.348
N2479 X52.768 Y73.379
N2480 X52.487 Y73.385
N2481 X52.241 Y73.371
N2482 X52.021 Y73.34
N2483 X51.81 Y73.293
N2484 X51.608 Y73.231
N2485 X51.432 Y73.161
N2486 X51.269 Y73.08
N2487 X51.112 Y72.986
N2488 X50.966 Y72.882
N2489 X50.836 Y72.771
N2490 X50.725 Y72.662
N2491 X50.621 Y72.54
N2492 X50.527 Y72.412
N2493 X50.449 Y72.283
N2494 X50.381 Y72.149
N2495 X50.324 Y72.01
N2496 X50.279 Y71.867
N2497 X50.246 Y71.72
N2498 X50.162 Y71.102
N2499 X50.059 Y70.487
N2500 X49.869 Y69.893
N2501 X49.617 Y69.322
N2502 X49.328 Y68.769
N2503 X49.021 Y68.226
N2504 X48.71 Y67.685
N2505 X48.404 Y67.141
N2506 X48.111 Y66.59
N2507 X47.834 Y66.031
N2508 X47.577 Y65.462
N2509 X47.345 Y64.883
N2510 X47.137 Y64.295
N2511 X46.955 Y63.698
N2512 X46.801 Y63.094
N2513 X46.674 Y62.483
N2514 X46.575 Y61.867
N2515 X46.504 Y61.247
N2516 X46.461 Y60.624
N2517 X46.447 Y60.001
N2518 X46.304 Y59.393
N2519 X46.009 Y58.843
N2520 X45.662 Y58.325
N2521 X45.363 Y57.87
N2522 X45.18 Y57.536
N2523 X45.055 Y57.256
N2524 X44.962 Y56.997
N2525 X44.899 Y56.757
N2526 X44.857 Y56.529
N2527 X44.836 Y56.319
N2528 X44.832 Y56.116
N2529 X44.844 Y55.92
N2530 X44.87 Y55.739
N2531 X44.908 Y55.57
N2532 X44.96 Y55.401
N2533 X45.025 Y55.241
N2534 X45.099 Y55.093
N2535 X45.177 Y54.963
N2536 X45.268 Y54.836
N2537 X45.368 Y54.718
N2538 X45.474 Y54.612
N2539 X45.588 Y54.515
N2540 X45.71 Y54.427
N2541 X45.839 Y54.35
N2542 X46.4 Y54.078
N2543 X46.953 Y53.789
N2544 X47.46 Y53.424
N2545 X47.924 Y53.008
N2546 X48.36 Y52.561
N2547 X48.781 Y52.101
N2548 X49.199 Y51.638
N2549 X49.622 Y51.179
N2550 X50.055 Y50.729
N2551 X50.502 Y50.294
N2552 X50.965 Y49.876
N2553 X51.444 Y49.476
N2554 X51.94 Y49.097
N2555 X52.451 Y48.74
N2556 X52.978 Y48.405
N2557 X53.519 Y48.094
N2558 X54.073 Y47.809
N2559 X54.641 Y47.549
N2560 X55.219 Y47.316
N2561 X55.808 Y47.109
N2562 X56.334 Y46.773
N2563 X56.763 Y46.321
N2564 X57.149 Y45.83
N2565 X57.484 Y45.414
N2566 X57.753 Y45.131
N2567 X57.985 Y44.922
N2568 X58.199 Y44.759
N2569 X58.411 Y44.623
N2570 X58.612 Y44.516
N2571 X58.807 Y44.431
N2572 X59.002 Y44.364
N2573 X59.194 Y44.315
N2574 X59.374 Y44.284
N2575 X59.556 Y44.268
N2576 X59.722 Y44.267
N2577 X59.895 Y44.279
N2578 X60.066 Y44.305
N2579 X60.221 Y44.342
N2580 X60.364 Y44.388
N2581 X60.505 Y44.447
N2582 X60.641 Y44.517
N2583 X60.769 Y44.596
N2584 X60.889 Y44.685
N2585 X61.002 Y44.784
N2586 X61.434 Y45.234
N2587 X61.878 Y45.673
N2588 X62.38 Y46.043
N2589 X62.92 Y46.356
N2590 X63.479 Y46.633
N2591 X64.046 Y46.892
N2592 X64.616 Y47.146
N2593 X65.184 Y47.406
N2594 X65.745 Y47.679
N2595 X66.297 Y47.968
N2596 X66.839 Y48.278
N2597 X67.368 Y48.61
N2598 X67.881 Y48.964
N2599 X68.379 Y49.34
N2600 X68.859 Y49.738
N2601 X69.321 Y50.158
N2602 X69.763 Y50.598
N2603 X70.185 Y51.058
N2604 X70.586 Y51.536
N2605 X70.964 Y52.032
N2606 X71.438 Y52.438
N2607 X72. Y52.709
N2608 X72.586 Y52.923
N2609 X73.109 Y53.123
N2610 X73.445 Y53.282
N2611 X73.72 Y53.442
N2612 X73.942 Y53.595
N2613 X74.131 Y53.749
N2614 X74.301 Y53.912
N2615 X74.438 Y54.067
N2616 X74.56 Y54.23
N2617 X74.663 Y54.393
N2618 X74.75 Y54.559
N2619 X74.824 Y54.731
N2620 X74.876 Y54.885
N2621 X74.916 Y55.049
N2622 X74.943 Y55.212
N2623 X74.956 Y55.369
N2624 Y55.525
N2625 X74.944 Y55.674
N2626 X74.92 Y55.822
N2627 X74.885 Y55.968
N2628 X74.836 Y56.115
N2629 X74.777 Y56.253
N2630 X74.484 Y56.804
N2631 X74.205 Y57.363
N2632 X74.013 Y57.956
N2633 X73.894 Y58.569
N2634 X73.835 Y59.19
N2635 X73.816 Y59.813
N2636 X73.819 Y60.437
N2637 X73.829 Y61.061
N2638 X73.833 Y61.685
N2639 X73.82 Y62.309
N2640 X73.786 Y62.932
N2641 X73.724 Y63.553
N2642 X73.632 Y64.17
N2643 X73.507 Y64.781
N2644 X73.349 Y65.385
N2645 X73.156 Y65.978
N2646 X72.931 Y66.56
N2647 X72.673 Y67.128
N2648 X72.385 Y67.682
N2649 X72.154 Y68.261
N2650 X72.009 Y68.868
N2651 X71.914 Y69.485
N2652 X71.83 Y70.103
N2653 X71.72 Y70.714
N2654 X71.598 Y71.176
N2655 X71.464 Y71.556
N2656 X71.316 Y71.888
N2657 X71.153 Y72.186
N2658 X70.978 Y72.453
N2659 X70.796 Y72.689
N2660 X70.604 Y72.898
N2661 X70.402 Y73.086
N2662 X70.192 Y73.253
N2663 X69.974 Y73.398
N2664 X69.754 Y73.522
N2665 X69.529 Y73.624
N2666 X69.302 Y73.707
N2667 X69.071 Y73.77
N2668 X68.78 Y73.825
N2669 X68.361 Y73.871
N2670 X67.737 Y73.887
N2671 X67.113 Y73.892
N2672 X66.49 Y73.926
N2673 X65.87 Y73.994
N2674 X65.253 Y74.086
N2675 X64.638 Y74.193
N2676 X64.024 Y74.305
N2677 X63.41 Y74.413
N2678 X62.793 Y74.51
N2679 X62.175 Y74.594
N2680 X61.554 Y74.658
N2681 X60.932 Y74.702
N2682 X60.308 Y74.722
N2683 X59.684 Y74.718
N2684 X59.061 Y74.687
N2685 X58.44 Y74.631
N2686 X57.821 Y74.55
N2687 X57.206 Y74.443
N2688 X56.597 Y74.31
N2689 X55.98 Y74.219
N2690 X55.356 Y74.228
N2691 X54.736 Y74.302
N2692 X54.12 Y74.398
N2693 X53.501 Y74.477
N2694 X53.01 Y74.504
N2695 X52.583 Y74.494
N2696 X52.215 Y74.455
N2697 X51.877 Y74.392
N2698 X51.563 Y74.306
N2699 X51.275 Y74.203
N2700 X51.013 Y74.084
N2701 X50.771 Y73.949
N2702 X50.547 Y73.8
N2703 X50.341 Y73.639
N2704 X50.154 Y73.465
N2705 X49.986 Y73.283
N2706 X49.837 Y73.092
N2707 X49.707 Y72.893
N2708 X49.567 Y72.638
N2709 X49.393 Y72.251
N2710 X49.184 Y71.663
N2711 X48.988 Y71.07
N2712 X48.763 Y70.488
N2713 X48.508 Y69.919
N2714 X48.23 Y69.36
N2715 X47.939 Y68.808
N2716 X47.643 Y68.259
N2717 X47.351 Y67.708
N2718 X47.067 Y67.152
N2719 X46.797 Y66.59
N2720 X46.543 Y66.02
N2721 X46.309 Y65.441
N2722 X46.097 Y64.854
N2723 X45.909 Y64.259
N2724 X45.745 Y63.657
N2725 X45.605 Y63.049
N2726 X45.491 Y62.436
N2727 X45.402 Y61.818
N2728 X45.339 Y61.198
N2729 X45.243 Y60.581
N2730 X45.047 Y59.989
N2731 X44.788 Y59.421
N2732 X44.507 Y58.864
N2733 X44.24 Y58.3
N2734 X44.059 Y57.837
N2735 X43.936 Y57.427
N2736 X43.858 Y57.065
N2737 X43.813 Y56.723
N2738 X43.796 Y56.4
N2739 X43.805 Y56.097
N2740 X43.836 Y55.81
N2741 X43.888 Y55.539
N2742 X43.96 Y55.28
N2743 X44.05 Y55.035
N2744 X44.156 Y54.803
N2745 X44.277 Y54.587
N2746 X44.412 Y54.386
N2747 X44.56 Y54.201
N2748 X44.758 Y53.989
N2749 X45.07 Y53.705
N2750 X45.564 Y53.323
N2751 X46.066 Y52.952
N2752 X46.55 Y52.558
N2753 X47.012 Y52.139
N2754 X47.457 Y51.702
N2755 X47.891 Y51.254
N2756 X48.322 Y50.803
N2757 X48.756 Y50.354
N2758 X49.197 Y49.913
N2759 X49.649 Y49.482
N2760 X50.113 Y49.066
N2761 X50.591 Y48.665
N2762 X51.084 Y48.282
N2763 X51.592 Y47.919
N2764 X52.113 Y47.576
N2765 X52.648 Y47.255
N2766 X53.195 Y46.956
N2767 X53.755 Y46.68
N2768 X54.326 Y46.427
N2769 X54.879 Y46.139
N2770 X55.379 Y45.766
N2771 X55.838 Y45.343
N2772 X56.28 Y44.903
N2773 X56.734 Y44.475
N2774 X57.117 Y44.162
N2775 X57.47 Y43.918
N2776 X57.791 Y43.732
N2777 X58.103 Y43.583
N2778 X58.408 Y43.467
N2779 X58.699 Y43.382
N2780 X58.983 Y43.323
N2781 X59.26 Y43.288
N2782 X59.529 Y43.277
N2783 X59.79 Y43.287
N2784 X60.044 Y43.317
N2785 X60.289 Y43.366
N2786 X60.522 Y43.432
N2787 X60.745 Y43.516
N2788 X61.007 Y43.639
N2789 X61.369 Y43.845
N2790 X61.884 Y44.198
N2791 X62.39 Y44.563
N2792 X62.913 Y44.902
N2793 X63.454 Y45.214
N2794 X64.007 Y45.502
N2795 X64.567 Y45.778
N2796 X65.129 Y46.049
N2797 X65.69 Y46.322
N2798 X66.246 Y46.605
N2799 X66.795 Y46.9
N2800 X67.336 Y47.212
N2801 X67.865 Y47.542
N2802 X68.382 Y47.892
N2803 X68.884 Y48.262
N2804 X69.371 Y48.652
N2805 X69.842 Y49.062
N2806 X70.295 Y49.491
N2807 X70.731 Y49.938
N2808 X71.147 Y50.402
N2809 X71.587 Y50.845
N2810 X72.093 Y51.21
N2811 X72.636 Y51.518
N2812 X73.19 Y51.803
N2813 X73.738 Y52.102
N2814 X74.158 Y52.369
N2815 X74.501 Y52.629
N2816 X74.778 Y52.875
N2817 X75.016 Y53.125
N2818 X75.222 Y53.379
N2819 X75.395 Y53.63
N2820 X75.538 Y53.88
N2821 X75.656 Y54.13
N2822 X75.751 Y54.381
N2823 X75.823 Y54.631
N2824 X75.874 Y54.88
N2825 X75.903 Y55.127
N2826 X75.913 Y55.371
N2827 X75.903 Y55.61
N2828 X75.868 Y55.897
N2829 X75.785 Y56.304
N2830 X75.611 Y56.903
N2831 X75.424 Y57.498
N2832 X75.273 Y58.104
N2833 X75.169 Y58.719
N2834 X75.105 Y59.34
N2835 X75.072 Y59.963
N2836 X75.055 Y60.587
N2837 X75.042 Y61.21
N2838 X75.025 Y61.834
N2839 X74.995 Y62.457
N2840 X74.947 Y63.079
N2841 X74.877 Y63.699
N2842 X74.782 Y64.316
N2843 X74.659 Y64.928
N2844 X74.505 Y65.532
N2845 X74.322 Y66.129
N2846 X74.108 Y66.715
N2847 X73.866 Y67.29
N2848 X73.625 Y67.866
N2849 X73.431 Y68.459
N2850 X73.279 Y69.064
N2851 X73.151 Y69.674
N2852 X73.025 Y70.286
N2853 X72.88 Y70.892
N2854 X72.697 Y71.489
N2855 X72.507 Y71.969
N2856 X72.297 Y72.396
N2857 X72.069 Y72.778
N2858 X71.992 Y72.886
N2859 X71.968 Y72.917
N2860 X71.943 Y72.947
N2861 X71.916 Y72.976
N2862 X71.801 Y73.09
N2863 X71.675 Y73.21
N2864 X71.251 Y73.563
N2865 X71.109 Y73.67
N2866 X70.561 Y74.081
N2867 X70.216 Y74.313
N2868 X69.976 Y74.448
N2869 X69.685 Y74.582
N2870 X69.371 Y74.697
N2871 X68.947 Y74.815
N2872 X68.334 Y74.934
N2873 X67.714 Y75.007
N2874 X67.094 Y75.072
N2875 X66.474 Y75.144
N2876 X65.856 Y75.23
N2877 X65.239 Y75.326
N2878 X64.008 Y75.528
N2879 X63.392 Y75.624
N2880 X62.773 Y75.709
N2881 X62.154 Y75.781
N2882 X61.532 Y75.836
N2883 X60.909 Y75.872
N2884 X60.286 Y75.887
N2885 X59.662 Y75.88
N2886 X59.038 Y75.851
N2887 X58.417 Y75.798
N2888 X57.797 Y75.721
N2889 X57.181 Y75.622
N2890 X56.563 Y75.539
N2891 X55.94 Y75.51
N2892 X55.316 Y75.532
N2893 X54.694 Y75.579
N2894 X54.072 Y75.628
N2895 X53.449 Y75.656
N2896 X52.861 Y75.648
N2897 X52.333 Y75.598
N2898 X51.857 Y75.514
N2899 X51.612 Y75.45
N2900 X51.557 Y75.434
N2901 X51.504 Y75.413
N2902 X51.453 Y75.387
N2903 X50.731 Y74.993
N2904 X50.627 Y74.93
N2905 X50.196 Y74.647
N2906 X49.74 Y74.306
N2907 X49.467 Y74.08
N2908 X49.265 Y73.883
N2909 X49.054 Y73.641
N2910 X48.834 Y73.343
N2911 X48.578 Y72.932
N2912 X48.292 Y72.378
N2913 X48.036 Y71.809
N2914 X47.782 Y71.239
N2915 X47.518 Y70.673
N2916 X47.243 Y70.113
N2917 X46.959 Y69.558
N2918 X46.672 Y69.004
N2919 X46.386 Y68.449
N2920 X46.106 Y67.892
N2921 X45.837 Y67.329
N2922 X45.582 Y66.759
N2923 X45.343 Y66.183
N2924 X45.122 Y65.599
N2925 X44.922 Y65.008
N2926 X44.743 Y64.411
N2927 X44.586 Y63.807
N2928 X44.451 Y63.198
N2929 X44.34 Y62.584
N2930 X44.244 Y61.967
N2931 X44.123 Y61.355
N2932 X43.945 Y60.757
N2933 X43.724 Y60.174
N2934 X43.483 Y59.598
N2935 X43.247 Y59.02
N2936 X43.037 Y58.433
N2937 X42.876 Y57.863
N2938 X42.778 Y57.365
N2939 X42.726 Y56.912
N2940 X42.72 Y56.73
N2941 X42.721 Y56.672
N2942 X42.726 Y56.615
N2943 X42.736 Y56.558
N2944 X43.018 Y55.259
N2945 X43.053 Y55.118
N2946 X43.089 Y54.976
N2947 X43.194 Y54.693
N2948 X43.374 Y54.274
N2949 X43.52 Y53.999
N2950 X43.696 Y53.723
N2951 X43.947 Y53.392
N2952 X44.317 Y52.977
N2953 X44.768 Y52.546
N2954 X45.232 Y52.129
N2955 X45.693 Y51.708
N2956 X46.146 Y51.279
N2957 X46.59 Y50.841
N2958 X47.03 Y50.398
N2959 X47.468 Y49.954
N2960 X47.909 Y49.512
N2961 X48.356 Y49.077
N2962 X48.811 Y48.651
N2963 X49.278 Y48.236
N2964 X49.756 Y47.835
N2965 X50.247 Y47.451
N2966 X50.751 Y47.083
N2967 X51.269 Y46.734
N2968 X51.799 Y46.405
N2969 X52.34 Y46.096
N2970 X52.894 Y45.807
N2971 X53.449 Y45.523
N2972 X53.98 Y45.196
N2973 X54.481 Y44.824
N2974 X54.961 Y44.425
N2975 X55.433 Y44.017
N2976 X55.915 Y43.62
N2977 X56.416 Y43.249
N2978 X56.87 Y42.962
N2979 X57.302 Y42.736
N2980 X57.721 Y42.557
N2981 X57.79 Y42.534
N2982 X57.846 Y42.518
N2983 X57.904 Y42.506
N2984 X57.962 Y42.5
N2985 X59.505 Y42.389
N2986 X59.918 Y42.38
N2987 X60.194 Y42.397
N2988 X60.474 Y42.436
N2989 X60.792 Y42.507
N2990 X61.141 Y42.615
N2991 X61.581 Y42.791
N2992 X62.14 Y43.068
N2993 X62.682 Y43.378
N2994 X63.221 Y43.691
N2995 X63.766 Y43.996
N2996 X64.317 Y44.288
N2997 X64.873 Y44.572
N2998 X65.431 Y44.851
N2999 X65.988 Y45.131
N3000 X66.543 Y45.418
N3001 X67.092 Y45.714
N3002 X67.634 Y46.023
N3003 X68.167 Y46.347
N3004 X68.69 Y46.688
N3005 X69.2 Y47.046
N3006 X69.698 Y47.422
N3007 X70.182 Y47.816
N3008 X70.651 Y48.228
N3009 X71.104 Y48.657
N3010 X71.544 Y49.1
N3011 X71.999 Y49.526
N3012 X72.491 Y49.91
N3013 X73.011 Y50.255
N3014 X73.543 Y50.58
N3015 X74.074 Y50.908
N3016 X74.593 Y51.255
N3017 X75.062 Y51.619
N3018 X75.449 Y51.973
N3019 X75.762 Y52.308
N3020 X75.971 Y52.571
N3021 X76.011 Y52.627
N3022 X76.045 Y52.686
N3023 X76.073 Y52.748
N3024 X76.204 Y53.078
N3025 X76.628 Y54.216
N3026 X76.749 Y54.596
N3027 X76.811 Y54.864
N3028 X76.856 Y55.17
N3029 X76.877 Y55.489
N3030 X76.871 Y55.898
N3031 X76.819 Y56.445
N3032 X76.71 Y57.059
N3033 X76.588 Y57.671
N3034 X76.481 Y58.286
N3035 X76.398 Y58.904
N3036 X76.34 Y59.525
N3037 X76.301 Y60.148
N3038 X76.271 Y60.771
N3039 X76.244 Y61.395
N3040 X76.212 Y62.018
N3041 X76.168 Y62.64
N3042 X76.109 Y63.261
N3043 X76.031 Y63.881
N3044 X75.931 Y64.496
N3045 X75.807 Y65.108
N3046 X75.656 Y65.713
N3047 X75.478 Y66.311
N3048 X75.274 Y66.901
N3049 X75.053 Y67.485
N3050 X74.846 Y68.073
N3051 X74.665 Y68.67
N3052 X74.506 Y69.273
N3053 X74.359 Y69.88
N3054 X74.28 Y70.203
N3055 X74.251 Y70.292
N3056 X74.211 Y70.376
N3057 X74.16 Y70.455
N3058 X73.657 Y71.128
N3059 X73.563 Y71.251
N3060 X73.21 Y71.675
N3061 X73.09 Y71.801
N3062 X71.916 Y72.976
N3063 G3 X71.678 Y73.062 Z-2.889 I-0.212 J-0.212
N3064 G1 X71.626 Z-2.867
N3065 X71.574 Y73.071 Z-2.844
N3066 X71.525 Y73.089 Z-2.822
N3067 X71.48 Y73.115 Z-2.8
N3068 X71.466 Y73.125
N3069 X71.265 Y73.284
N3070 X71.005 Y73.488
N3071 X70.968 Y73.523
N3072 X70.937 Y73.564
N3073 X70.914 Y73.609
N3074 X70.86 Y73.722
N3075 G3 X70.561 Y74.081 Z-3. I-1.044 J-0.565
N3076 G1 X69.804 Y74.647
N3077 X69.373 Y74.93
N3078 X69.269 Y74.993
N3079 X68.088 Y75.638
N3080 X67.619 Y75.864
N3081 X67.151 Y76.046
N3082 X66.553 Y76.223
N3083 X65.946 Y76.367
N3084 X65.335 Y76.492
N3085 X64.721 Y76.606
N3086 X64.106 Y76.711
N3087 X63.489 Y76.804
N3088 X62.871 Y76.886
N3089 X62.25 Y76.954
N3090 X61.629 Y77.006
N3091 X61.006 Y77.04
N3092 X60.382 Y77.056
N3093 X59.758 Y77.051
N3094 X59.134 Y77.026
N3095 X58.512 Y76.979
N3096 X57.892 Y76.91
N3097 X57.273 Y76.836
N3098 X56.651 Y76.785
N3099 X56.027 Y76.769
N3100 X55.403 Y76.779
N3101 X54.833 Y76.801
N3102 X54.741 Y76.799
N3103 X54.65 Y76.784
N3104 X54.562 Y76.757
N3105 X53.078 Y76.204
N3106 X52.712 Y76.059
N3107 X52.57 Y75.997
N3108 X51.453 Y75.387
N3109 G3 X51.303 Y75.183 Z-2.889 I0.144 J-0.263
N3110 G1 X51.288 Y75.133 Z-2.867
N3111 X51.265 Y75.086 Z-2.844
N3112 X51.234 Y75.044 Z-2.822
N3113 X51.196 Y75.008 Z-2.8
N3114 X51.171 Y74.99
N3115 X50.967 Y74.859
N3116 X50.606 Y74.627
N3117 X50.565 Y74.604
N3118 X50.522 Y74.589
N3119 X50.476 Y74.58
N3120 G3 X50.161 Y74.514 I0.168 J-1.574
N3121 X49.74 Y74.306 Z-3. I0.483 J-1.507
N3122 G1 X48.872 Y73.657
N3123 X48.749 Y73.563
N3124 X48.325 Y73.21
N3125 X48.199 Y73.09
N3126 X47.491 Y72.383
N3127 X47.154 Y72.011
N3128 X46.788 Y71.534
N3129 X46.449 Y71.01
N3130 X46.132 Y70.472
N3131 X45.828 Y69.927
N3132 X45.534 Y69.377
N3133 X45.249 Y68.822
N3134 X44.973 Y68.262
N3135 X44.71 Y67.697
N3136 X44.461 Y67.125
N3137 X44.227 Y66.546
N3138 X44.01 Y65.961
N3139 X43.812 Y65.37
N3140 X43.633 Y64.772
N3141 X43.474 Y64.169
N3142 X43.336 Y63.56
N3143 X43.215 Y62.948
N3144 X43.088 Y62.337
N3145 X42.931 Y61.733
N3146 X42.743 Y61.138
N3147 X42.534 Y60.55
N3148 X42.414 Y60.226
N3149 X42.391 Y60.147
N3150 X42.376 Y60.066
N3151 X42.371 Y59.984
N3152 Y59.788
N3153 X42.381 Y59.62
N3154 X42.501 Y57.948
N3155 X42.512 Y57.806
N3156 X42.538 Y57.523
N3157 X42.557 Y57.382
N3158 X42.736 Y56.558
N3159 G3 X42.889 Y56.356 Z-2.889 I0.293 J0.064
N3160 G1 X42.933 Y56.328 Z-2.867
N3161 X42.972 Y56.292 Z-2.844
N3162 X43.003 Y56.251 Z-2.822
N3163 X43.027 Y56.205 Z-2.8
N3164 X43.046 Y56.14
N3165 X43.079 Y55.936
N3166 X43.139 Y55.579
N3167 X43.143 Y55.528
N3168 X43.138 Y55.476
N3169 G3 X43.113 Y55.155 I1.557 J-0.282
N3170 X43.194 Y54.693 Z-3. I1.582 J0.039
N3171 G1 X43.796 Y53.078
N3172 X43.941 Y52.712
N3173 X44.003 Y52.57
N3174 X44.362 Y51.912
N3175 X44.688 Y51.38
N3176 X45.051 Y50.872
N3177 X45.449 Y50.392
N3178 X45.865 Y49.927
N3179 X46.292 Y49.471
N3180 X46.726 Y49.023
N3181 X47.167 Y48.582
N3182 X47.617 Y48.15
N3183 X48.076 Y47.728
N3184 X48.546 Y47.317
N3185 X49.027 Y46.919
N3186 X49.519 Y46.535
N3187 X50.023 Y46.168
N3188 X50.539 Y45.817
N3189 X51.067 Y45.484
N3190 X51.606 Y45.17
N3191 X52.152 Y44.867
N3192 X52.688 Y44.549
N3193 X53.208 Y44.203
N3194 X53.71 Y43.833
N3195 X54.289 Y43.38
N3196 X54.348 Y43.338
N3197 X54.411 Y43.303
N3198 X54.477 Y43.274
N3199 X54.976 Y43.089
N3200 X55.118 Y43.053
N3201 X55.259 Y43.018
N3202 X57.382 Y42.557
N3203 X57.523 Y42.538
N3204 X57.806 Y42.512
N3205 X57.962 Y42.5
N3206 G3 X58.199 Y42.59 Z-2.889 I0.021 J0.299
N3207 G1 X58.245 Y42.629 Z-2.863
N3208 X58.298 Y42.658 Z-2.837
N3209 X58.356 Y42.676 Z-2.812
N3210 X58.383 Y42.681 Z-2.8
N3211 X58.539 Y42.712
N3212 X58.599 Y42.717
N3213 X58.659 Y42.711
N3214 X58.716 Y42.693
N3215 X58.769 Y42.664
N3216 G3 X59.051 Y42.508 I0.904 J1.299
N3217 X59.505 Y42.389 Z-3. I0.622 J1.455
N3218 G1 X59.646 Y42.379
N3219 X59.788 Y42.371
N3220 X60.212
N3221 X60.38 Y42.381
N3222 X62.052 Y42.501
N3223 X62.194 Y42.512
N3224 X62.477 Y42.538
N3225 X62.618 Y42.557
N3226 X63.043 Y42.649
N3227 X63.645 Y42.812
N3228 X64.233 Y43.02
N3229 X64.809 Y43.261
N3230 X65.377 Y43.519
N3231 X65.94 Y43.787
N3232 X66.499 Y44.064
N3233 X67.054 Y44.35
N3234 X67.602 Y44.648
N3235 X68.144 Y44.957
N3236 X68.677 Y45.281
N3237 X69.201 Y45.62
N3238 X69.714 Y45.975
N3239 X70.216 Y46.346
N3240 X70.705 Y46.734
N3241 X71.18 Y47.138
N3242 X71.642 Y47.558
N3243 X72.099 Y47.982
N3244 X72.571 Y48.39
N3245 X73.065 Y48.772
N3246 X73.575 Y49.13
N3247 X74.026 Y49.432
N3248 X74.089 Y49.479
N3249 X74.146 Y49.533
N3250 X74.197 Y49.594
N3251 X74.647 Y50.196
N3252 X74.93 Y50.627
N3253 X74.993 Y50.731
N3254 X75.997 Y52.57
N3255 X76.062 Y52.72
N3256 X76.073 Y52.748
N3257 G3 X76.058 Y53.001 Z-2.889 I-0.279 J0.11
N3258 G1 X76.035 Y53.057 Z-2.863
N3259 X76.023 Y53.117 Z-2.837
N3260 X76.024 Y53.177 Z-2.812
N3261 X76.027 Y53.204 Z-2.8
N3262 X76.048 Y53.387
N3263 X76.06 Y53.444
N3264 X76.083 Y53.498
N3265 X76.116 Y53.546
N3266 X76.158 Y53.587
N3267 G3 X76.387 Y53.814 I-0.992 J1.233
N3268 X76.628 Y54.216 Z-3. I-1.221 J1.007
N3269 G1 X76.911 Y54.976
N3270 X76.947 Y55.118
N3271 X76.982 Y55.259
N3272 X77.382 Y57.099
N3273 X77.413 Y57.24
N3274 X77.429 Y57.318
N3275 X77.457 Y57.485
N3276 G3 X77.186 Y57.812 Z-2.8 I-0.299 J0.028
N3277 X76.862 Y57.56 I-0.028 J-0.299
N3278 G1 X76.842 Y57.439
N3279 G3 X77.065 Y57.101 I0.296 J-0.047
N3280 X77.429 Y57.318 Z-3. I0.074 J0.291
N3281 G1 X77.443 Y57.382
N3282 X77.462 Y57.523
N3283 X77.489 Y58.147
N3284 X77.51 Y58.77
N3285 X77.505 Y59.394
N3286 X77.489 Y60.018
N3287 X77.469 Y60.642
N3288 X77.443 Y61.265
N3289 X77.41 Y61.888
N3290 X77.366 Y62.511
N3291 X77.308 Y63.132
N3292 X77.279 Y63.366
N3293 X77.271 Y63.409
N3294 G3 X76.907 Y63.626 Z-2.8 I-0.291 J-0.074
N3295 X76.681 Y63.326 I0.074 J-0.291
N3296 G1 X76.866 Y57.563
N3297 G3 X77.117 Y57.276 I0.3 J0.01
N3298 X77.462 Y57.523 Z-3. I0.049 J0.296
N3299 G1 X77.488 Y57.806
N3300 X77.499 Y57.948
N3301 X77.621 Y59.646
N3302 X77.629 Y59.788
N3303 Y60.212
N3304 X77.619 Y60.38
N3305 X77.499 Y62.052
N3306 X77.488 Y62.194
N3307 X77.462 Y62.477
N3308 X77.443 Y62.618
N3309 X76.982 Y64.741
N3310 X76.947 Y64.882
N3311 X76.911 Y65.024
N3312 X76.204 Y66.922
N3313 X76.059 Y67.288
N3314 X75.997 Y67.43
N3315 X74.993 Y69.269
N3316 X74.93 Y69.373
N3317 X74.647 Y69.804
N3318 X74.16 Y70.455
N3319 X74.121 Y70.495 Z-2.976
N3320 X73.806 Y70.764 Z-2.8
N3321 X73.597 Y70.942
N3322 X68.657 Y75.158
N3323 X68.449 Y75.336
N3324 X68.13 Y75.608 Z-2.978
N3325 X68.088 Y75.638 Z-3.
N3326 X67.43 Y75.997
N3327 X67.28 Y76.062
N3328 X66.922 Y76.204
N3329 X65.024 Y76.911
N3330 X64.882 Y76.947
N3331 X64.741 Y76.982
N3332 X62.618 Y77.443
N3333 X62.477 Y77.462
N3334 X62.194 Y77.488
N3335 X62.052 Y77.499
N3336 X60.354 Y77.621
N3337 X60.212 Y77.629
N3338 X59.788
N3339 X59.62 Y77.619
N3340 X57.948 Y77.499
N3341 X57.806 Y77.488
N3342 X57.523 Y77.462
N3343 X57.382 Y77.443
N3344 X55.259 Y76.982
N3345 X55.118 Y76.947
N3346 X54.976 Y76.911
N3347 X54.562 Y76.757
N3348 X54.513 Y76.73 Z-2.976
N3349 X54.472 Y76.692 Z-2.952
N3350 X54.44 Y76.645 Z-2.928
N3351 X54.421 Y76.592 Z-2.904
N3352 X54.358 Y76.355 Z-2.8
N3353 G2 X53.643 Y74.807 I-5.389 J1.55
N3354 G1 X53.601 Y74.757
N3355 X53.55 Y74.717
N3356 X49.775 Y72.382
N3357 X49.716 Y72.354
N3358 X49.653 Y72.34
N3359 G2 X47.94 Y72.393 I-0.685 J5.566
N3360 G1 X47.709 Y72.441 Z-2.9
N3361 X47.65 Y72.447 Z-2.925
N3362 X47.592 Y72.439 Z-2.95
N3363 X47.538 Y72.417 Z-2.975
N3364 X47.491 Y72.383 Z-3.
N3365 X46.91 Y71.801
N3366 X46.79 Y71.675
N3367 X46.437 Y71.251
N3368 X46.33 Y71.109
N3369 X45.353 Y69.804
N3370 X45.07 Y69.373
N3371 X45.007 Y69.269
N3372 X44.003 Y67.43
N3373 X43.938 Y67.28
N3374 X43.796 Y66.922
N3375 X43.089 Y65.024
N3376 X43.053 Y64.882
N3377 X43.018 Y64.741
N3378 X42.557 Y62.618
N3379 X42.538 Y62.477
N3380 X42.512 Y62.194
N3381 X42.501 Y62.052
N3382 X42.379 Y60.354
N3383 X42.371 Y60.212
N3384 Y59.984
N3385 X42.38 Y59.929 Z-2.976
N3386 X42.401 Y59.876 Z-2.952
N3387 X42.434 Y59.831 Z-2.928
N3388 X42.477 Y59.794 Z-2.904
N3389 X42.677 Y59.653 Z-2.8
N3390 G2 X44.678 Y57.027 I-3.487 J-4.732
N3391 G1 X44.689 Y56.991
N3392 X45.021 Y55.643
N3393 X45.028 Y55.606
N3394 G2 X44.475 Y52.347 I-5.838 J-0.685
N3395 G1 X44.365 Y52.133 Z-2.902
N3396 X44.344 Y52.08 Z-2.927
N3397 X44.337 Y52.023 Z-2.951
N3398 X44.343 Y51.966 Z-2.976
N3399 X44.362 Y51.912 Z-3.
N3400 X45.007 Y50.731
N3401 X45.07 Y50.627
N3402 X45.353 Y50.196
N3403 X46.344 Y48.872
N3404 X46.437 Y48.749
N3405 X46.79 Y48.325
N3406 X46.91 Y48.199
N3407 X48.199 Y46.91
N3408 X48.325 Y46.79
N3409 X48.749 Y46.437
N3410 X48.891 Y46.33
N3411 X50.196 Y45.353
N3412 X50.627 Y45.07
N3413 X50.731 Y45.007
N3414 X52.57 Y44.003
N3415 X52.72 Y43.938
N3416 X53.078 Y43.796
N3417 X54.477 Y43.274
N3418 X54.514 Y43.265 Z-2.984
N3419 X54.551 Y43.26 Z-2.968
N3420 X54.946 Y43.231 Z-2.8
N3421 X55.219 Y43.211
N3422 X62.3 Y42.694
N3423 X62.573 Y42.674
N3424 X62.967 Y42.645 Z-2.968
N3425 X63.005 Z-2.984
N3426 X63.043 Y42.649 Z-3.
N3427 X64.741 Y43.018
N3428 X64.882 Y43.053
N3429 X65.024 Y43.089
N3430 X66.922 Y43.796
N3431 X67.288 Y43.941
N3432 X67.43 Y44.003
N3433 X69.269 Y45.007
N3434 X69.373 Y45.07
N3435 X69.804 Y45.353
N3436 X71.128 Y46.344
N3437 X71.251 Y46.437
N3438 X71.675 Y46.79
N3439 X71.801 Y46.91
N3440 X73.09 Y48.199
N3441 X73.21 Y48.325
N3442 X73.563 Y48.749
N3443 X73.67 Y48.891
N3444 X74.197 Y49.594
N3445 G3 X74.11 Y50.019 I-0.246 J0.171
N3446 G1 X74.059 Y50.035 Z-2.995
N3447 X74.011 Y50.05 Z-2.981
N3448 X73.965 Y50.065 Z-2.958
N3449 X73.95 Z-2.948
N3450 X73.907 Y50.055 Z-2.911
N3451 X73.871 Y50.047 Z-2.866
N3452 X73.845 Y50.041 Z-2.814
N3453 X73.828 Y50.038 Z-2.758
N3454 X73.823 Y50.037 Z-2.7
N3455 Z5.
N3456 X66.744 Y61.784
N3457 Z-3.9
N3458 Z-4.2
N3459 X66.751 Y61.783 Z-4.267
N3460 X66.774 Z-4.33
N3461 X66.809 Y61.781 Z-4.387
N3462 X66.857 Y61.779 Z-4.435
N3463 X66.914 Y61.777 Z-4.47
N3464 X66.977 Y61.775 Z-4.492
N3465 X67.044 Y61.773 Z-4.5
N3466 G3 X68.689 Y61.89 I0.28 J7.654
N3467 G1 X68.836 Y61.922
N3468 X68.942 Y62.028
N3469 X69.023 Y62.154
N3470 X69.086 Y62.291
N3471 X69.135 Y62.433
N3472 X69.173 Y62.578
N3473 X69.196 Y62.726
N3474 X69.21 Y62.907
N3475 X69.208 Y63.13
N3476 X69.183 Y63.412
N3477 X69.121 Y63.779
N3478 X69.024 Y64.162
N3479 X68.915 Y64.485
N3480 X68.728 Y64.917
N3481 X68.435 Y65.467
N3482 X68.13 Y65.955
N3483 X67.78 Y66.428
N3484 X67.369 Y66.897
N3485 X66.936 Y67.346
N3486 X66.473 Y67.764
N3487 X65.978 Y68.145
N3488 X65.467 Y68.503
N3489 X64.933 Y68.826
N3490 X64.377 Y69.108
N3491 X63.808 Y69.365
N3492 X63.224 Y69.584
N3493 X62.625 Y69.758
N3494 X62.019 Y69.907
N3495 X61.404 Y70.014
N3496 X60.783 Y70.075
N3497 X60.16 Y70.109
N3498 X59.536 Y70.101
N3499 X58.915 Y70.046
N3500 X58.296 Y69.966
N3501 X57.684 Y69.843
N3502 X57.083 Y69.675
N3503 X56.49 Y69.482
N3504 X55.911 Y69.248
N3505 X55.352 Y68.972
N3506 X54.804 Y68.673
N3507 X54.278 Y68.337
N3508 X53.779 Y67.963
N3509 X53.296 Y67.568
N3510 X52.841 Y67.141
N3511 X52.419 Y66.681
N3512 X52.017 Y66.205
N3513 X51.649 Y65.701
N3514 X51.319 Y65.171
N3515 X51.011 Y64.629
N3516 X50.742 Y64.066
N3517 X50.515 Y63.485
N3518 X50.312 Y62.894
N3519 X50.151 Y62.292
N3520 X50.036 Y61.678
N3521 X49.945 Y61.061
N3522 X49.898 Y60.439
N3523 X49.897 Y59.815
N3524 X49.921 Y59.192
N3525 X49.99 Y58.571
N3526 X50.104 Y57.958
N3527 X50.242 Y57.35
N3528 X50.424 Y56.753
N3529 X50.649 Y56.171
N3530 X50.897 Y55.598
N3531 X51.186 Y55.045
N3532 X51.514 Y54.514
N3533 X51.863 Y53.997
N3534 X52.249 Y53.507
N3535 X52.669 Y53.046
N3536 X53.107 Y52.602
N3537 X53.577 Y52.191
N3538 X54.075 Y51.815
N3539 X54.587 Y51.459
N3540 X55.125 Y51.142
N3541 X55.683 Y50.864
N3542 X56.252 Y50.608
N3543 X56.839 Y50.395
N3544 X57.439 Y50.225
N3545 X58.046 Y50.079
N3546 X58.662 Y49.978
N3547 X59.283 Y49.921
N3548 X59.906 Y49.888
N3549 X60.53 Y49.903
N3550 X61.151 Y49.961
N3551 X61.769 Y50.044
N3552 X62.38 Y50.173
N3553 X62.98 Y50.345
N3554 X63.572 Y50.54
N3555 X64.149 Y50.779
N3556 X64.707 Y51.058
N3557 X65.253 Y51.359
N3558 X65.775 Y51.7
N3559 X66.272 Y52.078
N3560 X66.754 Y52.474
N3561 X67.205 Y52.906
N3562 X67.624 Y53.368
N3563 X68.025 Y53.846
N3564 X68.388 Y54.354
N3565 X68.715 Y54.885
N3566 X69.021 Y55.429
N3567 X69.284 Y55.994
N3568 X69.507 Y56.577
N3569 X69.708 Y57.168
N3570 X69.863 Y57.772
N3571 X69.975 Y58.386
N3572 X70.064 Y59.004
N3573 X70.104 Y59.626
N3574 X70.102 Y60.25
N3575 X70.13 Y60.874
N3576 X70.222 Y61.491
N3577 X70.303 Y62.109
N3578 X70.329 Y62.632
N3579 X70.314 Y63.136
N3580 X70.26 Y63.616
N3581 X70.165 Y64.109
N3582 X70.026 Y64.609
N3583 X69.82 Y65.169
N3584 X69.559 Y65.736
N3585 X69.254 Y66.28
N3586 X68.907 Y66.799
N3587 X68.527 Y67.293
N3588 X68.117 Y67.764
N3589 X67.898 Y67.986
N3590 X67.785 Y68.093
N3591 X67.329 Y68.519
N3592 X66.848 Y68.918
N3593 X66.346 Y69.287
N3594 X65.821 Y69.625
N3595 X65.279 Y69.933
N3596 X64.72 Y70.212
N3597 X64.147 Y70.459
N3598 X63.561 Y70.672
N3599 X62.964 Y70.855
N3600 X62.359 Y71.005
N3601 X61.745 Y71.117
N3602 X61.126 Y71.197
N3603 X60.504 Y71.242
N3604 X59.88 Y71.251
N3605 X59.257 Y71.226
N3606 X58.635 Y71.169
N3607 X58.018 Y71.076
N3608 X57.408 Y70.948
N3609 X56.804 Y70.79
N3610 X56.21 Y70.598
N3611 X55.63 Y70.37
N3612 X55.062 Y70.112
N3613 X54.785 Y69.967
N3614 X54.717 Y69.929
N3615 X54.173 Y69.623
N3616 X53.649 Y69.286
N3617 X53.142 Y68.922
N3618 X52.657 Y68.529
N3619 X52.197 Y68.108
N3620 X51.759 Y67.662
N3621 X51.347 Y67.194
N3622 X50.963 Y66.703
N3623 X50.606 Y66.191
N3624 X50.276 Y65.661
N3625 X49.977 Y65.114
N3626 X49.71 Y64.55
N3627 X49.471 Y63.973
N3628 X49.265 Y63.384
N3629 X49.097 Y62.784
N3630 X48.96 Y62.175
N3631 X48.856 Y61.56
N3632 X48.788 Y60.939
N3633 X48.754 Y60.316
N3634 X48.752 Y59.692
N3635 X48.786 Y59.069
N3636 X48.856 Y58.449
N3637 X48.906 Y58.141
N3638 X49.042 Y57.453
N3639 X49.2 Y56.849
N3640 X49.392 Y56.256
N3641 X49.614 Y55.672
N3642 X49.869 Y55.103
N3643 X50.156 Y54.549
N3644 X50.472 Y54.011
N3645 X50.818 Y53.491
N3646 X51.194 Y52.994
N3647 X51.597 Y52.517
N3648 X52.024 Y52.062
N3649 X52.477 Y51.633
N3650 X52.953 Y51.23
N3651 X53.449 Y50.851
N3652 X53.965 Y50.501
N3653 X54.502 Y50.182
N3654 X55.053 Y49.891
N3655 X55.621 Y49.632
N3656 X56.203 Y49.407
N3657 X56.796 Y49.214
N3658 X57.399 Y49.052
N3659 X58.01 Y48.926
N3660 X58.318 Y48.88
N3661 X58.473 Y48.86
N3662 X59.093 Y48.786
N3663 X59.716 Y48.751
N3664 X60.34 Y48.754
N3665 X60.962 Y48.789
N3666 X61.582 Y48.859
N3667 X62.197 Y48.965
N3668 X62.805 Y49.105
N3669 X63.406 Y49.275
N3670 X63.995 Y49.48
N3671 X64.572 Y49.719
N3672 X65.136 Y49.985
N3673 X65.683 Y50.285
N3674 X66.211 Y50.617
N3675 X66.722 Y50.975
N3676 X67.212 Y51.362
N3677 X67.679 Y51.776
N3678 X68.122 Y52.215
N3679 X68.543 Y52.676
N3680 X68.936 Y53.16
N3681 X69.3 Y53.666
N3682 X69.64 Y54.19
N3683 X69.947 Y54.733
N3684 X70.084 Y55.013
N3685 X70.375 Y55.652
N3686 X70.603 Y56.233
N3687 X70.796 Y56.826
N3688 X70.955 Y57.43
N3689 X71.083 Y58.04
N3690 X71.175 Y58.657
N3691 X71.23 Y59.279
N3692 X71.27 Y59.902
N3693 X71.332 Y60.522
N3694 X71.402 Y61.142
N3695 X71.456 Y61.764
N3696 X71.479 Y62.388
N3697 X71.463 Y63.011
N3698 X71.399 Y63.632
N3699 X71.288 Y64.246
N3700 X71.13 Y64.85
N3701 X70.926 Y65.439
N3702 X70.68 Y66.013
N3703 X70.394 Y66.567
N3704 X70.071 Y67.101
N3705 X69.716 Y67.614
N3706 X69.332 Y68.106
N3707 X69.176 Y68.28
N3708 X69.1 Y68.416
N3709 X69.056 Y68.566
N3710 X69.037 Y68.877
N3711 X69.141 Y69.493
N3712 X69.309 Y70.077
N3713 X69.357 Y70.316
N3714 X69.39 Y70.592
N3715 X69.396 Y70.742
N3716 X69.387 Y70.892
N3717 X69.361 Y71.073
N3718 X69.328 Y71.22
N3719 X69.279 Y71.362
N3720 X69.214 Y71.497
N3721 X69.137 Y71.625
N3722 X69.046 Y71.744
N3723 X68.937 Y71.848
N3724 X68.818 Y71.938
N3725 X68.687 Y72.012
N3726 X68.545 Y72.062
N3727 X68.399 Y72.095
N3728 X68.249 Y72.099
N3729 X68.1 Y72.08
N3730 X67.955 Y72.041
N3731 X67.823 Y71.971
N3732 X67.701 Y71.883
N3733 X67.598 Y71.766
N3734 X67.351 Y71.576
N3735 X66.771 Y71.346
N3736 X66.147 Y71.326
N3737 X65.53 Y71.417
N3738 X64.923 Y71.561
N3739 X63.718 Y71.886
N3740 X63.113 Y72.036
N3741 X62.502 Y72.164
N3742 X61.886 Y72.267
N3743 X61.267 Y72.342
N3744 X60.645 Y72.389
N3745 X60.021 Y72.404
N3746 X59.397 Y72.388
N3747 X58.775 Y72.341
N3748 X58.156 Y72.263
N3749 X57.542 Y72.154
N3750 X56.933 Y72.015
N3751 X56.333 Y71.846
N3752 X55.742 Y71.647
N3753 X55.161 Y71.418
N3754 X54.949 Y71.32
N3755 X54.796 Y71.287
N3756 X54.64 Y71.289
N3757 X54.337 Y71.362
N3758 X53.783 Y71.649
N3759 X53.274 Y71.992
N3760 X53.107 Y72.086
N3761 X52.891 Y72.186
N3762 X52.692 Y72.259
N3763 X52.548 Y72.3
N3764 X52.4 Y72.325
N3765 X52.22 Y72.341
N3766 X52.07 Y72.342
N3767 X51.921 Y72.323
N3768 X51.776 Y72.287
N3769 X51.634 Y72.239
N3770 X51.501 Y72.17
N3771 X51.378 Y72.083
N3772 X51.266 Y71.983
N3773 X51.173 Y71.866
N3774 X51.099 Y71.735
N3775 X51.039 Y71.598
N3776 X51.012 Y71.45
N3777 X51.005 Y71.3
N3778 X51.027 Y71.152
N3779 X51.075 Y71.01
N3780 X51.216 Y70.732
N3781 X51.276 Y70.425
N3782 X51.259 Y69.802
N3783 X51.059 Y69.211
N3784 X50.769 Y68.658
N3785 X50.439 Y68.128
N3786 X50.098 Y67.606
N3787 X49.761 Y67.081
N3788 X49.437 Y66.548
N3789 X49.132 Y66.003
N3790 X48.851 Y65.446
N3791 X48.594 Y64.878
N3792 X48.364 Y64.298
N3793 X48.164 Y63.707
N3794 X47.993 Y63.107
N3795 X47.851 Y62.499
N3796 X47.741 Y61.885
N3797 X47.663 Y61.266
N3798 X47.616 Y60.644
N3799 X47.6 Y60.02
N3800 X47.615 Y59.396
N3801 X47.638 Y59.085
N3802 X47.653 Y58.93
N3803 X47.671 Y58.775
N3804 X47.689 Y58.62
N3805 X47.673 Y58.465
N3806 X47.623 Y58.317
N3807 X47.46 Y58.051
N3808 X46.992 Y57.638
N3809 X46.739 Y57.455
N3810 X46.426 Y57.198
N3811 X46.309 Y57.084
N3812 X46.177 Y56.934
N3813 X46.044 Y56.756
N3814 X45.964 Y56.629
N3815 X45.9 Y56.494
N3816 X45.843 Y56.34
N3817 X45.803 Y56.196
N3818 X45.782 Y56.047
N3819 X45.779 Y55.897
N3820 X45.791 Y55.748
N3821 X45.825 Y55.601
N3822 X45.88 Y55.462
N3823 X45.949 Y55.329
N3824 X46.042 Y55.211
N3825 X46.152 Y55.109
N3826 X46.273 Y55.02
N3827 X46.411 Y54.961
N3828 X46.555 Y54.921
N3829 X46.705 Y54.912
N3830 X46.854 Y54.928
N3831 X47.164 Y54.969
N3832 X47.47 Y54.909
N3833 X48.047 Y54.671
N3834 X48.537 Y54.285
N3835 X48.967 Y53.833
N3836 X49.367 Y53.354
N3837 X49.758 Y52.868
N3838 X50.153 Y52.385
N3839 X50.562 Y51.914
N3840 X50.989 Y51.459
N3841 X51.435 Y51.022
N3842 X51.9 Y50.606
N3843 X52.383 Y50.212
N3844 X52.886 Y49.842
N3845 X53.406 Y49.497
N3846 X53.942 Y49.178
N3847 X54.493 Y48.886
N3848 X55.059 Y48.623
N3849 X55.638 Y48.389
N3850 X56.227 Y48.185
N3851 X56.827 Y48.012
N3852 X57.13 Y47.94
N3853 X57.283 Y47.908
N3854 X57.436 Y47.878
N3855 X57.578 Y47.814
N3856 X57.703 Y47.721
N3857 X57.905 Y47.483
N3858 X58.171 Y46.918
N3859 X58.347 Y46.438
N3860 X58.5 Y46.107
N3861 X58.573 Y45.976
N3862 X58.676 Y45.823
N3863 X58.817 Y45.645
N3864 X58.92 Y45.536
N3865 X59.035 Y45.44
N3866 X59.164 Y45.353
N3867 X59.294 Y45.278
N3868 X59.432 Y45.22
N3869 X59.577 Y45.182
N3870 X59.725 Y45.157
N3871 X59.875 Y45.154
N3872 X60.024 Y45.174
N3873 X60.169 Y45.211
N3874 X60.306 Y45.273
N3875 X60.431 Y45.356
N3876 X60.546 Y45.452
N3877 X60.635 Y45.573
N3878 X60.707 Y45.704
N3879 X60.751 Y45.848
N3880 X60.788 Y46.158
N3881 X60.921 Y46.44
N3882 X61.302 Y46.934
N3883 X61.812 Y47.293
N3884 X62.372 Y47.57
N3885 X62.95 Y47.803
N3886 X63.534 Y48.024
N3887 X64.115 Y48.251
N3888 X64.691 Y48.491
N3889 X65.258 Y48.751
N3890 X65.813 Y49.035
N3891 X66.355 Y49.345
N3892 X66.881 Y49.68
N3893 X67.391 Y50.04
N3894 X67.883 Y50.424
N3895 X68.354 Y50.833
N3896 X68.804 Y51.265
N3897 X69.232 Y51.719
N3898 X69.636 Y52.194
N3899 X70.017 Y52.689
N3900 X70.372 Y53.202
N3901 X70.701 Y53.732
N3902 X70.776 Y53.869
N3903 X70.879 Y53.986
N3904 X71.006 Y54.077
N3905 X71.293 Y54.198
N3906 X71.915 Y54.252
N3907 X72.419 Y54.265
N3908 X72.731 Y54.298
N3909 X72.926 Y54.335
N3910 X73.07 Y54.374
N3911 X73.236 Y54.435
N3912 X73.403 Y54.512
N3913 X73.534 Y54.585
N3914 X73.654 Y54.675
N3915 X73.767 Y54.778
N3916 X73.869 Y54.888
N3917 X73.953 Y55.012
N3918 X74.021 Y55.146
N3919 X74.076 Y55.285
N3920 X74.105 Y55.432
N3921 X74.112 Y55.582
N3922 X74.105 Y55.732
N3923 X74.064 Y55.876
N3924 X74.005 Y56.014
N3925 X73.921 Y56.139
N3926 X73.816 Y56.246
N3927 X73.7 Y56.34
N3928 X73.416 Y56.47
N3929 X73.187 Y56.682
N3930 X72.834 Y57.196
N3931 X72.649 Y57.792
N3932 X72.559 Y58.41
N3933 X72.524 Y59.033
N3934 X72.53 Y59.656
N3935 X72.562 Y60.28
N3936 X72.602 Y60.902
N3937 X72.635 Y61.525
N3938 X72.647 Y62.149
N3939 X72.63 Y62.773
N3940 X72.579 Y63.395
N3941 X72.492 Y64.012
N3942 X72.365 Y64.624
N3943 X72.2 Y65.225
N3944 X71.998 Y65.815
N3945 X71.758 Y66.391
N3946 X71.481 Y66.951
N3947 X71.172 Y67.493
N3948 X70.832 Y68.016
N3949 X70.657 Y68.615
N3950 X70.609 Y69.237
N3951 X70.603 Y69.861
N3952 X70.581 Y70.363
N3953 X70.536 Y70.717
N3954 X70.474 Y71.017
N3955 X70.396 Y71.28
N3956 X70.311 Y71.502
N3957 X70.214 Y71.705
N3958 X70.106 Y71.89
N3959 X69.987 Y72.061
N3960 X69.87 Y72.204
N3961 X69.741 Y72.337
N3962 X69.601 Y72.46
N3963 X69.469 Y72.559
N3964 X69.324 Y72.65
N3965 X69.185 Y72.723
N3966 X69.035 Y72.787
N3967 X68.882 Y72.837
N3968 X68.732 Y72.874
N3969 X68.584 Y72.898
N3970 X68.435 Y72.909
N3971 X68.285 Y72.908
N3972 X68.135 Y72.895
N3973 X67.52 Y72.788
N3974 X66.904 Y72.693
N3975 X66.28 Y72.688
N3976 X65.659 Y72.751
N3977 X65.044 Y72.856
N3978 X64.433 Y72.981
N3979 X63.822 Y73.111
N3980 X63.211 Y73.234
N3981 X62.596 Y73.343
N3982 X61.979 Y73.433
N3983 X61.359 Y73.501
N3984 X60.736 Y73.544
N3985 X60.113 Y73.561
N3986 X59.489 Y73.55
N3987 X58.866 Y73.51
N3988 X58.246 Y73.442
N3989 X57.629 Y73.345
N3990 X57.018 Y73.221
N3991 X56.413 Y73.07
N3992 X55.815 Y72.89
N3993 X55.192 Y72.848
N3994 X54.579 Y72.964
N3995 X53.979 Y73.134
N3996 X53.438 Y73.28
N3997 X53.071 Y73.348
N3998 X52.768 Y73.379
N3999 X52.487 Y73.385
N4000 X52.241 Y73.371
N4001 X52.021 Y73.34
N4002 X51.81 Y73.293
N4003 X51.608 Y73.231
N4004 X51.432 Y73.161
N4005 X51.269 Y73.08
N4006 X51.112 Y72.986
N4007 X50.966 Y72.882
N4008 X50.836 Y72.771
N4009 X50.725 Y72.662
N4010 X50.621 Y72.54
N4011 X50.527 Y72.412
N4012 X50.449 Y72.283
N4013 X50.381 Y72.149
N4014 X50.324 Y72.01
N4015 X50.279 Y71.867
N4016 X50.246 Y71.72
N4017 X50.162 Y71.102
N4018 X50.059 Y70.487
N4019 X49.869 Y69.893
N4020 X49.617 Y69.322
N4021 X49.328 Y68.769
N4022 X49.021 Y68.226
N4023 X48.71 Y67.685
N4024 X48.404 Y67.141
N4025 X48.111 Y66.59
N4026 X47.834 Y66.031
N4027 X47.577 Y65.462
N4028 X47.345 Y64.883
N4029 X47.137 Y64.295
N4030 X46.955 Y63.698
N4031 X46.801 Y63.094
N4032 X46.674 Y62.483
N4033 X46.575 Y61.867
N4034 X46.504 Y61.247
N4035 X46.461 Y60.624
N4036 X46.447 Y60.001
N4037 X46.304 Y59.393
N4038 X46.009 Y58.843
N4039 X45.662 Y58.325
N4040 X45.363 Y57.87
N4041 X45.18 Y57.536
N4042 X45.055 Y57.256
N4043 X44.962 Y56.997
N4044 X44.899 Y56.757
N4045 X44.857 Y56.529
N4046 X44.836 Y56.319
N4047 X44.832 Y56.116
N4048 X44.844 Y55.92
N4049 X44.87 Y55.739
N4050 X44.908 Y55.57
N4051 X44.96 Y55.401
N4052 X45.025 Y55.241
N4053 X45.099 Y55.093
N4054 X45.177 Y54.963
N4055 X45.268 Y54.836
N4056 X45.368 Y54.718
N4057 X45.474 Y54.612
N4058 X45.588 Y54.515
N4059 X45.71 Y54.427
N4060 X45.839 Y54.35
N4061 X46.4 Y54.078
N4062 X46.953 Y53.789
N4063 X47.46 Y53.424
N4064 X47.924 Y53.008
N4065 X48.36 Y52.561
N4066 X48.781 Y52.101
N4067 X49.199 Y51.638
N4068 X49.622 Y51.179
N4069 X50.055 Y50.729
N4070 X50.502 Y50.294
N4071 X50.965 Y49.876
N4072 X51.444 Y49.476
N4073 X51.94 Y49.097
N4074 X52.451 Y48.74
N4075 X52.978 Y48.405
N4076 X53.519 Y48.094
N4077 X54.073 Y47.809
N4078 X54.641 Y47.549
N4079 X55.219 Y47.316
N4080 X55.808 Y47.109
N4081 X56.334 Y46.773
N4082 X56.763 Y46.321
N4083 X57.149 Y45.83
N4084 X57.484 Y45.414
N4085 X57.753 Y45.131
N4086 X57.985 Y44.922
N4087 X58.199 Y44.759
N4088 X58.411 Y44.623
N4089 X58.612 Y44.516
N4090 X58.807 Y44.431
N4091 X59.002 Y44.364
N4092 X59.194 Y44.315
N4093 X59.374 Y44.284
N4094 X59.556 Y44.268
N4095 X59.722 Y44.267
N4096 X59.895 Y44.279
N4097 X60.066 Y44.305
N4098 X60.221 Y44.342
N4099 X60.364 Y44.388
N4100 X60.505 Y44.447
N4101 X60.641 Y44.517
N4102 X60.769 Y44.596
N4103 X60.889 Y44.685
N4104 X61.002 Y44.784
N4105 X61.434 Y45.234
N4106 X61.878 Y45.673
N4107 X62.38 Y46.043
N4108 X62.92 Y46.356
N4109 X63.479 Y46.633
N4110 X64.046 Y46.892
N4111 X64.616 Y47.146
N4112 X65.184 Y47.406
N4113 X65.745 Y47.679
N4114 X66.297 Y47.968
N4115 X66.839 Y48.278
N4116 X67.368 Y48.61
N4117 X67.881 Y48.964
N4118 X68.379 Y49.34
N4119 X68.859 Y49.738
N4120 X69.321 Y50.158
N4121 X69.763 Y50.598
N4122 X70.185 Y51.058
N4123 X70.586 Y51.536
N4124 X70.964 Y52.032
N4125 X71.438 Y52.438
N4126 X72. Y52.709
N4127 X72.586 Y52.923
N4128 X73.109 Y53.123
N4129 X73.445 Y53.282
N4130 X73.72 Y53.442
N4131 X73.942 Y53.595
N4132 X74.131 Y53.749
N4133 X74.301 Y53.912
N4134 X74.438 Y54.067
N4135 X74.56 Y54.23
N4136 X74.663 Y54.393
N4137 X74.75 Y54.559
N4138 X74.824 Y54.731
N4139 X74.876 Y54.885
N4140 X74.916 Y55.049
N4141 X74.943 Y55.212
N4142 X74.956 Y55.369
N4143 Y55.525
N4144 X74.944 Y55.674
N4145 X74.92 Y55.822
N4146 X74.885 Y55.968
N4147 X74.836 Y56.115
N4148 X74.777 Y56.253
N4149 X74.484 Y56.804
N4150 X74.205 Y57.363
N4151 X74.013 Y57.956
N4152 X73.894 Y58.569
N4153 X73.835 Y59.19
N4154 X73.816 Y59.813
N4155 X73.819 Y60.437
N4156 X73.829 Y61.061
N4157 X73.833 Y61.685
N4158 X73.82 Y62.309
N4159 X73.786 Y62.932
N4160 X73.724 Y63.553
N4161 X73.632 Y64.17
N4162 X73.507 Y64.781
N4163 X73.349 Y65.385
N4164 X73.156 Y65.978
N4165 X72.931 Y66.56
N4166 X72.673 Y67.128
N4167 X72.385 Y67.682
N4168 X72.154 Y68.261
N4169 X72.009 Y68.868
N4170 X71.914 Y69.485
N4171 X71.83 Y70.103
N4172 X71.72 Y70.714
N4173 X71.598 Y71.176
N4174 X71.464 Y71.556
N4175 X71.316 Y71.888
N4176 X71.153 Y72.186
N4177 X70.978 Y72.453
N4178 X70.796 Y72.689
N4179 X70.604 Y72.898
N4180 X70.402 Y73.086
N4181 X70.192 Y73.253
N4182 X69.974 Y73.398
N4183 X69.754 Y73.522
N4184 X69.529 Y73.624
N4185 X69.302 Y73.707
N4186 X69.071 Y73.77
N4187 X68.78 Y73.825
N4188 X68.361 Y73.871
N4189 X67.737 Y73.887
N4190 X67.113 Y73.892
N4191 X66.49 Y73.926
N4192 X65.87 Y73.994
N4193 X65.253 Y74.086
N4194 X64.638 Y74.193
N4195 X64.024 Y74.305
N4196 X63.41 Y74.413
N4197 X62.793 Y74.51
N4198 X62.175 Y74.594
N4199 X61.554 Y74.658
N4200 X60.932 Y74.702
N4201 X60.308 Y74.722
N4202 X59.684 Y74.718
N4203 X59.061 Y74.687
N4204 X58.44 Y74.631
N4205 X57.821 Y74.55
N4206 X57.206 Y74.443
N4207 X56.597 Y74.31
N4208 X55.98 Y74.219
N4209 X55.356 Y74.228
N4210 X54.736 Y74.302
N4211 X54.12 Y74.398
N4212 X53.501 Y74.477
N4213 X53.01 Y74.504
N4214 X52.583 Y74.494
N4215 X52.215 Y74.455
N4216 X51.877 Y74.392
N4217 X51.563 Y74.306
N4218 X51.275 Y74.203
N4219 X51.013 Y74.084
N4220 X50.771 Y73.949
N4221 X50.547 Y73.8
N4222 X50.341 Y73.639
N4223 X50.154 Y73.465
N4224 X49.986 Y73.283
N4225 X49.837 Y73.092
N4226 X49.707 Y72.893
N4227 X49.567 Y72.638
N4228 X49.393 Y72.251
N4229 X49.184 Y71.663
N4230 X48.988 Y71.07
N4231 X48.763 Y70.488
N4232 X48.508 Y69.919
N4233 X48.23 Y69.36
N4234 X47.939 Y68.808
N4235 X47.643 Y68.259
N4236 X47.351 Y67.708
N4237 X47.067 Y67.152
N4238 X46.797 Y66.59
N4239 X46.543 Y66.02
N4240 X46.309 Y65.441
N4241 X46.097 Y64.854
N4242 X45.909 Y64.259
N4243 X45.745 Y63.657
N4244 X45.605 Y63.049
N4245 X45.491 Y62.436
N4246 X45.402 Y61.818
N4247 X45.339 Y61.198
N4248 X45.243 Y60.581
N4249 X45.047 Y59.989
N4250 X44.788 Y59.421
N4251 X44.507 Y58.864
N4252 X44.24 Y58.3
N4253 X44.059 Y57.837
N4254 X43.936 Y57.427
N4255 X43.858 Y57.065
N4256 X43.813 Y56.723
N4257 X43.796 Y56.4
N4258 X43.805 Y56.097
N4259 X43.836 Y55.81
N4260 X43.888 Y55.539
N4261 X43.96 Y55.28
N4262 X44.05 Y55.035
N4263 X44.156 Y54.803
N4264 X44.277 Y54.587
N4265 X44.412 Y54.386
N4266 X44.56 Y54.201
N4267 X44.758 Y53.989
N4268 X45.07 Y53.705
N4269 X45.564 Y53.323
N4270 X46.066 Y52.952
N4271 X46.55 Y52.558
N4272 X47.012 Y52.139
N4273 X47.457 Y51.702
N4274 X47.891 Y51.254
N4275 X48.322 Y50.803
N4276 X48.756 Y50.354
N4277 X49.197 Y49.913
N4278 X49.649 Y49.482
N4279 X50.113 Y49.066
N4280 X50.591 Y48.665
N4281 X51.084 Y48.282
N4282 X51.592 Y47.919
N4283 X52.113 Y47.576
N4284 X52.648 Y47.255
N4285 X53.195 Y46.956
N4286 X53.755 Y46.68
N4287 X54.326 Y46.427
N4288 X54.879 Y46.139
N4289 X55.379 Y45.766
N4290 X55.838 Y45.343
N4291 X56.28 Y44.903
N4292 X56.734 Y44.475
N4293 X57.117 Y44.162
N4294 X57.47 Y43.918
N4295 X57.791 Y43.732
N4296 X58.103 Y43.583
N4297 X58.408 Y43.467
N4298 X58.699 Y43.382
N4299 X58.983 Y43.323
N4300 X59.26 Y43.288
N4301 X59.529 Y43.277
N4302 X59.79 Y43.287
N4303 X60.044 Y43.317
N4304 X60.289 Y43.366
N4305 X60.522 Y43.432
N4306 X60.745 Y43.516
N4307 X61.007 Y43.639
N4308 X61.369 Y43.845
N4309 X61.884 Y44.198
N4310 X62.39 Y44.563
N4311 X62.913 Y44.902
N4312 X63.454 Y45.214
N4313 X64.007 Y45.502
N4314 X64.567 Y45.778
N4315 X65.129 Y46.049
N4316 X65.69 Y46.322
N4317 X66.246 Y46.605
N4318 X66.795 Y46.9
N4319 X67.336 Y47.212
N4320 X67.865 Y47.542
N4321 X68.382 Y47.892
N4322 X68.884 Y48.262
N4323 X69.371 Y48.652
N4324 X69.842 Y49.062
N4325 X70.295 Y49.491
N4326 X70.731 Y49.938
N4327 X71.147 Y50.402
N4328 X71.587 Y50.845
N4329 X72.093 Y51.21
N4330 X72.636 Y51.518
N4331 X73.19 Y51.803
N4332 X73.738 Y52.102
N4333 X74.158 Y52.369
N4334 X74.501 Y52.629
N4335 X74.778 Y52.875
N4336 X75.016 Y53.125
N4337 X75.222 Y53.379
N4338 X75.395 Y53.63
N4339 X75.538 Y53.88
N4340 X75.656 Y54.13
N4341 X75.751 Y54.381
N4342 X75.823 Y54.631
N4343 X75.874 Y54.88
N4344 X75.903 Y55.127
N4345 X75.913 Y55.371
N4346 X75.903 Y55.61
N4347 X75.868 Y55.897
N4348 X75.785 Y56.304
N4349 X75.611 Y56.903
N4350 X75.424 Y57.498
N4351 X75.273 Y58.104
N4352 X75.169 Y58.719
N4353 X75.105 Y59.34
N4354 X75.072 Y59.963
N4355 X75.055 Y60.587
N4356 X75.042 Y61.21
N4357 X75.025 Y61.834
N4358 X74.995 Y62.457
N4359 X74.947 Y63.079
N4360 X74.877 Y63.699
N4361 X74.782 Y64.316
N4362 X74.659 Y64.928
N4363 X74.505 Y65.532
N4364 X74.322 Y66.129
N4365 X74.108 Y66.715
N4366 X73.866 Y67.29
N4367 X73.625 Y67.866
N4368 X73.431 Y68.459
N4369 X73.279 Y69.064
N4370 X73.151 Y69.674
N4371 X73.025 Y70.286
N4372 X72.88 Y70.892
N4373 X72.697 Y71.489
N4374 X72.507 Y71.969
N4375 X72.297 Y72.396
N4376 X72.069 Y72.778
N4377 X71.992 Y72.886
N4378 X71.968 Y72.917
N4379 X71.943 Y72.947
N4380 X71.916 Y72.976
N4381 X71.801 Y73.09
N4382 X71.675 Y73.21
N4383 X71.251 Y73.563
N4384 X71.109 Y73.67
N4385 X70.561 Y74.081
N4386 X70.216 Y74.313
N4387 X69.976 Y74.448
N4388 X69.685 Y74.582
N4389 X69.371 Y74.697
N4390 X68.947 Y74.815
N4391 X68.334 Y74.934
N4392 X67.714 Y75.007
N4393 X67.094 Y75.072
N4394 X66.474 Y75.144
N4395 X65.856 Y75.23
N4396 X65.239 Y75.326
N4397 X64.008 Y75.528
N4398 X63.392 Y75.624
N4399 X62.773 Y75.709
N4400 X62.154 Y75.781
N4401 X61.532 Y75.836
N4402 X60.909 Y75.872
N4403 X60.286 Y75.887
N4404 X59.662 Y75.88
N4405 X59.038 Y75.851
N4406 X58.417 Y75.798
N4407 X57.797 Y75.721
N4408 X57.181 Y75.622
N4409 X56.563 Y75.539
N4410 X55.94 Y75.51
N4411 X55.316 Y75.532
N4412 X54.694 Y75.579
N4413 X54.072 Y75.628
N4414 X53.449 Y75.656
N4415 X52.861 Y75.648
N4416 X52.333 Y75.598
N4417 X51.857 Y75.514
N4418 X51.612 Y75.45
N4419 X51.557 Y75.434
N4420 X51.504 Y75.413
N4421 X51.453 Y75.387
N4422 X50.731 Y74.993
N4423 X50.627 Y74.93
N4424 X50.196 Y74.647
N4425 X49.74 Y74.306
N4426 X49.467 Y74.08
N4427 X49.265 Y73.883
N4428 X49.054 Y73.641
N4429 X48.834 Y73.343
N4430 X48.578 Y72.932
N4431 X48.292 Y72.378
N4432 X48.036 Y71.809
N4433 X47.782 Y71.239
N4434 X47.518 Y70.673
N4435 X47.243 Y70.113
N4436 X46.959 Y69.558
N4437 X46.672 Y69.004
N4438 X46.386 Y68.449
N4439 X46.106 Y67.892
N4440 X45.837 Y67.329
N4441 X45.582 Y66.759
N4442 X45.343 Y66.183
N4443 X45.122 Y65.599
N4444 X44.922 Y65.008
N4445 X44.743 Y64.411
N4446 X44.586 Y63.807
N4447 X44.451 Y63.198
N4448 X44.34 Y62.584
N4449 X44.244 Y61.967
N4450 X44.123 Y61.355
N4451 X43.945 Y60.757
N4452 X43.724 Y60.174
N4453 X43.483 Y59.598
N4454 X43.247 Y59.02
N4455 X43.037 Y58.433
N4456 X42.876 Y57.863
N4457 X42.778 Y57.365
N4458 X42.726 Y56.912
N4459 X42.72 Y56.73
N4460 X42.721 Y56.672
N4461 X42.726 Y56.615
N4462 X42.736 Y56.558
N4463 X43.018 Y55.259
N4464 X43.053 Y55.118
N4465 X43.089 Y54.976
N4466 X43.194 Y54.693
N4467 X43.374 Y54.274
N4468 X43.52 Y53.999
N4469 X43.696 Y53.723
N4470 X43.947 Y53.392
N4471 X44.317 Y52.977
N4472 X44.768 Y52.546
N4473 X45.232 Y52.129
N4474 X45.693 Y51.708
N4475 X46.146 Y51.279
N4476 X46.59 Y50.841
N4477 X47.03 Y50.398
N4478 X47.468 Y49.954
N4479 X47.909 Y49.512
N4480 X48.356 Y49.077
N4481 X48.811 Y48.651
N4482 X49.278 Y48.236
N4483 X49.756 Y47.835
N4484 X50.247 Y47.451
N4485 X50.751 Y47.083
N4486 X51.269 Y46.734
N4487 X51.799 Y46.405
N4488 X52.34 Y46.096
N4489 X52.894 Y45.807
N4490 X53.449 Y45.523
N4491 X53.98 Y45.196
N4492 X54.481 Y44.824
N4493 X54.961 Y44.425
N4494 X55.433 Y44.017
N4495 X55.915 Y43.62
N4496 X56.416 Y43.249
N4497 X56.87 Y42.962
N4498 X57.302 Y42.736
N4499 X57.721 Y42.557
N4500 X57.79 Y42.534
N4501 X57.846 Y42.518
N4502 X57.904 Y42.506
N4503 X57.962 Y42.5
N4504 X59.505 Y42.389
N4505 X59.918 Y42.38
N4506 X60.194 Y42.397
N4507 X60.474 Y42.436
N4508 X60.792 Y42.507
N4509 X61.141 Y42.615
N4510 X61.581 Y42.791
N4511 X62.14 Y43.068
N4512 X62.682 Y43.378
N4513 X63.221 Y43.691
N4514 X63.766 Y43.996
N4515 X64.317 Y44.288
N4516 X64.873 Y44.572
N4517 X65.431 Y44.851
N4518 X65.988 Y45.131
N4519 X66.543 Y45.418
N4520 X67.092 Y45.714
N4521 X67.634 Y46.023
N4522 X68.167 Y46.347
N4523 X68.69 Y46.688
N4524 X69.2 Y47.046
N4525 X69.698 Y47.422
N4526 X70.182 Y47.816
N4527 X70.651 Y48.228
N4528 X71.104 Y48.657
N4529 X71.544 Y49.1
N4530 X71.999 Y49.526
N4531 X72.491 Y49.91
N4532 X73.011 Y50.255
N4533 X73.543 Y50.58
N4534 X74.074 Y50.908
N4535 X74.593 Y51.255
