%
(1001)
(T1  D=3. CR=0. - ZMIN=-18.14 - FLAT END MILL)
N1 G90 G94 G17 G91.1
N2 G21
(WHEN USING FUSION 360 FOR PERSONAL USE, THE FEEDRATE OF)
(RAPID MOVES IS REDUCED TO MATCH THE FEEDRATE OF CUTTING)
(MOVES, WHICH CAN INCREASE MACHINING TIME. UNRESTRICTED RAPID)
(MOVES ARE AVAILABLE WITH A FUSION 360 SUBSCRIPTION.)
(2D CONTOUR3)
N3 T1
N4 S5000 M3
N5 G54
N6 G64 P0.01
N7 M8
N8 G0 X-61.5 Y0.
N9 G43 Z15.93 H1
N10 G1 Z5.93 F500.
N11 Z2.53 F166.67
N12 Z0.33
N13 G2 X61.5 I61.5 J0. F500.
N14 X-61.5 I-61.5 J0.
N15 G1 Z-0.27 F166.67
N16 G2 X61.5 I61.5 J0. F500.
N17 X-61.5 I-61.5 J0.
N18 G1 Z-0.87 F166.67
N19 G2 X61.5 I61.5 J0. F500.
N20 X-61.5 I-61.5 J0.
N21 G1 Z-1.47 F166.67
N22 G2 X61.5 I61.5 J0. F500.
N23 X-61.5 I-61.5 J0.
N24 G1 Z-2.07 F166.67
N25 G2 X61.5 I61.5 J0. F500.
N26 X-61.5 I-61.5 J0.
N27 G1 Z-2.67 F166.67
N28 G2 X61.5 I61.5 J0. F500.
N29 X-61.5 I-61.5 J0.
N30 G1 Z-3.27 F166.67
N31 G2 X61.5 I61.5 J0. F500.
N32 X-61.5 I-61.5 J0.
N33 G1 Z-3.87 F166.67
N34 G2 X61.5 I61.5 J0. F500.
N35 X-61.5 I-61.5 J0.
N36 G1 Z-4.47 F166.67
N37 G2 X61.5 I61.5 J0. F500.
N38 X-61.5 I-61.5 J0.
N39 G1 Z-5.07 F166.67
N40 G2 X61.5 I61.5 J0. F500.
N41 X-61.5 I-61.5 J0.
N42 G1 Z-5.67 F166.67
N43 G2 X61.5 I61.5 J0. F500.
N44 X-61.5 I-61.5 J0.
N45 G1 Z-6.27 F166.67
N46 G2 X61.5 I61.5 J0. F500.
N47 X-61.5 I-61.5 J0.
N48 G1 Z-6.87 F166.67
N49 G2 X61.5 I61.5 J0. F500.
N50 X-61.5 I-61.5 J0.
N51 G1 Z-7.47 F166.67
N52 G2 X61.5 I61.5 J0. F500.
N53 X-61.5 I-61.5 J0.
N54 G1 Z-8.07 F166.67
N55 G2 X61.5 I61.5 J0. F500.
N56 X-61.5 I-61.5 J0.
N57 G1 Z-8.67 F166.67
N58 G2 X61.5 I61.5 J0. F500.
N59 X-61.5 I-61.5 J0.
N60 G1 Z-9.27 F166.67
N61 G2 X61.5 I61.5 J0. F500.
N62 X-61.5 I-61.5 J0.
N63 G1 Z-9.87 F166.67
N64 G2 X61.5 I61.5 J0. F500.
N65 X-61.5 I-61.5 J0.
N66 G1 Z-10.47 F166.67
N67 G2 X61.5 I61.5 J0. F500.
N68 X-61.5 I-61.5 J0.
N69 G1 Z-11.07 F166.67
N70 G2 X61.5 I61.5 J0. F500.
N71 X-61.5 I-61.5 J0.
N72 G1 Z-11.67 F166.67
N73 G2 X61.5 I61.5 J0. F500.
N74 X-61.5 I-61.5 J0.
N75 G1 Z-12.27 F166.67
N76 G2 X61.5 I61.5 J0. F500.
N77 X-61.5 I-61.5 J0.
N78 G1 Z-12.87 F166.67
N79 G2 X61.5 I61.5 J0. F500.
N80 X-61.5 I-61.5 J0.
N81 G1 Z-13.47 F166.67
N82 G2 X61.5 I61.5 J0. F500.
N83 X-61.5 I-61.5 J0.
N84 G1 Z-14.07 F166.67
N85 G2 X61.5 I61.5 J0. F500.
N86 X-61.5 I-61.5 J0.
N87 G1 Z-14.67 F166.67
N88 G2 X61.5 I61.5 J0. F500.
N89 X-61.5 I-61.5 J0.
N90 G1 Z-15.27 F166.67
N91 G2 X61.5 I61.5 J0. F500.
N92 X-61.5 I-61.5 J0.
N93 G1 Z-15.87 F166.67
N94 G2 X61.5 I61.5 J0. F500.
N95 X-61.5 I-61.5 J0.
N96 G1 Z-16.47 F166.67
N97 G2 X61.5 I61.5 J0. F500.
N98 X-61.5 I-61.5 J0.
N99 G1 Z-17.07 F166.67
N100 G2 X61.5 I61.5 J0. F500.
N101 X-61.5 I-61.5 J0.
N102 G1 Z-17.67 F166.67
N103 G2 X61.5 I61.5 J0. F500.
N104 X-61.5 I-61.5 J0.
N105 G1 Z-18.14 F166.67
N106 G2 X61.5 I61.5 J0. F500.
N107 X-61.5 I-61.5 J0.
N108 G1 Z15.93
N109 M9
N110 M5
N111 M30
%
